Debojit-D/Bi-Manual_Redundancy_Work/joint_angles_without.csv
Left_Arm_Joint_1,Left_Arm_Joint_2,Left_Arm_Joint_3,Left_Arm_Joint_4,Left_Arm_Joint_5,Left_Arm_Joint_6,Left_Arm_Joint_7,Right_Arm_Joint_1,Right_Arm_Joint_2,Right_Arm_Joint_3,Right_Arm_Joint_4,Right_Arm_Joint_5,Right_Arm_Joint_6,Right_Arm_Joint_7,Velocity_Manipulability,Error_Position_X,Error_Position_Y,Error_Position_Z,Error_Orientation_Roll,Error_Orientation_Pitch,Error_Orientation_Yaw,Box_Position_X,Box_Position_Y,Box_Position_Z,Box_Orientation_X,Box_Orientation_Y,Box_Orientation_Z,Box_Orientation_W
-1.7672486042379154,-0.9478969572149244,2.19910652431274,-2.705919992345572,-0.870166909688167,2.242944428875044,1.285591975573799,-1.1060582520303264,0.7280942141473554,0.7760604946571268,-2.672231769625128,1.0896829203817944,2.013478350144177,-1.4301428464466373,0.008504216033959254,-0.00025974772583881034,-4.0380824806401424e-05,0.0006549421819401768,-4.446616163079747e-05,-0.0003059122331932169,-1.4345336111393897e-05,0.299922181121771,-4.558821737458249e-05,1.0999001523100735,2.2263295408178303e-05,0.0001529491558469914,-6.652309824105482e-05,0.9999999858427894
-1.7672449272625324,-0.9478922862217128,2.199091441505896,-2.705927334939706,-0.8701756942105234,2.2429259324602406,1.2855813223435228,-1.1060552952802745,0.7280873815080612,0.7760945412239719,-2.6722332106408904,1.0896947188298343,2.0134616186662444,-1.4301308229410659,0.008504249463107088,-0.0002529757268532329,0.00010549208904294863,0.0014534452016050636,-4.5397305507585897e-05,-0.0002995688613176334,2.229175650356004e-05,0.29991723393433994,-4.412128304562477e-05,1.0999008162321413,2.273140007244381e-05,0.00014977702260099063,-8.484164346981196e-05,0.9999999849260112
-1.7672419260248695,-0.9478905228904788,2.1990482778572464,-2.705937563353322,-0.8701779980313479,2.242907684119865,1.285569068895036,-1.1060523502118649,0.7280808783933697,0.7761171469161608,-2.672251555595106,1.0897046806725297,2.013445482317016,-1.430120567900815,0.008504242453420867,-0.00025323285621653424,0.0002526901870622475,0.0022516860021604135,-4.599128832466336e-05,-0.0003004883820710964,2.6591542959921534e-05,0.29991931221465284,-4.427509928215916e-05,1.0999009421284462,2.302875347311378e-05,0.00015023670826451327,-8.699159172355842e-05,0.9999999846655354
-1.7672383297306111,-0.9478856608044474,2.199033223680544,-2.70594497652654,-0.8701862496982337,2.2428889202917595,1.2855585953590543,-1.1060494226743927,0.728074200342304,0.7761511328950313,-2.672253278045912,1.0897168352464204,2.013428998424389,-1.4301087633647003,0.008504202439281804,-0.00025293298004674947,0.0003993442236960864,0.003048755058975061,-4.5301914815988125e-05,-0.000304407351059068,2.8863744657913387e-05,0.2999208298288277,-4.418042052877666e-05,1.0999014395236189,2.2684410079485412e-05,0.00015219619694133957,-8.812768516783334e-05,0.9999999842776232
-1.7672354878698675,-0.9478835275395533,2.1989900330901935,-2.705954875298947,-0.8701879113824262,2.2428701976853076,1.2855460762022481,-1.1060467161314564,0.7280679796605771,0.7761736520986268,-2.6722715035959395,1.0897279867296443,2.01341323183576,-1.430098312947961,0.008504248650876057,-0.00024205675452887432,0.0005461602794051284,0.0038456500381316427,-3.942464894826566e-05,-0.00028799860904042977,-4.350389232264689e-05,0.29991176743304954,-4.454332724614079e-05,1.0999013107515772,1.9739844015398128e-05,0.0001439927993869228,-5.1943258116727205e-05,0.9999999880891552
-1.767232164030929,-0.9478802901273726,2.198961009404928,-2.7059636454943985,-0.8701933809990863,2.242851881954574,1.2855347212152368,-1.1060437743934268,0.7280613574986518,0.7762018592052616,-2.672281440435254,1.089738803697425,2.0133968631216965,-1.4300872735656351,0.008504202285515268,-0.0002422362763095376,0.0006926686156620049,0.00464101215000956,-3.818325244750049e-05,-0.00028916990045690195,-2.5460633148195877e-05,0.299913757123965,-4.4894080906882404e-05,1.099901914601941,1.9120480522162703e-05,0.0001445783048372183,-6.096480940579562e-05,0.9999999875074065
-1.767228585557662,-0.9478755419145012,2.198946011803346,-2.705971068336835,-0.8702015951266786,2.242833120359154,1.2855242868892587,-1.106040815022547,0.7280546572175434,0.7762358503399869,-2.6722831093096335,1.0897509574736204,2.013380453819747,-1.4300755119686228,0.008504275882719254,-0.00024274065485474505,0.0008391528906430219,0.005437753968881021,-4.3487051032923424e-05,-0.00029719150916242526,-2.403111668521058e-05,0.2999160680110401,-4.5516339687307656e-05,1.0999003385004391,2.1772730480887548e-05,0.0001485889319032414,-6.168003828833835e-05,0.9999999868214252
-1.767034260715084,-0.9476748205375978,2.197119368844754,-2.7065967723673414,-0.8704985793716546,2.2421456326745726,1.284855090361277,-1.1060325578760668,0.7280470953863976,0.7762692081697389,-2.6722652481003837,1.0897594124630297,2.013263660619342,-1.4300587590003455,0.008504275739046168,-0.00036564924497589635,0.0010562623586921616,0.006146075699611231,-0.00045651814957948,-0.0005326193653652306,0.0004932649406865514,0.3000407794490862,-0.00011705935793139919,1.0999863822422058,0.00022836439752025402,0.0002662310559623749,-0.00032038560035547585,0.9999998871618906
-1.7667725447896894,-0.947427653672533,2.1949454420100363,-2.707199430754851,-0.8708490999296093,2.2414432456679743,1.2839098774465396,-1.1060168875458112,0.7280422083118626,0.7762773753300704,-2.6722157331250203,1.0895748475108924,2.012858109388092,-1.430058972889879,0.008505392689008353,-0.0006405229771488385,0.001394540500192366,0.006833858431382511,-0.0017267544287483247,-0.0012982881163261235,0.0010273587734157517,0.3003174523685792,-0.0003100666160220986,1.1000921647380584,0.0008637781024023127,0.000648631044180123,-0.0005879318380229213,0.9999992437503701
-1.7665870730218167,-0.94725490860034,2.1932860285612192,-2.7077989568921876,-0.8707149252273886,2.2412471743588545,1.2830869563008247,-1.1059995009988723,0.7280315689009134,0.7763428231230223,-2.6721401700827574,1.0893760799552477,2.0126374147171444,-1.4300559747972046,0.00850420419360634,-0.0009963773196610126,0.0017101626766734836,0.007497627798064288,-0.0028616171564668355,-0.002200991650446311,0.0025262824472646085,0.30067510223780647,-0.0004807134754892545,1.1002211603541279,0.0014322971559521354,0.0010985752363570059,-0.001338405621847974,0.9999974751606618
-1.766350526011454,-0.9470399132798205,2.191457591152729,-2.7079884728311128,-0.8702640928130772,2.2408334677356025,1.281324388867067,-1.1062376780754382,0.7280259450471817,0.7763653750596331,-2.672047101705635,1.0891622019477136,2.012327740447529,-1.4295240295638754,0.008504215560457667,-0.0016203830659511365,0.0018536878723923074,0.008165284162510611,-0.00371661046788481,-0.0033797317091298724,0.0032186088834577613,0.30130089985020675,-0.00047955892058965967,1.10034546872756,0.0018611629418730808,0.0016867267119346843,-0.0016861310042215795,0.9999954239833999
-1.7658921474301335,-0.9469009983978989,2.1906019173387326,-2.7084922809639314,-0.872253198518065,2.241304941811052,1.281795294256021,-1.1062767287504551,0.7280187286193116,0.7763991677849136,-2.6721924389187337,1.0909370776201488,2.0126185951947417,-1.430090714657108,0.008504244506559813,-0.001949711916952146,0.00204422336828808,0.008752522479759772,-0.004343986075087096,-0.003664752371930188,0.0046359488839924235,0.30163201690671304,-0.0005257102322625574,1.100549394903317,0.0021763839152806144,0.0018271654043912752,-0.00239563478522423,0.9999930928529527
-1.7654784215149297,-0.9466856813144223,2.188343628848788,-2.7088554056421565,-0.8721052256075205,2.2412560139339877,1.2802471339948758,-1.1063616592400856,0.7280136440090191,0.7764113619654561,-2.6722151790006983,1.0911252724842855,2.0124610351647867,-1.4300848874576138,0.008504288082043586,-0.001894329234296277,0.0022447659497382933,0.009358239077637664,-0.005017459718707382,-0.003858213497135052,0.003978755923117546,0.3015784187689575,-0.0005821641958854382,1.100734042553572,0.002512717115197454,0.0019239141877504487,-0.002067898144748346,0.9999928542765494
-1.7649345912270196,-0.9465648895531428,2.1875616931851742,-2.7094291846690064,-0.8738200618811356,2.2418008300943137,1.2806794770256442,-1.1064224037208024,0.7280001371827599,0.7764398582539837,-2.6722312504402006,1.0911663450268057,2.0123837937489797,-1.4300780929341497,0.00850425680641351,-0.0023149079627067803,0.002457675304206285,0.009969357922081423,-0.005696866085989915,-0.004278053209946076,0.00575269323941734,0.30200077838166345,-0.000651280498921641,1.100912487712389,0.002854740476888507,0.0021305985041840795,-0.002956108849646707,0.9999892861562533
-1.763831267419406,-0.946240783729619,2.184583108308853,-2.710352823635792,-0.8752319907164228,2.2426086925939113,1.279510695990038,-1.1065687421803374,0.7279922246005157,0.7764580000474819,-2.6722642724276886,1.0914405464565085,2.0121801516284252,-1.430077827634632,0.008503926225091605,-0.0024149531914309796,0.0026809566562917423,0.010585303092541576,-0.00639828539929322,-0.0045084398252699075,0.005557953100753728,0.30210260083407814,-0.0007310643659708528,1.1010853063003168,0.003205566618531169,0.0022450657154946723,-0.002859854750089731,0.9999882525576966
-1.762901783849741,-0.9459914687456076,2.1826108681156073,-2.7110054267788626,-0.8762890046905266,2.2434031925032585,1.2787248059849654,-1.1066848820787079,0.7279944713599804,0.7764772679198516,-2.672262124307687,1.0915536219856112,2.011997601320629,-1.4300701604429145,0.008504217684290298,-0.002170061181357652,0.0029602461349462657,0.011127580939733539,-0.00740670382846443,-0.004458856168792939,0.003443728074820282,0.30185948238709037,-0.000867151925984674,1.1013309919666399,0.003707351337450136,0.0022227522981234037,-0.001803795003041987,0.9999890305607702
-1.7618633454303507,-0.945752716435995,2.180750710444778,-2.7115920235406605,-0.8770971416675829,2.2441257112657214,1.2778892544477611,-1.107192613244982,0.7275683078169395,0.7783273102638288,-2.6728111840807,1.0928187946592136,2.0105300361677245,-1.4294157377740668,0.008504264202885347,-0.0023296276874669175,0.0030575950964060647,0.011552810679443803,-0.00787579601080593,-0.003999816790245405,0.004821820861338199,0.30202081879568027,-0.0008215945351993139,1.101692925495572,0.003942856755961099,0.0019900957959059357,-0.0024924514084566475,0.999987140459967
-1.7608429561221737,-0.9455723545056816,2.1794006435959288,-2.7122471931073844,-0.877204937892226,2.2444465749238933,1.277161161639973,-1.107855160389747,0.7270681263062859,0.7804871611702046,-2.6734951658295887,1.093933125456586,2.0091899243678313,-1.4286378595750204,0.008504518349822602,-0.0020581140045573543,0.003091186135854845,0.011949357235602864,-0.007499226633329327,-0.00304665235205548,0.005386745571954476,0.30175107135464646,-0.0007125747887984784,1.1020827419631825,0.0037538209565633595,0.00151292813672349,-0.002772750812508948,0.9999879657923945
-1.759850903097594,-0.9453718101036769,2.177886945306468,-2.7128167448132645,-0.8776418368639382,2.244884255400957,1.2764231536564459,-1.1085508614878088,0.7266516369571565,0.7822962947021634,-2.6740319237242502,1.094699555122034,2.0082282568184096,-1.4279696854755797,0.008504545720153163,-0.0020006845063566536,0.003156822441484048,0.012438280400058899,-0.0072956045376953585,-0.0029746374085954205,0.005722401596374159,0.30169540443771653,-0.0006358958749736091,1.1023793815776237,0.003652159542959622,0.001476590457605087,-0.002940291592533507,0.9999879179753344
-1.7589411419984995,-0.9451819339565256,2.176572330872991,-2.7133932340011784,-0.8778316411162288,2.245225104222137,1.2757577668158846,-1.109154257117506,0.7262208078342886,0.7836420425536551,-2.6747067265482554,1.095319270710023,2.0072527245574996,-1.4272864037738635,0.008504543551735069,-0.0020058691343310953,0.0032462587806914092,0.01291331968818854,-0.007515834312993643,-0.0029237851525837156,0.005555167335181482,0.3017023479863568,-0.0005833125611224407,1.1026891048235181,0.00376207726817399,0.0014511554462184016,-0.002856742630747484,0.999987789897477
-1.7581141152297064,-0.9449570655005116,2.1753571497530113,-2.71389971005601,-0.8779756707598203,2.245513216874809,1.2751153910108912,-1.1098341402130951,0.7258187163674472,0.7851927713952963,-2.675022742678526,1.0958565210387148,2.0065908645233694,-1.4266936297217236,0.008504399239070908,-0.0019842040602456312,0.003374963112450169,0.013407336663289193,-0.00760500761975291,-0.0031831566616955043,0.005120618733188926,0.3016824381723323,-0.0005702928062182144,1.1029790501375694,0.0038066888487939344,0.0015815393459083535,-0.0026400282611421834,0.9999880189802708
-1.7572720774809214,-0.9448585862131336,2.1743008760121727,-2.7143450196840253,-0.8782585940193731,2.245880555997629,1.2745846975432362,-1.1106276512834325,0.7255049607318678,0.7863597894007626,-2.6757254529055,1.096440271709927,2.0060460933036848,-1.4261446769332884,0.00850512771668458,-0.0019023979024072601,0.003538859294451012,0.013952213343459752,-0.0076886570106949785,-0.0033078759459539593,0.004014201387938041,0.30160238361395,-0.0005927604679516139,1.1032173355016779,0.003847766958032117,0.0016459166798567081,-0.002087131594617148,0.9999890647049228
-1.756345952387921,-0.9446752640639019,2.172926751558171,-2.714846801459537,-0.878383121383976,2.2460962624014735,1.2739404320898096,-1.1112444766838376,0.7250887449485306,0.7877456114160133,-2.676103514428423,1.0968005465420576,2.005555573668396,-1.4255419577208033,0.008500956420893734,-0.002254096859791721,0.0036597396950564798,0.014489203105671367,-0.007598737671070751,-0.0034857233825516267,0.005593095178975469,0.30195583051018554,-0.0005725079146851825,1.1034627075388723,0.0038043606847843895,0.0017319304710983745,-0.0028768326783516177,0.9999871254623053
-1.754898517599005,-0.9443789263943141,2.1709778297149738,-2.7156959717470612,-0.8786741158950304,2.246600815657718,1.2728804602220116,-1.1123498798659934,0.7244088812949163,0.7895375980551447,-2.6768367052060578,1.0974296903032925,2.0046728614085,-1.4245161604380914,0.008500513670864728,-0.0022596302137440905,0.0038676382658015683,0.014992848255198421,-0.007790308337455643,-0.0036512617344110726,0.005062682997948071,0.3019631081423841,-0.0006395690979539148,1.103740623943879,0.0038999004236544175,0.0018154573229275297,-0.002612117895603447,0.9999873357855558
-1.7537073800698522,-0.9442239884866346,2.1694959738927895,-2.716315383063672,-0.8790186989115685,2.247142155318291,1.2721250577975807,-1.113667793233854,0.7237683856309625,0.7912647823719365,-2.6776432289712937,1.0979340916617883,2.0042143929199376,-1.4237729577477982,0.008496717527087454,-0.002569948433283953,0.0040545191332400955,0.01551462067676912,-0.00804470331751394,-0.003955458657088145,0.006031973755133794,0.30227516697956525,-0.0006859081443116289,1.103999612831969,0.004028444256555966,0.0019652693600772857,-0.003097598364140628,0.9999851570086371
-1.7525397434051295,-0.9440102048576711,2.1679384947471294,-2.7169624370390433,-0.8793523693533613,2.2475789488002937,1.2713034028137278,-1.1142951980009426,0.7233059806569566,0.7922165889863443,-2.6778747168574135,1.0983956122741314,2.0036482070769703,-1.4229747571573879,0.008497188713890585,-0.002421412031687664,0.004283447526631933,0.015919191881044847,-0.0081787448143391,-0.004103017944537852,0.0047916633264725355,0.30212836753500527,-0.0007745902830181957,1.1043750026924815,0.004094426161017541,0.002041379851224162,-0.0024778850190161185,0.9999864641726646
-1.7516503108750736,-0.9438764839292043,2.1666796193211653,-2.7174677196572334,-0.8796059841243411,2.248007713423043,1.2706783322324093,-1.1156366490611553,0.7227642964977528,0.7939466428154838,-2.6787944362582863,1.0988201813305074,2.0033756643284604,-1.4225161471394712,0.008497198817638767,-0.002342139639252394,0.004520286601040731,0.016382469752343587,-0.008477329593277889,-0.0042909463746615755,0.0037923799047164535,0.3020508284390014,-0.0008714786691372681,1.1046908856410982,0.004242880440633082,0.0021370929653901135,-0.0019789527219322917,0.999986757184988
-1.7506547519957338,-0.9436940367646702,2.1654151490883207,-2.718030279155455,-0.879910674809648,2.248390496795367,1.2699704830701997,-1.1159931437428257,0.7224382947449003,0.7943708244528241,-2.678679065474395,1.0990571250277827,2.0028950437322046,-1.4217106221681015,0.008485746998692794,-0.002690467632420812,0.004716134128360337,0.016946305586633903,-0.008509910707522246,-0.00468937496510847,0.005570707706413851,0.3024008860679963,-0.0009276710745626905,1.1049054103818507,0.004261636947265978,0.002332483962387452,-0.002868985065943606,0.9999840833202227
-1.7499788070382625,-0.9435979409071846,2.1643696878236938,-2.7184404394886554,-0.8800995845347522,2.248692950806844,1.2694682373824158,-1.1175387736749522,0.7220604124715689,0.79631030190973,-2.6798571309513366,1.09946099592218,2.0028549907583115,-1.4214892923802285,0.008485749488461706,-0.00228981951518209,0.0049989130157262005,0.01741555813596496,-0.00890508908075086,-0.00486364925597706,0.002819459523518255,0.3020019639259791,-0.0010710904064299143,1.1052137181626898,0.004456139177886272,0.002425184981210874,-0.0014942302637798415,0.9999860141908751
-1.7484965174937865,-0.9433163046250982,2.1623773158061925,-2.719312901129499,-0.8805459590353498,2.24929134045103,1.268349793535799,-1.1193812172579705,0.7214033567283673,0.7982771827158702,-2.680472684265747,1.099880140123711,2.002482847945278,-1.4203573753045626,0.008485731337757998,-0.0023063715159931664,0.005198557595237848,0.01797205523086176,-0.008903353761825899,-0.005105932996922786,0.0030984879189211783,0.30202023824140684,-0.0011316709968384638,1.1054339811530902,0.004455805093905495,0.0025457048168707245,-0.0016342791842848437,0.9999854970545814
-1.7474449118297917,-0.9431427035233146,2.1609571569711528,-2.719916923413377,-0.880836636879862,2.2497038826894387,1.2675736142787906,-1.1207804978538958,0.7209495168564842,0.7997649656819363,-2.681219372814364,1.1002090242060771,2.0023591295745002,-1.4196983977063573,0.008485995967348219,-0.0022577374783565585,0.005433034346138602,0.018453151887122043,-0.008905886082141113,-0.0054462781328015525,0.0028279357783014217,0.30197332285778195,-0.0012273793250316641,1.1057288443372548,0.004456977978705556,0.002716475762502884,-0.0014997653837120243,0.9999852532965289
-1.746513628068671,-0.9428823558357413,2.1595293761549943,-2.720569288537223,-0.8810982984725853,2.250070907924742,1.266724596370878,-1.1219283138557845,0.7204333502666943,0.800776861197984,-2.681681875882231,1.100369947114546,2.0020925554237565,-1.418894064783551,0.00848075860463072,-0.0022283202685248193,0.005678931295403082,0.01888979504263477,-0.008973850684084288,-0.005775692236693723,0.002700276382861756,0.301945620641357,-0.001334803417984134,1.106067360777294,0.004491018816486553,0.0028814160281144157,-0.001436767312680369,0.9999847318291175
-1.7454600360330934,-0.9427635809862214,2.158109108880015,-2.7208559344226404,-0.8770832001395232,2.249504527494793,1.2629618156860207,-1.1231093298937254,0.7199800676980189,0.8017637772853797,-2.6817841694674533,1.0973726618998825,2.0012171203988958,-1.4165637156789903,0.008477428510929967,-0.002196716842576385,0.00594309668801076,0.019390054504724308,-0.009084759136017728,-0.006154982378757989,0.0028358938614382323,0.3019157285482104,-0.0014607915206753448,1.106341460665884,0.004546947866544678,0.0030706701152323434,-0.0015055953730032674,0.9999838145853737
-1.744682602034918,-0.9425686558453339,2.1569840892379424,-2.7216116766673273,-0.8803878608493991,2.2505466152139957,1.2642969203949959,-1.1246783258901254,0.7195511269938352,0.8033386147835366,-2.682733655495435,1.0998508938473714,2.00172032097173,-1.4170226731560096,0.008477422854795903,-0.002426366711140937,0.006145592543037768,0.019860601383841603,-0.009219912726469532,-0.006853288535292306,0.00537668178197751,0.3021470860889719,-0.0015254056521814287,1.1066444728925733,0.004619379785747916,0.0034138498286358783,-0.0027777807548935766,0.9999796452397521
-1.7437087375486546,-0.9424481631660511,2.1556298749100247,-2.7219599019446474,-0.8782494411457573,2.2504066076646345,1.261928003460287,-1.1257703956515797,0.7191675714415563,0.8042330809625213,-2.6831456953492347,1.0986462693271122,2.001216161859309,-1.4158147099170795,0.008473642166598098,-0.0023589018031243136,0.006384620546742161,0.020315291853765016,-0.009643817844884276,-0.006197854128529351,0.00565924147323424,0.3020813251925473,-0.0016268474987604401,1.1069625412835837,0.0048308638098388396,0.0030848681094280315,-0.002918203963418929,0.9999793150006783
-1.7431325826655522,-0.9422362321758717,2.154606776616161,-2.722605141404148,-0.8805633228200391,2.251229496906738,1.2628032949753376,-1.1271207981186573,0.718775346836354,0.8054398203205522,-2.6839788894140395,1.1000483983612688,2.0014621816322538,-1.4160928304698996,0.008467205153302643,-0.0024819669764621355,0.006626776147959562,0.0208364105459935,-0.009842998832306887,-0.006458156610400902,0.00656007234867146,0.3022060907168722,-0.0017317125092480056,1.1072133812074165,0.004932275517524396,0.0032125046921910668,-0.003369555914586095,0.9999769990178576
-1.7421185226289146,-0.9421817287205532,2.1533112601923268,-2.722901275386543,-0.8787455238045506,2.2511737519378987,1.2605685201072538,-1.128210464585954,0.7184369510020128,0.8063640851515061,-2.6843248819625143,1.099298223412803,2.0011000280879125,-1.4149440297795892,0.008467199861682193,-0.002075576908525889,0.006906905333623913,0.021325781322573345,-0.010301996570868454,-0.006132608763692436,0.004930225818508791,0.3018013973393181,-0.001874846670578061,1.1074951688020251,0.0051587393438051726,0.0030531662375283823,-0.0025545513458627746,0.9999787697005023
-1.741532153694337,-0.9419663854081765,2.1520903634369093,-2.7235770379752813,-0.8810605115401414,2.2520859051278816,1.2615365846624458,-1.1295014448830565,0.7180342254424209,0.8073743882944451,-2.6851815643513466,1.1004160588767398,2.0012282412233966,-1.4153591324431405,0.008467220809721284,-0.0024313048840493012,0.007152537019872335,0.021896904618759816,-0.010406608861436508,-0.006498841122302842,0.0071714993248217325,0.30215881834461883,-0.0019837788988877328,1.1076944036321545,0.0052151295196146375,0.003230302583036384,-0.0036762725422355863,0.9999744259677399
-1.740261550887393,-0.9416824351144265,2.1499768722401753,-2.724403965658224,-0.8809487388543576,2.2527040239944083,1.2600614136240538,-1.1317323275303717,0.7173659721658686,0.8090983788209409,-2.686232491470983,1.1005293802213623,2.0009633317563815,-1.4146740452084419,0.008467199969575482,-0.0022728762457321916,0.007443533878447182,0.022415095346032032,-0.010820192409405969,-0.006296947958075282,0.006945073376303582,0.302002079075474,-0.0021383718659193723,1.1079457707863254,0.005421194006428071,0.0031292121418523503,-0.003563185507158238,0.9999740608615594
-1.7391148374627359,-0.9414843400897406,2.147985190025013,-2.7251149387274833,-0.8814598835576157,2.2534519360689482,1.2592098476701232,-1.1335852171107361,0.7168232979880772,0.8104014019419187,-2.6871306101505286,1.1008352266588126,2.0007792864483966,-1.414276775372758,0.008465275397158602,-0.0019082829472375495,0.007803442860486861,0.022846415554219623,-0.011381990330832582,-0.005907184225835112,0.005534629650071955,0.30163917148554675,-0.002362172522811387,1.1082832082147083,0.005699327697956757,0.002937354554367144,-0.0028577536918275954,0.999975361124388
-1.738068689158145,-0.9412896748302161,2.146154990987571,-2.725797562315169,-0.881745072596417,2.2541405534138534,1.258255786231989,-1.1353957314484424,0.7162957728267733,0.811682732350718,-2.687982904861039,1.1010600422074843,2.0005650180854375,-1.4139001467777585,0.008465362220005759,-0.002120743343859588,0.008149513763761928,0.023268636890382055,-0.011788358881909801,-0.006049109068497492,0.007620210874680062,0.3018533139301313,-0.002572430667334332,1.1086289442702437,0.005905840425405835,0.0030015775100859167,-0.0039015298394697367,0.999970444386349
-1.7373991937679054,-0.9410680047533926,2.144838670736149,-2.7263185576441726,-0.8816687310481451,2.254590462354579,1.2575068230236872,-1.1368852641487068,0.7158739103766038,0.8126364573702136,-2.6887012301771205,1.101293124411775,2.0003434989586943,-1.4138982422063602,0.008461646889862392,-0.0014833743571066593,0.008563042713430998,0.023654545900109625,-0.012677527319085564,-0.005484462756181938,0.00500894411666022,0.30121762333073593,-0.0028504424246468246,1.109010192407341,0.006345766102386333,0.002725816019324617,-0.002595482257809243,0.9999727819553149
-1.736480903343761,-0.9408892302235017,2.143215534891486,-2.726943354393318,-0.8816967795382088,2.2553210410229054,1.2566261722818544,-1.1385507281080895,0.7153790240448914,0.8136716461921916,-2.689510400077544,1.1015081545664525,2.000031441149488,-1.4138647477536654,0.00846166759681298,-0.0016423010839325958,0.008944880182633418,0.024123164258435192,-0.013283859879634699,-0.004886641395479485,0.007225838209232077,0.3013782247843145,-0.003097058267888209,1.109307930950968,0.00665084351039777,0.0024187563097853772,-0.003702738927255406,0.9999681023027438
-1.7358226509507684,-0.9407051752082973,2.141880359157258,-2.727431155015753,-0.881676876519732,2.2558621540332973,1.2558969575025596,-1.1399465585484252,0.7149741629105569,0.8144617585703416,-2.6901897442823617,1.1017410893658197,1.9997454283881184,-1.4139330938642511,0.008458680306150686,-0.0013504898664019604,0.009340453300461647,0.024587140408940833,-0.01410016561560355,-0.0043766910868625105,0.007093240293420906,0.3010880846329316,-0.0033577053261509464,1.109609511457542,0.0070579036181713396,0.0021627463452521083,-0.003635633743509159,0.9999661447729346
-1.7347035062404066,-0.9405675365359923,2.1400896691057953,-2.7275281671568035,-0.8763423725697114,2.255298965339343,1.2513535261533726,-1.1411616034446481,0.7145110888817755,0.8149164891875976,-2.6902166597149164,1.0981105234975148,1.9983937944057792,-1.4120863458060544,0.008461220504822531,-0.0013210855295876511,0.009694255552047644,0.02512043581451251,-0.01481658377374281,-0.003555681098103936,0.008659382666185553,0.30106034770166,-0.003576877084566997,1.1098409724641773,0.007415988878757195,0.001745146926718922,-0.0044164121747895975,0.9999612256856047
-1.7341110960942685,-0.940413552164582,2.138759799698695,-2.727930944635579,-0.8756204090529556,2.2557042414807946,1.2502427119901618,-1.1423508189215077,0.7141404991615092,0.8154538318008968,-2.6907962478599896,1.097962060113464,1.997914131483067,-1.4122179577512504,0.008455547815208912,-0.001235069666373323,0.010014299406205964,0.025591800227839467,-0.01564964030801988,-0.003974339594009446,0.009932459117278232,0.3009759955833835,-0.0037625860119509095,1.1101335642181844,0.007834660315777784,0.0019476410015160316,-0.00505528522109362,0.9999546334127359
-1.7333784162844363,-0.940315576845345,2.137142716813102,-2.728467440175261,-0.8768746343951562,2.256637254011183,1.2499995218519782,-1.1435301134977103,0.7137414355206434,0.8161467740976718,-2.691458741217473,1.0992106040002922,1.9977095430320835,-1.4125128697410627,0.0084526394767745,-0.0012886687806187846,0.010307167586957072,0.026121256750152533,-0.016274428320000575,-0.004446742421244598,0.012091123754293229,0.3010312547819619,-0.003921414832323157,1.110367263618333,0.008150576733678801,0.0021734558428752942,-0.006137089831817082,0.9999455886782058
-1.7327671797524722,-0.940085549324702,2.135991488899018,-2.7288615395959632,-0.8760765009105997,2.25699739029198,1.2488536976876952,-1.144632893769732,0.7133611131255825,0.8165803851846621,-2.6920640031791683,1.0991348037185895,1.997194969468138,-1.41275463430359,0.008449842806274753,-0.0009082994269223876,0.010652775377200087,0.026686104141972367,-0.017024286595220733,-0.004321048543876465,0.01158440281055979,0.3006525418519935,-0.004133278828582854,1.1105647719041023,0.008524567066297957,0.0021104712309846017,-0.005884024065515192,0.9999441264032265
-1.731633837431219,-0.9399048143847554,2.1332681896219774,-2.7297139687706418,-0.8767668950606013,2.258389756943907,1.2477036617307664,-1.1466023059297261,0.7126538734062264,0.8173869113911761,-2.6932095086462082,1.1003595769739785,1.9964735794997432,-1.413357501753956,0.008447116094585108,-0.0009162840522997096,0.01093106949906443,0.027279759887811394,-0.017456248488875555,-0.004223954148323085,0.01286074218745167,0.30066217924049393,-0.004278124722859422,1.1107326715909793,0.008741565158857762,0.0020550777536601584,-0.006522188312898856,0.9999384094801093
-1.7308826018396217,-0.939825376345392,2.1314343202746637,-2.73028992944762,-0.8767398583424643,2.2593076204498317,1.2466352332810173,-1.1479992854380967,0.7121528440708662,0.8179259738061482,-2.6940501308810605,1.1009120729182904,1.9958668476234158,-1.4138746632481787,0.008387029693916134,-0.0006167111405839254,0.011306946001549613,0.027723574120481986,-0.018327587525311533,-0.003889505565776337,0.012528461021093062,0.3003642554312963,-0.004520848564152373,1.1110496125461522,0.009175809221515608,0.0018865471312758723,-0.006355423030138469,0.9999359249787757
-1.7301613887119287,-0.9397415386870515,2.12969044980461,-2.7308445174405156,-0.8769012824245831,2.2601997079988925,1.2457511501437768,-1.1495045514000182,0.7116059884970946,0.8185180835076274,-2.694941259803474,1.101628325365778,1.9952826714038105,-1.4144123117673806,0.008387077111864255,-0.0009106621298872741,0.01166214453017076,0.028221080767009354,-0.018839746302058456,-0.0036346068557992135,0.015523916306804744,0.30065985186251293,-0.004743189997976831,1.1113120608425955,0.00943368808017204,0.0017433515122214879,-0.007852327722286685,0.9999231506491149
-1.7294910941248764,-0.9396742800953617,2.1280485151578232,-2.731343126443593,-0.8769359943696775,2.2610155882909813,1.2448501638279144,-1.1508339090091062,0.7111346802863078,0.8190213064729812,-2.6957234989303176,1.1022244218903972,1.9947580029792342,-1.414896480799636,0.008384712805028274,-0.0006724009873092518,0.012031742477049776,0.02869258611202552,-0.019439626266212554,-0.0032024509833282807,0.015284011137488392,0.3004232325012432,-0.0049802264164547005,1.1115997101956776,0.009731732171530857,0.0015261027557644182,-0.007730809898767036,0.9999215964152537
-1.728605076683429,-0.9396192313352905,2.1262148317305147,-2.731279524176578,-0.8712246552998867,2.260363095405835,1.2398455603630432,-1.1520904917810557,0.7106325787128358,0.819272502152071,-2.695852512472672,1.098537589786525,1.993322502527871,-1.4131695891492881,0.00838466763128242,-0.0006268787712669921,0.012385637697445275,0.029188385387932225,-0.0199924618644505,-0.002902877730000128,0.015903633246784475,0.3003793484059043,-0.005201855674844597,1.1118622653729962,0.010007399830037421,0.0013710908990504109,-0.008039521593405841,0.9999166656031578
-1.728200095368835,-0.9395538872122458,2.1249084967318868,-2.7321684112830065,-0.8758831724489262,2.2621928860602747,1.242395732649885,-1.1533855769516619,0.7103317004250101,0.8199673048456853,-2.697058992856122,1.1024570725610305,1.9935905213925158,-1.4153831048915515,0.008280418391683359,-0.0010225134272167091,0.012687141482638725,0.029650572731967584,-0.02059893201095755,-0.003582999263193244,0.0192778555487764,0.3007766175219525,-0.005371389064427989,1.1121576322373137,0.010316200534318174,0.0016912821855776948,-0.00973038696773014,0.9998980123695429
-1.7272520380825291,-0.9395825275276338,2.122938711985091,-2.731602886200163,-0.8664084492914179,2.2605103202066936,1.2344324064492842,-1.1543866702842218,0.7098797824054538,0.8200245586152718,-2.6966218811695493,1.0960966242888996,1.9915256684867837,-1.4119311341392269,0.008267697235780424,-0.0005042771881849095,0.0130593571181543,0.03016572234307202,-0.02127576161764744,-0.0031306722176149475,0.017763905866234633,0.30026001208241426,-0.0056119298707290495,1.1123992365896893,0.010651278150640155,0.0014699125724054274,-0.008971658736035983,0.9999019446777326
-1.7271673683948878,-0.9395430107544698,2.122179536201273,-2.7329766744972623,-0.8760197483764852,2.263544253275871,1.2410364740938713,-1.1556977555187116,0.7096154225486958,0.8208591034361895,-2.6983964268127782,1.103319769524474,1.9926772829691797,-1.4162392939538286,0.008251627869889403,-0.0015105730867061573,0.013310315475893479,0.030692139194647305,-0.021627136645122256,-0.004102247015847741,0.023864619258087975,0.3012679351198241,-0.005731508965649254,1.1126287734567213,0.01083719921992617,0.001921026810072728,-0.012027164279584373,0.9998670972126519
-1.7258958432026437,-0.9395702189332045,2.119695809868285,-2.731780299132281,-0.8617778597886724,2.2605878141186,1.2288324896748775,-1.1565063039240784,0.7091578310470188,0.8207758851496388,-2.6971675243245015,1.0940227171776098,1.9897475588030094,-1.4104048809468186,0.008248337024820553,7.371827954744115e-05,0.013736097965093182,0.03114354865961033,-0.022524726216299782,-0.0029272162959835283,0.016104345147770278,0.29968526723185424,-0.0060262077584255285,1.112932517465493,0.011273653331412083,0.0013719474425422451,-0.008141734229364796,0.999902362565724
-1.7250207730709244,-0.9396123308492128,2.116958335135404,-2.7328432041132995,-0.8658826030072275,2.262963678161463,1.2298357191054545,-1.1587313618131843,0.7085243931128217,0.8217311980264393,-2.6987799667420025,1.0977816124618187,1.9895653633683907,-1.4122887501295358,0.008248382449254937,-0.0018855275126086757,0.013926944769644196,0.03166049938637494,-0.02270660288128841,-0.004824914331191753,0.02668720159651888,0.30164613284168906,-0.006086266432948657,1.1131699199675902,0.011384388132030618,0.00225975417950022,-0.013443373117403718,0.999842270029195
-1.7240747498418418,-0.9396406212247564,2.114779682268724,-2.7326587594959078,-0.8597978242981366,2.2622923726121695,1.223608586966914,-1.1600087446940788,0.7080155935368839,0.8221626931446593,-2.6986428210712803,1.0939451027686824,1.987848662569203,-1.4096301422053115,0.008246650641782415,-0.0016921696720969548,0.014328407187356203,0.03191896237047853,-0.023693726977093457,-0.0061781994395719315,0.025970827097172113,0.3014543911582512,-0.006357236287028322,1.113665009967476,0.011885876517285576,0.0029339082177829955,-0.013094348157151586,0.9998393151743558
-1.7235405050551502,-0.939683306803336,2.112802730730105,-2.733593721877184,-0.8649456317726357,2.2646544407958693,1.2259189283448781,-1.1617263568763705,0.7075793283018471,0.8228891877826586,-2.7001144563908746,1.0982963316136,1.9881546200792668,-1.411932273086,0.008246629775995514,-0.0021634880693691128,0.014702422061346377,0.03235849570289773,-0.024407111575092302,-0.0068903859337943974,0.02971704367604537,0.30192732205199224,-0.006601054163781697,1.1139782293741731,0.012253278479497564,0.0032623260503508974,-0.014972496632794268,0.9998075008419499
-1.7226324370169752,-0.9397150137352827,2.1108463398590307,-2.7331987941263267,-0.8570184079512054,2.263359152666934,1.2182542977800928,-1.162789287878365,0.7071156320933237,0.8232417676187306,-2.6996466473563476,1.093079490063046,1.9861619676815703,-1.4082609401440307,0.008245118137342342,-0.0015299200514851674,0.01511668736217525,0.032771691319638974,-0.025183561225684693,-0.007198264559285494,0.027093753736084584,0.3012953628699723,-0.006885418033769313,1.114316986251676,0.012639235047231967,0.0034270033379064555,-0.013664294120708258,0.9998208801839085
-1.7217876583829756,-0.9397924851528336,2.10906518532632,-2.7339623091746557,-0.8582615540022852,2.264700928664793,1.218441767545144,-1.1642323764436011,0.7067000882148322,0.8236881035155933,-2.700634973558881,1.0945402681751875,1.9858826176717426,-1.409552946131493,0.00824511592226911,-0.0021328930789147327,0.015414853927645416,0.03324609773606024,-0.025752720097073033,-0.007883891256986025,0.031102478203917937,0.301899941072661,-0.0070539787347937664,1.114593732084626,0.012935937283824125,0.003739944769997468,-0.015673629261426247,0.9997864830479964
-1.7213911425136634,-0.9397717056119353,2.107291726709433,-2.733405344701579,-0.8533141930785426,2.263872665871287,1.2123168200705334,-1.1651789288637175,0.7062912885310961,0.824179038451536,-2.700303630555439,1.0915103372221855,1.9844508166245323,-1.4063615558090412,0.008238467847720088,-0.0018998899909343225,0.01576532375361514,0.03361733735128736,-0.026497454233077117,-0.009667747646239557,0.02932970897279138,0.3016685394993347,-0.00727513826271332,1.114972844473897,0.01331800098079466,0.004637648105647392,-0.014800581252022249,0.9997910110940815
-1.7207194875127065,-0.939880674231943,2.1057590845813503,-2.7348060213879974,-0.8605460161022163,2.266977173946519,1.2170523697011435,-1.166841153056414,0.7059342394640623,0.8249247224900099,-2.7020551712932535,1.0969080485704055,1.985297285948778,-1.4098440626605997,0.008238490568194142,-0.0031587824956606503,0.016054080090690866,0.03408918032265795,-0.026643391374478038,-0.011462441631009243,0.035922107272372106,0.30292902985811027,-0.0074348798681344195,1.1152505532621524,0.013422282294186865,0.005489513800682373,-0.01810820657078492,0.9997308639984249
-1.7195469053643897,-0.9399618789661471,2.102690841394385,-2.734885907939436,-0.8548933198689346,2.266792232344321,1.2097898746391518,-1.1688441856226908,0.7052412583091449,0.8257207850933113,-2.7020088103706517,1.092726047005867,1.983320740656352,-1.4060286103793533,0.00823846896956806,-0.0024866678178316892,0.0164825066830977,0.03456572065192609,-0.026948792045444588,-0.011759404459801831,0.03282208168159581,0.3022585093737256,-0.0077345872952821705,1.1155227644476373,0.0135688562303594,0.00565622879365368,-0.016561417167132223,0.9997547762715865
-1.7188769723815716,-0.9400384785749736,2.100703706212546,-2.73565281826408,-0.8592923726597257,2.268944947807853,1.2112764305543546,-1.1709856140601942,0.7047668779550692,0.8269370404142371,-2.7034720711103075,1.096900001532662,1.983791887240216,-1.4077082924292166,0.008226555779028052,-0.0023557451926599082,0.016835262427477862,0.034955814038727384,-0.027515403220755085,-0.011179587514671312,0.03308944206989952,0.3021291772813932,-0.007958919440798792,1.1158806223307165,0.013848052978137527,0.005359848201596712,-0.016692705575634834,0.9997503973675308
-1.7180503237637808,-0.9400993637126668,2.0984960940586617,-2.7360526785042496,-0.8593605739482794,2.2700744079141355,1.20908528874944,-1.1729571033809845,0.7042613840880448,0.827950859478877,-2.7041773390001254,1.097258528796751,1.9832546867480372,-1.4068212490624568,0.00821868147784836,-0.0020155455953409507,0.017302435530444006,0.035242860899890704,-0.0283580085724228,-0.012059779544967746,0.03144355766566866,0.3017905645563087,-0.008297964511296937,1.1163407264945606,0.014271753536117916,0.005804546023091183,-0.01587842339086204,0.9997552200249274
-1.7172733663904103,-0.9401484210505885,2.0965393828999574,-2.7360359725039993,-0.8546723983488208,2.2695864689065313,1.2043023638693502,-1.1743334555497398,0.7038322083064608,0.8284395875148237,-2.704308052786331,1.0942866867649534,1.9819938735062046,-1.4050987645879285,0.008211715695320306,-0.0022780388706611365,0.017675469285067608,0.0357470771659365,-0.02877383874430042,-0.010920153142869664,0.03488917937312077,0.3020546410432584,-0.008543165799848089,1.1165828610086501,0.014479657019922312,0.005206632071289711,-0.017593850623165812,0.9997268061502149
-1.7168918865669853,-0.9402749949253754,2.0950395964934936,-2.7367669477914984,-0.8593952013019901,2.271799299739209,1.206198761868815,-1.1762899077738866,0.7033693338590743,0.8292992605390178,-2.7057515061309494,1.0978996884303418,1.9824224853568924,-1.4066763186166442,0.008225313806017962,-0.002671134391194152,0.01801649916650275,0.03612763952592646,-0.029456498433630234,-0.01162309651297492,0.03744942163177271,0.302449316114816,-0.00875665878160632,1.1169478491839224,0.01483411477971882,0.0055330161060593176,-0.01888051517303416,0.9996963843679104
-1.71616029190019,-0.9403584678097486,2.0929378455343914,-2.736821501138164,-0.8574481558923448,2.2720164360390522,1.203083179432689,-1.1777683300357535,0.7029985334966562,0.8301591941459959,-2.7060829009742164,1.0974289469486374,1.9816986357049373,-1.4055449995752316,0.008214718513954895,-0.0021671861212880783,0.018439539675669532,0.03654291936531351,-0.03008935237891165,-0.011965867607472475,0.03581784351092392,0.3019469437353297,-0.009052457957491733,1.1172773196349248,0.015148997180493895,0.00571073499016748,-0.018069281039179423,0.9997056549169985
-1.7160108633200934,-0.9404271080950697,2.09231786061688,-2.7374694581382744,-0.8605318642896894,2.2736871693642398,1.20472968561675,-1.1792748411620737,0.7026086764734366,0.8306647880367625,-2.70726849967851,1.0994722594301405,1.9819012322563916,-1.4071797650494577,0.0082209611141561,-0.0022274480044570666,0.018813342688391972,0.03705575748592005,-0.03086748486134552,-0.010599296564054048,0.03777467082593588,0.3020087778483134,-0.00929931520332835,1.1175084315598354,0.015530627097382456,0.005005427563162749,-0.019039142434915068,0.9996855787557481
-1.7150389595612203,-0.9405495544414066,2.0895482179562146,-2.7368474746508817,-0.8525346285152124,2.27217522283972,1.1968617922299556,-1.1804803016359875,0.702204730686678,0.8312331081787371,-2.7067670233765244,1.0949194141797658,1.9799871905383981,-1.403649805635885,0.008222875568668441,-0.0017392977728351022,0.019172982040681366,0.03758145605326968,-0.03159765939891353,-0.010058311389224934,0.03655935176276884,0.30152219618590126,-0.009532304355127466,1.1177258827931298,0.015887616805083247,0.004737724391715855,-0.01842925323762202,0.9996927028967184
-1.714233277384624,-0.940691258592679,2.0871783439789655,-2.7376911642137496,-0.8554917410087143,2.2745682947245687,1.1969606773357282,-1.1830445075260347,0.7014996165993616,0.8322419051553811,-2.708432102015856,1.098156858695209,1.9797971972985386,-1.4053554841598743,0.008222864107243478,-0.0025405018328163442,0.019459728966560043,0.03804784365125591,-0.03224664967665591,-0.011252470962209405,0.041453689573043434,0.3023249651544874,-0.009692696646911402,1.1180018447509152,0.016235907825019272,0.005288921900915846,-0.02088669429168059,0.9996360180604685
-1.713626580726833,-0.9408185708635132,2.085101767022274,-2.7380496010080733,-0.8558795868159286,2.2757072755596153,1.1954451745461274,-1.1848611129993216,0.7010055361323329,0.8330096840548924,-2.709334991410873,1.0991485598163058,1.9793607783375948,-1.4054384021990154,0.008205944017733075,-0.0023607793659825016,0.019823264366558575,0.03841959801275818,-0.0330320434214334,-0.011997694166956941,0.041136019415241636,0.3021468039356536,-0.009930172979210741,1.1183716397003116,0.016635275378989352,0.005655836329498885,-0.02073610079797561,0.9996305783899246
-1.7129989766321267,-0.941024955351615,2.0827880081958248,-2.738545895228654,-0.8570216641106039,2.2772858704064216,1.1947465353629585,-1.1868285653477235,0.7004842942728011,0.833727404757631,-2.710427717817676,1.1008706162021804,1.9789580957095765,-1.4063207492613663,0.008205933755377365,-0.0018290564232327777,0.020285242860250477,0.03881463530172291,-0.034008960927058095,-0.010977775731598305,0.04009993216659121,0.3016166385802989,-0.010266387971598992,1.1187173514773732,0.01711041455671397,0.005144802073926279,-0.020212399877631817,0.999636045576841
-1.7125054609559276,-0.9410590248116812,2.081293887665036,-2.7388916747993313,-0.8570400119274829,2.2782686734915503,1.1936940182092,-1.1884968686757933,0.700031233080799,0.8342957452389067,-2.711335902943369,1.1015353689306444,1.9785529402908895,-1.406694831462428,0.008205942662627117,-0.0010103778214041181,0.02075364947231911,0.03921808272838545,-0.03489467613495934,-0.010626604712854131,0.03722872920922986,0.3007995139052604,-0.010609326648759519,1.119053852871864,0.017542454097148694,0.004985518445084799,-0.018776542957027662,0.9996573654731234
-1.711978482889643,-0.9411959472623831,2.079362549248196,-2.739325687303029,-0.8577327757620187,2.279452625733661,1.1929419693990657,-1.1901630121874858,0.6995728540451113,0.8349612693227303,-2.7122576147599897,1.1027405666881815,1.9781684544499372,-1.4074053971772391,0.008202815786023082,-0.0013312351315616366,0.021105695601092024,0.03977289375529924,-0.03524860606230575,-0.010511460863231868,0.04084796337512259,0.30112192148160316,-0.010836200409019867,1.119238190421231,0.017727170551711434,0.004892571985766324,-0.02058537644039301,0.99961895362203
-1.7115144801199034,-0.9412656975529855,2.077852458595163,-2.7396304737941515,-0.8578764365042544,2.2803351107253973,1.192043743037572,-1.1916619011646943,0.6991625856000004,0.8354989326048452,-2.7130842476405306,1.103476843884182,1.9778166758873317,-1.4078524746252346,0.008204231538486798,-0.0010033191698059496,0.021458266258203247,0.04020631158786592,-0.0360109687484733,-0.010244697331661765,0.039968313064365435,0.30079555212542775,-0.011063894264014069,1.1195431209200726,0.01810339293014444,0.0047593570661610025,-0.020145196285688102,0.9996218218663219
-1.7109406311909208,-0.9414168703796547,2.0759652913727025,-2.7392959113657684,-0.8514132679848792,2.2793033094352864,1.1863030891306636,-1.1930565943734155,0.698750746764335,0.8358633421153384,-2.7131565638357333,1.0994741398490873,1.9762669674279865,-1.4059989629000988,0.008167039777132349,-0.00102592939599222,0.02177157946742062,0.04069452515947769,-0.03648098702642995,-0.009276922260776557,0.041323638389514125,0.30081970529658936,-0.011252626237509963,1.119792455434996,0.018331542427306294,0.004258496187501851,-0.020814938118830114,0.9996062015181609
-1.710589872856949,-0.9414963883284027,2.0748048034056588,-2.740294851860388,-0.858231504534483,2.282104018372127,1.1905190877400926,-1.194531328528276,0.6983926168075268,0.8367276023909102,-2.714663925834873,1.1051145236883808,1.9771120738981258,-1.4090862945408356,0.008162996528878454,-0.0015240030880724897,0.02201575834755186,0.041143512894819434,-0.03698043304984675,-0.009710539098648309,0.04441368675112039,0.30131931827304015,-0.011372519448315266,1.120080215541317,0.018592526096973015,0.004441300205901948,-0.022364368732674583,0.9995671202260523
-1.7097992220897302,-0.9417157339218154,2.0725279434249733,-2.739932205547635,-0.8524056146397379,2.28127305550635,1.1847792428527855,-1.1959979257822289,0.6979894720495042,0.8371272791897503,-2.7147521189334576,1.101838941754042,1.9757433295786901,-1.4071121964805884,0.008161605922988875,-0.0010217361773579015,0.022340216670344176,0.04152143984611878,-0.0377183158638878,-0.008839108697316413,0.04204810137933932,0.30081858698609104,-0.011572987668177192,1.1204382361868075,0.01894689778696446,0.00401993606646837,-0.021175545728353475,0.9995881409067326
-1.7089761178126022,-0.9419172867643075,2.069707270319468,-2.7406836269365784,-0.8541132818152013,2.2832421666700364,1.184396165329565,-1.1986952741095214,0.697292495217134,0.8383304245091483,-2.716342843379209,1.1041613372862717,1.9753664732208112,-1.4087164566686992,0.008164001241080179,-0.0018375063311902307,0.022664547141512954,0.042070832465339825,-0.037944501000708515,-0.00868769227324566,0.04751067980614382,0.301635889103084,-0.011773623602811124,1.1206239909195037,0.01906904836695173,0.003889795583891654,-0.023904648328362133,0.999524791424901
-1.707978044281322,-0.9421215974177726,2.0671520929391822,-2.7404546243057846,-0.8475702745659986,2.2825012166361347,1.1778719863603022,-1.2006211108534075,0.6966902967756702,0.8388475065530552,-2.716503511415087,1.100320740047503,1.9736066041055427,-1.4067483972970367,0.00815937729906629,-0.001335478203126128,0.02310188745260789,0.042296064051200455,-0.039097867112991506,-0.008657480163756092,0.045315909830098276,0.30113538927757555,-0.012087564943766756,1.1211331064406878,0.019640846865722286,0.003882466666958721,-0.02280972838545925,0.9995393338323203
-1.7069919447643422,-0.9423612630748678,2.0646547582778125,-2.74064994175694,-0.8442836029600558,2.282765853926942,1.1738387265105257,-1.2026115457949824,0.6960974907053192,0.8395653793970533,-2.717085318912579,1.098970224647399,1.9724348070580964,-1.4060521308345717,0.008163996976762147,-0.002185952541806646,0.023542300331453533,0.04257954262787855,-0.03971939896643272,-0.008833848364535513,0.05128910707115863,0.3019873882582068,-0.012404874418868637,1.1215831747261815,0.019965213446232793,0.0039039106777789736,-0.025797772758811798,0.9994601666170349
-1.7061723695131361,-0.942571126352389,2.062490773956428,-2.7406170835374843,-0.8406841015772082,2.28266006815434,1.1696153631870725,-1.2042546132733685,0.6956173068762643,0.84027225248576,-2.7174166262568877,1.0974556569500753,1.971367329243982,-1.4049882086827912,0.008165173199617523,-0.0019844829983809986,0.023895140808905,0.04277473812561605,-0.040831406231197784,-0.009480934280665959,0.05066248391779825,0.301787439696127,-0.012634907058971884,1.1221207258457433,0.020527880833881407,0.00421936419784007,-0.025493364265351107,0.9994552973758605
-1.705354013605215,-0.942800339304215,2.0602813543683465,-2.740758780903952,-0.8377632263649829,2.2828848877622003,1.1658839615451049,-1.2059824994925525,0.6951025929043155,0.8409933422873805,-2.717913160804225,1.0962833173832878,1.9703165222927705,-1.4042582405012496,0.008170717706289568,-0.0022552274036082842,0.0242323576266866,0.04309112131354609,-0.041618625133574484,-0.010391282099951766,0.0528194366521968,0.30205970142209515,-0.012849611605800811,1.1225362890302397,0.020937805132713375,0.004641675309309789,-0.026582296033275894,0.9994165521463745
-1.7048869951536525,-0.9429183559820693,2.0584614950870463,-2.7413244371420626,-0.8417054121097384,2.2849886377890773,1.1673471158136033,-1.2077533862696772,0.6946941549616924,0.8419938621411993,-2.719201928012567,1.1001736953748666,1.9707452366315656,-1.4060429955170193,0.00816157660006862,-0.00315146352754464,0.02456938257840014,0.04347777743301595,-0.042187600321416587,-0.011781681805158347,0.05823420065354551,0.3029574512061675,-0.01306441985295722,1.1228807790383237,0.02125479889147781,0.0052713802475066384,-0.029303845282749236,0.9993306413425007
-1.7042165115158077,-0.9432156316893996,2.056648324078635,-2.7413212463356693,-0.8396224943200394,2.28528652329898,1.1643672970819352,-1.209149778638974,0.6943022690898737,0.8425872744347683,-2.7196078402205406,1.0995279525635864,1.9699633832115007,-1.405322583004465,0.008175988263993343,-0.0019920698508328893,0.024938770448297003,0.04384318383446817,-0.04317434232392362,-0.011007474716557605,0.05308351049968482,0.30179956752898685,-0.013311886584692489,1.1232457185195523,0.021723974988602957,0.004926041360728117,-0.02672446013692836,0.9993946198862571
-1.7032549014046614,-0.943596660244943,2.0534501597712826,-2.741899117805333,-0.8410379698096888,2.2875559652246875,1.163123576601657,-1.212035223368828,0.6935635175413372,0.8439089836105224,-2.7212489028567415,1.1023976866585603,1.9696248625095873,-1.4068508745808512,0.008169608734020022,-0.0022303915798544405,0.02527577800616267,0.0442797098270713,-0.04388832127702767,-0.010434528907089916,0.055739832718647235,0.3020393955969345,-0.013527268570792114,1.123538738164758,0.0220792890660703,0.0046008806305676804,-0.02804729922912723,0.9993521330830851
-1.702701366048069,-0.9438264314629259,2.051715422119065,-2.7421843592406296,-0.8413638613756083,2.28866623232103,1.1621857582860873,-1.2137737915986642,0.6931153272944657,0.8446981155827998,-2.722157603807862,1.1035763757922334,1.969295663043476,-1.4074867811819223,0.008159332361578038,-0.0022240506425967865,0.02566988084977846,0.0446921460839973,-0.04448438958247934,-0.00977530598239415,0.05715275552504994,0.30203455733799806,-0.0138000414090374,1.1238550473007676,0.02237096538100733,0.0042473200958312385,-0.02874738128625815,0.9993273178739325
-1.70194187124979,-0.9441264997685803,2.0492992414110534,-2.7417254649391025,-0.8353850772367096,2.28786269394903,1.1559548791329686,-1.2156915575806428,0.6925456086257218,0.8453519983201911,-2.722361024806715,1.1001841212171244,1.9676749822450692,-1.4055947891890943,0.008158751219165452,-0.0017691506028157944,0.026124483259223487,0.04500210474291677,-0.04534364929564978,-0.009237599552967775,0.05573011105152005,0.30158115631593335,-0.01413360937950747,1.1242730337899112,0.022789806488683482,0.003982509263534904,-0.02803230261535306,0.9993392588857176
-1.7014218319277183,-0.9443573100585918,2.0479977532348848,-2.742041169511781,-0.8347407843167652,2.288524846386653,1.1547388694703684,-1.216967571388288,0.6921939370535934,0.8458531863162422,-2.722917642095809,1.1000247432285861,1.9672305345633534,-1.405643814465381,0.008158811388726516,-0.0029319902794774366,0.02647952484485468,0.04534167266352074,-0.04580761728897182,-0.00993605380611416,0.06281726004926491,0.30274549134970635,-0.014367912092559247,1.1246606107724975,0.023046532629949615,0.004243362154664645,-0.0315821978124255,0.999226408774657
-1.7002963939561944,-0.9448605878423514,2.0445812010515985,-2.7425107872777517,-0.8363962364685452,2.2908649988984737,1.1534571707488972,-1.219949597094852,0.6914816267142502,0.8473066430588897,-2.724478305579116,1.1032562344040409,1.9669710322042802,-1.406943009983332,0.008162943433514223,-0.002324091720707966,0.02678927172443496,0.045661757372269296,-0.0467657140857481,-0.010164768072972345,0.059933651891730305,0.30213908448744337,-0.014557215665955655,1.1250668707220666,0.023522507463971037,0.004376419851798521,-0.03014617726559203,0.9992590988268055
-1.6997176010243376,-0.9451178662989363,2.042710127052641,-2.742082399999479,-0.8296965816676449,2.2896742049198084,1.1471186196934513,-1.2215443969062043,0.6909873873332323,0.8478484173996895,-2.724494115950353,1.0992095083153166,1.9653031388387088,-1.4047840503474625,0.00816157577919226,-0.0019948327111888875,0.02717738050146394,0.04604936877489796,-0.047466945812251915,-0.009508553031228759,0.05945010665118493,0.3018113135138258,-0.014825176703196307,1.1254048037328828,0.023862071266434356,0.004043754862859164,-0.02989838270523817,0.9992598942783084
-1.698980237715187,-0.945471095482649,2.0403228647772975,-2.7428870982445557,-0.8346002751365503,2.2925752606978795,1.1493911324463506,-1.2239883655486454,0.6904450766694769,0.8491631141724811,-2.7262731415967827,1.104330251659977,1.965932476695562,-1.40745585089117,0.00815416075078135,-0.0030787530687289566,0.027522391791859314,0.046361049601076454,-0.0479550453457825,-0.010233588874881454,0.06584960418232425,0.3028967182466624,-0.015050335820198891,1.1258178670752765,0.024130645841883604,0.004321517986803642,-0.03310519966486329,0.999151180837361
-1.6984395117266926,-0.9456911017539349,2.038611530442573,-2.7419397795219598,-0.8252260133148007,2.2902261393742527,1.1406071551107546,-1.2251404742978496,0.6900140950121528,0.8495737993439464,-2.725670172447771,1.0983105059297011,1.9637643828197497,-1.403799954390256,0.008154223371896042,-0.0026172385972980106,0.027908639672116237,0.0467298833525871,-0.0487312042892175,-0.009410207510941137,0.06472837634232066,0.30243668448992317,-0.015317027093458575,1.1261729772474656,0.024502676048324075,0.00391106628374323,-0.03253677716472982,0.9991624895675015
-1.6976596884365698,-0.9460616409139163,2.036623538267338,-2.7427040095063036,-0.8274601899129558,2.29228262676665,1.141541466818061,-1.2272254251229646,0.6895212662563698,0.8504696644086388,-2.7269669713793716,1.1007067332114597,1.9638216048291126,-1.4055786259575598,0.008155888557055967,-0.0033545805736872047,0.02820061097658095,0.04710194079507146,-0.049185411628810176,-0.010253856142516402,0.0686911838835105,0.30317550352039907,-0.015489737357321585,1.126524063483808,0.024751735591496186,0.004276113686471261,-0.034527627780463685,0.9990880388418244
-1.6969739528432468,-0.9462924708101531,2.034614990246182,-2.7424896114619455,-0.8273055796811628,2.292831519053853,1.139083692642435,-1.2286247060789683,0.6891716486851948,0.8515296070705703,-2.7274540002235357,1.1022924968463623,1.9636536580470603,-1.4049896108973232,0.00815588234495635,-0.0031006957841896443,0.0284891684169895,0.047391346198655704,-0.04998450162673366,-0.01100235722298779,0.06750225792874945,0.30292309212438334,-0.015659329323523985,1.1269570015141779,0.025160978742821822,0.004651184595969036,-0.033944692213670406,0.9990961162476194
-1.6964878027457722,-0.946627051889756,2.032949837278837,-2.743238474542491,-0.8288050026013852,2.2946472538466307,1.1399807543685871,-1.2306912150809284,0.6886660307101861,0.8523641614462666,-2.728788079288795,1.1039717127433248,1.963574693530336,-1.4069822102285656,0.008149907347355411,-0.0033693856874988937,0.02879542217847423,0.0478276458522191,-0.05050335874327886,-0.010135701949634248,0.0702549145661034,0.30319325176056944,-0.015846913177198097,1.127242245049696,0.025411349692554507,0.00417447021260937,-0.03531008678308201,0.9990445610064739
-1.6952331927576425,-0.9471485565153682,2.029659070195239,-2.7429158915757688,-0.8223437011818076,2.294153398281809,1.1326958323818024,-1.2335318069094274,0.6878851288497329,0.8537120225505834,-2.7293225730113893,1.1010615320497907,1.9618451153511476,-1.4050524256047983,0.00815446734602912,-0.003019850718923245,0.02912661823566149,0.04825006941948318,-0.05098958099425025,-0.009301451458756027,0.0693733025573413,0.3028451828642658,-0.01605973489297029,1.1275405644266405,0.025637948971214772,0.0037604592793350354,-0.03486015866972152,0.9990562165644532
-1.6942402113985142,-0.9476215206512425,2.0268976124562053,-2.7435709965799764,-0.8257823774796772,2.296809837011752,1.1333382411617163,-1.2362643607511343,0.6872599896188085,0.855281112947141,-2.7309746106296493,1.105356669166993,1.9621576855553584,-1.4070068663342008,0.008154478293683558,-0.0035663958918755734,0.029490969581084468,0.04853350215354646,-0.0516109867499952,-0.009518382238780066,0.07296459817049832,0.3033931904488852,-0.01630600746337374,1.1279770743919135,0.025958998198876513,0.0038113839332221456,-0.03665798506826105,0.9989833811909783
-1.6935372650535694,-0.9479653161146642,2.024650542850808,-2.743757799870661,-0.8250042410138196,2.29778077342487,1.131466218579991,-1.2385196897572914,0.6867082457298359,0.8565091971280372,-2.7319793252988003,1.106368621282787,1.9617780443889357,-1.4075119158475382,0.008154513385251335,-0.0033335980982343583,0.029923417371123272,0.04869425815302275,-0.05264720148795839,-0.009048237710458021,0.07292649013169357,0.3031618514063061,-0.01662067204478856,1.1285354608469005,0.026467947935079606,0.0035580626246163047,-0.03663477725850042,0.9989718119234824
-1.692788576571031,-0.9483423699837117,2.022478268325231,-2.744158667534158,-0.826332438836318,2.2995041018415048,1.131030176755819,-1.2408806665193894,0.6861757485073169,0.8576757253765359,-2.7332298503832777,1.1081308221894752,1.9617120483951753,-1.408432191190122,0.00815358191401594,-0.0033024288185589667,0.030353348820702383,0.049038319116567086,-0.053156987988894996,-0.00848973714510963,0.07386506519572882,0.3031321372170879,-0.016933115852139233,1.128909742092947,0.02671394529808051,0.003257224533921131,-0.03709711002938597,0.9989492279602674
-1.6920041662588825,-0.9486862105929409,2.0204215198245095,-2.7436443840721365,-0.8189224853337567,2.297924931476702,1.1241287874433195,-1.242664891971089,0.6857433499984898,0.8584173941849528,-2.7331496284892154,1.1038147083900336,1.960012201842587,-1.4060120647895606,0.008059407818387003,-0.0025991097976504896,0.030783695514716235,0.04931476525606904,-0.053925655060113514,-0.007524827218044878,0.07078940284001155,0.3024302696260317,-0.017246270470320187,1.1293508379181632,0.02707580391105689,0.0028026604747846237,-0.03554918649444593,0.9989971477819224
-1.69132678437851,-0.9490637596103159,2.0185061497172203,-2.7438703427279663,-0.8183187931616407,2.2988090821074665,1.1225408484104693,-1.244760655451195,0.6852614440519731,0.8594720630021301,-2.734021034215982,1.1039687039891892,1.9596300512991462,-1.4062050714820782,0.00806470125368649,-0.00370307339562409,0.031076973916032667,0.04964931211668233,-0.05418648738868631,-0.008000584775699489,0.07713433687978034,0.3035356809932526,-0.017422652362199267,1.129733032777395,0.027223989891617534,0.0029493130566364064,-0.03872504537874002,0.9988746301650121
-1.6907064743720182,-0.949355843147173,2.0165115187158658,-2.7441314562465373,-0.8198152154395543,2.3002103124061253,1.1223881669180644,-1.2467877416481903,0.6849089569214101,0.860838828319123,-2.7351540423715934,1.1070689790717232,1.9599149576800043,-1.4074326883072847,0.008057169387751046,-0.0032609226868507424,0.03137627228806707,0.04981933419444906,-0.05522816540612888,-0.00796527348946813,0.07515338748463903,0.3030949743931217,-0.01760534979119185,1.1302789521746008,0.02774066181524274,0.00293898533165303,-0.037736727058467645,0.9988982718366208
-1.6899624784344136,-0.949801847095176,2.014652162984139,-2.744306402906918,-0.8195791732224348,2.301221373995719,1.1209513431780416,-1.2487720766837889,0.6844990796760472,0.861789946525826,-2.735922482253812,1.1073061381475233,1.9595528315377497,-1.4075405143632738,0.008049476285920619,-0.0030591157536743463,0.03172551348493159,0.05019518716886662,-0.05577435825165319,-0.007304747715454649,0.07504163125797847,0.30289460790798284,-0.017838285611410116,1.1306182404302831,0.028000919530139383,0.0026003446721082897,-0.03767255712277793,0.9988943713691073
-1.689461965832412,-0.9499977202307269,2.012842753920601,-2.744581703432986,-0.8206496203767802,2.3024232749887683,1.12078236139289,-1.2508224651589541,0.6841338838514447,0.863080765078309,-2.737100748834451,1.1095765960831923,1.9597952435263823,-1.4086432238116766,0.008047704878366903,-0.003135976418916442,0.03204176237878548,0.05061811454032994,-0.05598827483063095,-0.007236072386365755,0.07596316216495123,0.3029729053606575,-0.018038524695013273,1.130909654044047,0.028107650309760267,0.0025490646395689735,-0.0381321299767546,0.9988740676015989
-1.6882282882463533,-0.9508635656344918,2.0095911956228134,-2.744127712342383,-0.8138181550766737,2.3017403067492404,1.1136102613062613,-1.2542870123225456,0.683399115067819,0.8647342341380203,-2.737723274234223,1.1056727752551037,1.9581705224846813,-1.4064949674172735,0.008119688852198848,-0.0034564781384529564,0.03238824772948808,0.051058136730915527,-0.05618000865480881,-0.006384845333887946,0.07848966936294444,0.3032948402070217,-0.018269295801860697,1.131183172593816,0.02818991933135778,0.0020846630000559284,-0.03938228359548365,0.9988243180695354
-1.6874601658783293,-0.951407764361479,2.0071087571424497,-2.744632257312417,-0.8175020792424842,2.304203066758819,1.1149248404991907,-1.2571617197428748,0.6829036057418947,0.8665474588935094,-2.7393329348668645,1.109684122182263,1.9588515250473555,-1.4084029061782222,0.00810516376807369,-0.004163135881854685,0.03273549638976374,0.051229063229611516,-0.05668471395333764,-0.006553011548290473,0.08244468192473199,0.30400292741664614,-0.018501125784676716,1.1317249865906018,0.028449483759975455,0.002102454066863849,-0.041360266881471715,0.9987369698194721
-1.6865712178301722,-0.9520334031328961,2.0046141733403458,-2.7446894259894576,-0.8165447461002738,2.305300667413384,1.112710965236173,-1.260122246490999,0.6823805700078676,0.8682641284950952,-2.740521980940024,1.1102624225931041,1.958575315213886,-1.408639687735372,0.00811114901304912,-0.004004435423478447,0.03316520865013212,0.05136256173615772,-0.05752448682462643,-0.0057892455723662735,0.0827539221499825,0.3038456527638877,-0.018815714933981004,1.132303428334665,0.02885337510858975,0.0016992267985497943,-0.04150464448331635,0.9987201609357065
-1.6858255004674063,-0.9525504278347919,2.0024769705373364,-2.7449371859186,-0.8176560669428423,2.3067925409568453,1.1124543469797865,-1.2628627291397727,0.681933778959392,0.8698283927837321,-2.7418337968207656,1.112179118542033,1.9588546876703874,-1.4096744573648896,0.008095657265627946,-0.0035321871997002763,0.0335814418348738,0.05157970219310881,-0.058167905597541404,-0.004620802024279881,0.08082321408029047,0.3033748266851224,-0.019117120574054132,1.13279742788345,0.029149438526518183,0.0011305413864468221,-0.04052414667323217,0.9987526348631921
-1.6849732187319968,-0.9531135292760559,2.0003842510681737,-2.7443280725319714,-0.8097958594927127,2.305102716791721,1.1054418595256936,-1.2650095889142514,0.6815154154117381,0.8710298403371411,-2.7417735576440614,1.1072918587952982,1.9572498302003287,-1.4072778651067555,0.008093543019274738,-0.003126561511008652,0.03397339726772631,0.05176634456437723,-0.05892529721553229,-0.0024698771216295785,0.07892899673873598,0.30297061948083875,-0.019394544028633633,1.1333211252730455,0.029484154283519325,6.900433501308653e-05,-0.039547055832855955,0.9987826141155745
-1.6844388876459444,-0.953552544633474,1.9986762555805573,-2.7451518576875125,-0.816983110979436,2.30869319482879,1.1102481304050624,-1.267759555696792,0.6811297514824421,0.8726887383363807,-2.7438741227774637,1.1135769300233331,1.9587952111488265,-1.4107759288481607,0.008091256162244298,-0.004100252276959482,0.03425329174584365,0.052064755686888065,-0.059109502874512825,-0.0030731913477284848,0.08403663467624495,0.30394572507059264,-0.01956020209487351,1.1337322536665257,0.029588891045408502,0.0002910882213611747,-0.04210652194737639,0.9986748487890568
-1.683629671157483,-0.9540506071050446,1.9966347416865355,-2.7437583670297028,-0.803464993041568,2.3045549102661016,1.0981069975128468,-1.2693593184228262,0.6807252642245671,0.8736012756547071,-2.74268286801498,1.1046503523138334,1.956071888368126,-1.4052429175387555,0.008097944280292726,-0.003723238263944495,0.034600020107887985,0.05237162723745148,-0.05947380117524766,-0.0015337721371084542,0.08330535215371397,0.30357012222077573,-0.01979298961143592,1.1341341213870806,0.02973862539385188,-0.00047439624415516714,-0.041718588188007166,0.9986866117594083
-1.6830057508263343,-0.9545654401012328,1.9950429032224601,-2.7448386053113785,-0.8094648212138965,2.3080057739758613,1.1030066781759007,-1.272229368609572,0.6803355294615545,0.8752129959658198,-2.744775388286991,1.1096891989617637,1.9573986744458671,-1.4092030216341636,0.008080649538206622,-0.0048021800220862665,0.03483228596114414,0.05261845534263321,-0.05979585198364616,-0.002371928917927139,0.0874376626208843,0.30465047148151075,-0.019911610185605704,1.1345952323081445,0.029916707253274662,-0.00012439997627553836,-0.04379435018342095,0.9985925245282881
-1.6817980681054099,-0.9554389933585915,1.991558739472463,-2.744892147942987,-0.8089851114596895,2.30949925659736,1.1004272616074335,-1.2767174784330733,0.679658162900464,0.8783487335346057,-2.7463522253137773,1.1113582552943793,1.9575618538487611,-1.4094154013854345,0.008077959295173635,-0.003930424092675078,0.03513570246569196,0.05279794729089127,-0.060403372760997144,-0.002181082524782199,0.08429753069564232,0.3037801193940878,-0.020101676977462693,1.1351228791412595,0.030216194988105866,-0.0001855501057358871,-0.04222354089478592,0.9986511501650139
-1.6807932820995435,-0.9560843453392807,1.9893026918087506,-2.744464023817862,-0.8023103964900488,2.3082204586203123,1.0945003446726407,-1.279717403293796,0.679148945697684,0.8801797901162056,-2.7466997299605325,1.1075043997082399,1.9564306418201591,-1.4077174753993336,0.008077982732383573,-0.004643376664816845,0.03556440363318596,0.05318284558654929,-0.06027187325179042,0.0007102804791264791,0.08904266436415677,0.3044944721476129,-0.020417323998661398,1.1354443193821018,0.030085611790949197,-0.0016978964345491217,-0.044549309847130146,0.9985526185950374
-1.67986247781588,-0.9568006924339906,1.986717798458638,-2.744188270702654,-0.7989144565513718,2.3081545342240033,1.0903306682969318,-1.283092523895838,0.6786742763104503,0.8824540072370699,-2.74750785243506,1.106386536887916,1.9560015275581515,-1.406696082524535,0.008042267017484749,-0.005213601642617693,0.03591753741281094,0.05324997373669116,-0.060668684651159405,-0.0004239622453123469,0.09212934232691285,0.3050660936461922,-0.020657699198386628,1.1360827295235874,0.030307205557340122,-0.0011872141007819707,-0.04610719856250225,0.9984759336382135
-1.6790041832860083,-0.9573960269277229,1.9844663674631584,-2.7438211719080448,-0.7947904811428839,2.3076091497614146,1.0855982361813532,-1.2860077119540723,0.6782275620216026,0.8844478645877671,-2.7479738651737544,1.104507620646635,1.9554218880109147,-1.4050514848562563,0.00803691998540564,-0.0050515490383259976,0.03623981891160597,0.053258648430431155,-0.06134513506284259,-0.001122645300389039,0.09116989293763382,0.304905433902074,-0.020867517683677454,1.1367787928766024,0.030661420314243883,-0.0008392939232233443,-0.04563849667516405,0.9984870056797209
-1.6781148980158132,-0.9580979577864637,1.9818885140884812,-2.744331101200631,-0.7990297993065392,2.3103019366708786,1.0873041309018252,-1.2894567224206157,0.6778554096375493,0.8870532302030812,-2.7497440804301556,1.1091809365978083,1.9566130746091634,-1.4069279825286471,0.00802776032528426,-0.005498272411379679,0.03650704455721091,0.05336728080299502,-0.061733949185921136,-0.0013399083214627983,0.0934601079384565,0.3053535464746962,-0.02102257588217374,1.1373740983059206,0.03085961920880608,-0.0007750377564971563,-0.04678501638428651,0.9984278869606384
-1.6774888078279229,-0.9585210839335029,1.9802569574527351,-2.744131815816185,-0.796371479951276,2.3101341300526173,1.0841512332011798,-1.2917994881102584,0.6774942345018337,0.8888323868075181,-2.750269084261146,1.1083914589317847,1.9563293073765993,-1.4060890556390688,0.008031949777589836,-0.005970681837809466,0.03682523124571436,0.05364203832193892,-0.062020886598920986,-0.0007172439321629678,0.09663674934925122,0.3058273414400897,-0.021228890689964062,1.1378024783439864,0.03098653334511759,-0.0011418098322376528,-0.04836102770094716,0.9983485072965587
-1.6764120782778567,-0.9592363631041639,1.9778733884556983,-2.743894959767458,-0.7921760770412456,2.3096879299010045,1.0796891286645416,-1.2948144358687539,0.6771932419575284,0.8909068629135202,-2.750716699694566,1.1063989440446664,1.9558028803738368,-1.4046966399537133,0.008015819085562818,-0.005532796243472804,0.037197312629823856,0.05382614153843912,-0.06244922198460652,6.256259813903376e-05,0.0941092046259878,0.30539083772411174,-0.021489395759755982,1.1383207124396229,0.03118342006025695,-0.0015020167124168114,-0.04708691084819781,0.9984028050270667
-1.6751291938751296,-0.9602379234866002,1.9742289461892084,-2.744187882826437,-0.7937568326881366,2.312103504662722,1.0785056987941974,-1.3002099095098731,0.6765636750613381,0.8949495662220968,-2.7528100181205786,1.1095617246380702,1.9566307613590002,-1.4055135295407164,0.008011587093410674,-0.006578583523702497,0.037515074590169714,0.054073581742842824,-0.06253936852471421,-0.00015236185938406519,0.09989724344243157,0.3064380032220952,-0.021695876972179815,1.1387748093024832,0.031229308097632396,-0.0014872329595105112,-0.04997939034785283,0.9982607770489252
-1.674106819735238,-0.9610210177182583,1.9715010325224493,-2.744342811349873,-0.7941123153025752,2.3136697303694733,1.0772406973029782,-1.3043652055492416,0.6761059801373844,0.89801277186505,-2.7543099425507944,1.1113487098025392,1.957177556544392,-1.4059411128925492,0.008017592850546781,-0.005715517355045496,0.037932972023842965,0.05401018184522055,-0.06348372860541389,0.0010968707911208936,0.09535479006375015,0.30557631161058707,-0.02200278922432657,1.139538946022497,0.03167420865758194,-0.002062418650570647,-0.04769150519128175,0.9983576569886244
-1.6731212891212957,-0.9617372907020806,1.9691401902134487,-2.7437280038822847,-0.787382181358643,2.3121018920943066,1.0705297496240334,-1.3081184579271106,0.6757166732674783,0.9013621814354619,-2.7544547873322274,1.1074049817994351,1.956294987383293,-1.4032317110441113,0.00799773997110466,-0.005853982566166371,0.03835677293164029,0.0541482018702486,-0.06384137924671858,0.0022685008822499603,0.09635467143764828,0.30571614771825195,-0.022315900516992948,1.1401008625749876,0.0318234439278828,-0.00267170547501699,-0.04817154795836062,0.9983284190954994
-1.672282942926243,-0.9623970782905328,1.966631687487673,-2.7443465674309384,-0.7923033421999037,2.3151465212297495,1.0729267071173827,-1.3118912577683675,0.6753154803468379,0.9039084347575352,-2.7563849424407705,1.1124309187566608,1.9577590033895196,-1.4053482516500693,0.007995953560465648,-0.006931620653438997,0.03868358224476446,0.05424764690877559,-0.0638257654153357,0.0018246354103935063,0.10173162647299688,0.3067951530414636,-0.02253231578138172,1.1407005538691066,0.031819655012867654,-0.002535323788634961,-0.05086245935353852,0.9981954176996899
-1.6714379519164742,-0.9630092783029582,1.964527271213011,-2.7441603092915985,-0.7898578376749499,2.315270651296665,1.0696041882290594,-1.3152993857947384,0.6749778553697037,0.9069345246965476,-2.757068947993702,1.1116523993704193,1.957644876657711,-1.404343815650474,0.007990452909338632,-0.006759574725435036,0.039070318687013245,0.05440152993173397,-0.06441103565741987,0.002962265936462315,0.10132996358892081,0.3066244706887937,-0.02280895374129065,1.1412450069339215,0.032083416736551185,-0.003111545849139147,-0.05064292032364285,0.9981965073441355
-1.6706702237747362,-0.9636235700805484,1.9624507722002584,-2.7445420683713064,-0.7922208410693364,2.317217643399761,1.0706829495078976,-1.3187468836997367,0.6746339496625913,0.9090826578169712,-2.7586520120253897,1.1144757323516923,1.958639244189081,-1.4057791507896502,0.007990518853221015,-0.006876354066426393,0.03941297616280348,0.0545458373395018,-0.06458665989814263,0.0044682650159142134,0.10145025121029552,0.3067426099445143,-0.023041808301136564,1.1417982353690543,0.0321326227576867,-0.00386956026388366,-0.05067832974160418,0.9981904767892136
-1.6699755596989732,-0.9641402184957909,1.9606960909783313,-2.7443762711554305,-0.7902371802140021,2.3172233976010066,1.067929549298643,-1.321502085106615,0.6743987920869882,0.9117588667638192,-2.7591275250135077,1.113966818462079,1.958623616231005,-1.4049102637789042,0.007977269411914066,-0.00658238066179756,0.039737288769148636,0.05478308490052397,-0.06505060020708921,0.005505795119988772,0.09983715167606903,0.3064499927940097,-0.023256613557932952,1.14225772340606,0.032341340575817605,-0.004373050625023898,-0.049855416594680256,0.9982230970850957
-1.6691056340300892,-0.9647896891948813,1.958482613240185,-2.7444377822927937,-0.7848836058384913,2.3162006834640234,1.0635434006782165,-1.324478075683531,0.6740278046596658,0.9130904175341537,-2.759760321282696,1.1107931988628015,1.9579537823799726,-1.4036621207375837,0.007982236449104212,-0.006778870665612835,0.04000083524890588,0.05503287453543182,-0.0652311292435669,0.009125375235218456,0.0997782715275994,0.30664783539134427,-0.023410948254536965,1.1427038691243077,0.03234102190280768,-0.006183143216066218,-0.049766360683022405,0.9982179803963758
-1.6677983890859602,-0.9658082457735879,1.9549857993985096,-2.744694244884853,-0.7865647593682482,2.3185216666817543,1.0627476320496334,-1.3300356424959376,0.6735063121068001,0.9176416078735837,-2.7617590912741385,1.1139083347822574,1.9589400290773946,-1.4045790092317898,0.007982184535785749,-0.008073589049353624,0.04032695294588227,0.055293417241599974,-0.06537550380380147,0.007235835543709961,0.10716897465224744,0.30794390270799954,-0.023628149734755667,1.143138461526422,0.032440765965394774,-0.005363579493752667,-0.053485363127369234,0.9980271262093662
-1.6664468276889883,-0.9666720837552012,1.952213647038661,-2.7442474520914173,-0.7790283476840126,2.3169558410041486,1.0555065923883815,-1.3343963629678917,0.6730703928310486,0.9212342103694873,-2.761906028648389,1.1092363336735518,1.957928527098768,-1.4015586826583455,0.007982198562728166,-0.0069722656130787874,0.04077677630466883,0.055336895472386294,-0.06641619007734384,0.0069142390416505346,0.10290767182506802,0.30684392454403414,-0.02396935244318009,1.1437893181590455,0.03297978662085604,-0.0051606765686162594,-0.051361394531059416,0.9981220908504238
-1.66549555775217,-0.9674905224247164,1.9493779482725229,-2.7446464974477736,-0.7827789190883279,2.319701733150423,1.0567443890021773,-1.3387701546169641,0.6726328706361876,0.9246784004318541,-2.763683946314375,1.1134626555332403,1.9592549773227903,-1.403097831907371,0.007999221461187943,-0.007811542260809101,0.041099349203977176,0.055413434265393136,-0.06647829179078786,0.007087058981798513,0.10760544002304206,0.307684542803469,-0.024183600258521835,1.144406313984576,0.03299390187485853,-0.005326031423623666,-0.05370267736118257,0.9979975241815922
-1.6642915442669097,-0.9683455879171607,1.946755983271573,-2.7440599305758626,-0.774415294504663,2.3177976531443476,1.0488060245978397,-1.343056355329533,0.6722075917392628,0.9282881382436712,-2.76369106862248,1.1081294543479097,1.9580098325446251,-1.399718547798743,0.007974951912245523,-0.007823378425153182,0.04149448488512826,0.05539211803772748,-0.06702903456450815,0.007986066655727628,0.10808254017433125,0.3076977169189128,-0.02447070642210186,1.1451203645859058,0.033243089721443346,-0.005797343021104036,-0.05392414586255226,0.9979746861983332
-1.6633827792020224,-0.9690687606429815,1.9441430941253306,-2.744587625284055,-0.7792591021111948,2.3208462793170446,1.0510908085307513,-1.3462906387234184,0.6718407348335946,0.9302612669843869,-2.7655413441102783,1.1136064482163432,1.959676418748149,-1.4019288383759168,0.007971006762979115,-0.00812190304698307,0.04180255254875617,0.05532709035702976,-0.06734859284785513,0.00786452927424392,0.10874834818956361,0.3079975758312374,-0.024671040134554255,1.1458773263953954,0.03340392344286461,-0.005756435101118521,-0.0542574998924495,0.9979514843212423
-1.6624244391374883,-0.9700072306431051,1.9418436665684236,-2.744337888172405,-0.7772204119366041,2.3213176196442467,1.048099827785383,-1.3504451092453538,0.6714772040665625,0.9338306212412434,-2.766336238699934,1.1125959631348172,1.959653324638671,-1.400702710717375,0.008087729300880092,-0.007842262172506609,0.0421842276049464,0.0554691850382647,-0.0682665707850183,0.008942681108423679,0.10803939181862701,0.3077192655866507,-0.024945276805964516,1.1464263655980798,0.03383480968534487,-0.006307299332349056,-0.05388260988263809,0.9979539508318629
-1.6616873782812325,-0.9706562171057105,1.9399101978228623,-2.744619161061941,-0.7791038730042836,2.323178659543882,1.0489328109712184,-1.3533350163294782,0.6711735124817322,0.935771265457055,-2.767627651322006,1.1153587464732617,1.9604770635404354,-1.4023364780560341,0.008080868224082492,-0.008438231755289072,0.042492099711340575,0.055704181783239326,-0.06823719701662859,0.010818116458627298,0.11151647944150167,0.308316562138718,-0.025146006093974268,1.1468817024921514,0.03375668352386525,-0.007300987590079496,-0.05558541218756023,0.9978564244667758
-1.660757143273062,-0.9715546009795581,1.9376472533507685,-2.7444431443657935,-0.777759006843264,2.3237847322088054,1.0465819415148891,-1.35685558447385,0.6708316530763913,0.9381721626558215,-2.768552568247817,1.1153155989868957,1.9607145508926542,-1.4016480990521045,0.008063385140768669,-0.007953902210315555,0.04279566614926024,0.05580015504520097,-0.06903197032478943,0.013353747801850438,0.10899438398098853,0.30783355590242445,-0.025342725279905044,1.1474752626243634,0.03409305023728109,-0.008545138026135237,-0.054280032115525886,0.9979069709422669
-1.66014939355264,-0.9720834205097894,1.93608635829473,-2.7446816520536306,-0.7790054722762383,2.3250218471471653,1.0480271657875264,-1.359545858118502,0.6706421546663828,0.9405224455168828,-2.7697702146360244,1.1169900566713267,1.961325074777672,-1.4037306324892085,0.008074560153808913,-0.00850391868652306,0.04309462964856367,0.0560311408587606,-0.06914509309812687,0.016693825416727086,0.11074670118109414,0.30838489202670694,-0.02553513709361514,1.1479330099601046,0.03404906418344657,-0.010244529879123727,-0.055095520347223176,0.9978477812138763
-1.6584233996038982,-0.9734717315163204,1.9323496511597331,-2.74432446255968,-0.7709105866712065,2.3237981923518523,1.0407603453653282,-1.3647901374001759,0.6700761788424994,0.9438446306504638,-2.7705378985559137,1.1129006744237508,1.9603241899490402,-1.4018613737886623,0.008069877841430692,-0.00824842815137039,0.043406425010646704,0.05622198627076158,-0.06990244991365929,0.018522320843580877,0.1089150426548475,0.3081307174790244,-0.025740676336500377,1.148430097452532,0.0343862332361577,-0.011146139613885152,-0.05414543041539791,0.9978785611990408
-1.6575413750273227,-0.9744007405109928,1.92996362084347,-2.7445862148905196,-0.7739989181874749,2.326286561728246,1.0424359829903942,-1.3685516674541962,0.6698722633212887,0.9467280386938816,-2.7722417915277626,1.1169196035614193,1.9615447096775254,-1.4040899602824564,0.007989058683721257,-0.009574048821125503,0.04370677048582589,0.0563567851388469,-0.07003479139511729,0.0187137503551987,0.11697004049594037,0.30945765047564466,-0.02593506125887731,1.1489824312440022,0.034401449536357556,-0.011383874237036622,-0.058159791182074316,0.9976494305951417
-1.6564134483917503,-0.9754269732110885,1.9273499143644668,-2.7445087790428273,-0.7720947748489327,2.3272465395405786,1.0398747969392304,-1.3728809035079705,0.6695922632679673,0.9500598117957758,-2.7735294892026445,1.1175541607349504,1.9617014354630073,-1.4043950010603758,0.008003944135837552,-0.0084747077156066,0.04404796282790491,0.05635559042114591,-0.07134735005968759,0.019519864646107988,0.11325860558581477,0.308359618036386,-0.02617058861454961,1.1496699583763863,0.035054350580313115,-0.01175909402847968,-0.05628632550038136,0.9977298059969377
-1.6554541697779623,-0.9762808242552095,1.9252767174372534,-2.7437644329553152,-0.764941754293582,2.3252927782610087,1.0338596472265942,-1.376346543098869,0.6693674233150587,0.9529507822817219,-2.7736196865380154,1.1134056160261556,1.9608822138918944,-1.4025225698066646,0.00799896857116462,-0.008568194116582162,0.0443140810223696,0.05646444824175423,-0.07153495478739465,0.022109821731543272,0.11256160962832062,0.3084544094430169,-0.02633133738900314,1.150246632725588,0.035078667750792714,-0.013044122688357194,-0.05589052228201602,0.9977352291320398
-1.6544893859656224,-0.9771671477289477,1.9230290337675542,-2.743495003464877,-0.761741217456253,2.325304545280909,1.0304587427026433,-1.3799589824965106,0.669134831960689,0.9558253640862115,-2.7744361506547706,1.1126807857225829,1.9607569848223467,-1.4021380116214888,0.0079895098899087,-0.009139169272955716,0.04456878537334017,0.05652779932580909,-0.07208820090138175,0.02227342350434435,0.11637268617930725,0.3090266859444409,-0.02648096788635809,1.1508680135664708,0.03532492097434428,-0.013208530839621575,-0.05778501789350651,0.9976164475279377
-1.6535544225495016,-0.977998412890827,1.9210097004989333,-2.7429419505343655,-0.7564886010549521,2.3241076499602147,1.0253231287598568,-1.383028877925986,0.6689428905184929,0.9584215154911027,-2.774750516305292,1.1103517645611232,1.9602442775471394,-1.4005695752083507,0.007975521282050445,-0.009584337273526367,0.04483750822159342,0.056601526926000956,-0.0725680104705096,0.021907221695973724,0.12094825734519216,0.309473151629457,-0.02664491244739126,1.1514782176463438,0.03554505471729501,-0.013121092569031424,-0.06007075920528934,0.9974747565244143
-1.6528820240235476,-0.9787430652963283,1.9191538812201232,-2.743591137343735,-0.7615618956980962,2.327518738803434,1.0288660720821157,-1.3860180160947597,0.6687546306514005,0.9606088407722375,-2.776660571776168,1.115848232871476,1.9617071799327084,-1.4037775745228078,0.007975437104752145,-0.009610454831699367,0.04506522012476419,0.05663468496357282,-0.0731380966119146,0.022013469130984523,0.12099308995884799,0.3095005632114705,-0.02676814162973749,1.152128191043964,0.035825847325640876,-0.013192004309501048,-0.06008740228706106,0.9974627731259401
-1.6513317229830853,-0.9801400213832684,1.9158450671325358,-2.742656930682298,-0.7524651050209928,2.3255321427549704,1.020313054385457,-1.3910710888203244,0.6684301918991372,0.9648583296338161,-2.7770584611150766,1.111200443283016,1.960674659365307,-1.4011031977191053,0.007975502599749126,-0.009644887455537043,0.04530692864559272,0.057023298350415086,-0.07344632050580202,0.023802115916641792,0.12220634913661177,0.3095362861985439,-0.026905662996137027,1.1524219088474412,0.0359165402238039,-0.014115055162884641,-0.06065704723091547,0.9974123971443943
-1.6504533212165822,-0.9809686591246659,1.913780844162769,-2.74232624764489,-0.749175622676231,2.325301768367462,1.0169006395483848,-1.3944962213943106,0.6681955889241613,0.967694146689145,-2.7776641520049585,1.1105972376976347,1.9606134902348935,-1.4007231772581399,0.007977325612045148,-0.010337783123026467,0.04560446466495284,0.056963015763921376,-0.0738152610398876,0.024406447471132693,0.1250172398256329,0.310230468568664,-0.027099307427463696,1.1531637223793816,0.0360616254689825,-0.014478306281227126,-0.06204482663768797,0.9973165883024614
-1.6494537158793428,-0.9819322217619028,1.9112561384041793,-2.7426842737227872,-0.7517569402249101,2.3279329599329257,1.017537233614201,-1.398060419601113,0.6679482101064246,0.9705669036809468,-2.7792672402245917,1.1146097944626772,1.9616431712570999,-1.402335599029362,0.007977277213159282,-0.010733379650548713,0.04588306560138908,0.05704084994607905,-0.07438680036262156,0.024041010293794685,0.128304562518562,0.310627348138212,-0.02727431234226203,1.153766618897798,0.036334551518885996,-0.014373561046588353,-0.06368675761475726,0.9972046921336063
-1.6486326324342087,-0.9827064896962749,1.9093494290812625,-2.7425035545466767,-0.7498495485179836,2.3282180966710713,1.0152609022927688,-1.4011826325249126,0.667741726578649,0.9731488033961014,-2.7799879622972434,1.1149710125878582,1.9618480566965635,-1.4023862054807696,0.007982858146467384,-0.010458490485226624,0.046132104283069186,0.05721850044134991,-0.0749074555439128,0.02570271589371222,0.12741417904637042,0.31035373835431074,-0.027420050568699773,1.1542688988582286,0.036547251535884964,-0.0152023403101529,-0.06320736056295279,0.9972151306638563
-1.6474134262934748,-0.9836395411598852,1.907235410240203,-2.7420621039384545,-0.7434467564798153,2.326763573673386,1.0094738930621427,-1.4039555838280986,0.6674991671232227,0.9747056726341266,-2.780313513066802,1.1117542352875143,1.9610381630121956,-1.4005882936675145,0.007983751160341383,-0.010892516946065911,0.04639433422755829,0.05741347648883122,-0.07531538185334118,0.0276732091438848,0.129300869010741,0.310789040535966,-0.027579275624342054,1.154753053021576,0.03667210857082868,-0.016232260801262496,-0.06410707899493279,0.9971368775574326
-1.646976153949828,-0.9843325225613031,1.9054176574544939,-2.742601172993698,-0.7496759888043774,2.330375558011318,1.0136043304342623,-1.407151832879074,0.6673350101501356,0.9777560855152879,-2.7821209613936344,1.1183757521449893,1.9629281515282095,-1.4039132904686025,0.007983785064435527,-0.01078445145627438,0.04661584424329579,0.057515165717006544,-0.07614579158340447,0.027298645642848073,0.12893198088080274,0.3106822471063855,-0.027698076317628276,1.1553296937593565,0.03710128628691257,-0.01606530393636301,-0.06392369850992116,0.9971354779236878
-1.6457714808013764,-0.985248353864337,1.9032484937119167,-2.742151282764787,-0.7435486032843461,2.3292014593917028,1.0076794985308732,-1.4099217844892877,0.6670906694386456,0.9793391793111766,-2.782541841239063,1.11571227243364,1.9620891440582346,-1.402243502300655,0.007983863819606123,-0.010773506780032138,0.04684806139611662,0.05779997754463828,-0.07646525388837674,0.02901544898765837,0.12994936161832935,0.3106725708297493,-0.02782787971439337,1.155722411652808,0.037196164234496086,-0.01695031173028878,-0.06439483017257895,0.9970869762189913
-1.6442680160491996,-0.9866751990720872,1.8999383362631757,-2.7414116542896814,-0.736652071605161,2.328109703887565,1.000789951136421,-1.4152614231547438,0.666747459232937,0.9839760580346559,-2.783410729693828,1.1136066352809182,1.9616652511891095,-1.4008236524873363,0.007983733906390037,-0.010587405186040622,0.047119028885067846,0.0578442670946504,-0.0771115045354943,0.02989216275580541,0.12795390948258595,0.310487733974759,-0.027996729013684402,1.1563548515790065,0.03750697791222067,-0.017370746544019964,-0.0633772368203289,0.9971332958162694
-1.643362539983059,-0.987595472572541,1.8976776541207865,-2.741895250716451,-0.7399129882996341,2.331007747838914,1.0024483852829909,-1.4185647429677126,0.6664971124922446,0.9865469650127109,-2.7851174295262253,1.118328304309249,1.9628793512288756,-1.4032492962752692,0.00798917162997709,-0.011673148988826487,0.04738068724677515,0.05795722729518871,-0.07760854365126885,0.029916016045107446,0.13493765196137747,0.31157473885594106,-0.028156564752127057,1.1569178206098059,0.037693031269143945,-0.0175301137648019,-0.06685387927257767,0.996896428587917
-1.6423321471768808,-0.9886242270776984,1.8953291368256373,-2.7416254169286223,-0.7374928283499518,2.3313625827181523,0.9994886134840638,-1.422503749221298,0.6662450122798177,0.9898536626735199,-2.786248793166088,1.1192513251045366,1.9631670652049003,-1.403470799873731,0.007995346379431108,-0.01123792033063481,0.047617380536961115,0.05792541957285735,-0.0783281030324986,0.03160532841447182,0.13304432958739842,0.3111407676155407,-0.028291730985443922,1.1576247573186027,0.038011625911276575,-0.01836013949030184,-0.06586996957410443,0.9969348868816781
-1.6414658873382446,-0.9894919060391175,1.8934525377417677,-2.7418863880143864,-0.7387397621583577,2.333297892238963,1.0000466613387784,-1.4252884225153477,0.6660543971470948,0.9920770024252956,-2.7874196754949856,1.1219568140334426,1.9639034810037876,-1.4051272390869423,0.007999850699280714,-0.01092862922589094,0.04785289830661687,0.058029685084516114,-0.0788096744253437,0.033452570333413784,0.13070851135595227,0.31083273026798325,-0.028426017264626114,1.1581948205485364,0.038212184712022694,-0.019252081268881966,-0.06466389908685649,0.9969893512276023
-1.6406670441849245,-0.9906470242232506,1.8915250710766733,-2.741531958642943,-0.7369322829811857,2.3338225919815816,0.9977069872256425,-1.4283172500687622,0.6659575458415614,0.9940746042086586,-2.7883409190604747,1.1225110514301244,1.9641297642377569,-1.4052991727549826,0.008100382175580054,-0.011809011958588855,0.04811983224963215,0.058298151654151864,-0.0791296234601578,0.034895908292518804,0.13518395680193074,0.31171436309726264,-0.028592015283563376,1.1585998824756203,0.038279240838441926,-0.020067558455279227,-0.06686231782885049,0.9968256734620302
-1.6396034366968142,-0.991578160709409,1.8894547558911767,-2.7414154660711785,-0.729861067124468,2.3319678666783097,0.9919668713275069,-1.4303291861724026,0.6657831867103797,0.9951865283130968,-2.788380269548977,1.1181043159746507,1.9630343162849704,-1.4033705640440668,0.008084704388042152,-0.01167222842992599,0.04835645322837029,0.058441507278746974,-0.0797298740001955,0.03627704439575735,0.13382879085315202,0.3115788260045763,-0.028727995904619042,1.1591292551028725,0.0385453440702452,-0.02074980993882863,-0.06615257455166296,0.9968488043420605
-1.6381718169822228,-0.9933145063640165,1.886346479535414,-2.7403934362706757,-0.7235451817041327,2.3312300215175608,0.9853270996379477,-1.4355258390750456,0.6655883397016714,0.9996473735586429,-2.7891848266046453,1.1164632961474357,1.962651089112552,-1.402169903579826,0.008086942758825677,-0.012056059591821822,0.048594140155865065,0.058687750347458545,-0.08038641536354575,0.03602090412884274,0.1367475988004671,0.31196389994184376,-0.028865338040826884,1.1595549400411351,0.038851066316128856,-0.02070059359008102,-0.06760576649719299,0.9967404578963599
-1.6371882792786199,-0.9944996918686647,1.8841485079212057,-2.739908029235168,-0.7186789091872845,2.3305468776666975,0.9804073208354702,-1.4391662931144542,0.6654231448881678,1.002675374561869,-2.7896471869215924,1.1144335004769657,1.9621111374367781,-1.4008535889799592,0.008088619517580931,-0.012864143660434368,0.04890050023947397,0.05878431480403101,-0.0810020909377497,0.035666125172078574,0.14298158099353703,0.312773223125223,-0.029071648899544403,1.1601295033466645,0.03910592020061633,-0.020666605449569494,-0.07071324124405158,0.9965155572981365
-1.6359702957508464,-0.9959740376717958,1.8814961061525735,-2.739177797008473,-0.7132425237774598,2.329902164604093,0.9746728571888303,-1.442966371961269,0.665256477380737,1.0059539179161747,-2.7902571161180134,1.1130650584610082,1.9617189923942167,-1.3997176163070184,0.008088571099060232,-0.013081460846201876,0.04912171605187024,0.05861962648787311,-0.08185551064866949,0.03614478724086139,0.14455106105350748,0.31299177576515225,-0.029193111053444822,1.1609645191800515,0.03949742750394636,-0.020966246785600856,-0.07147631112216753,0.9964394144475934
-1.6351495584415328,-0.9970190087868871,1.8793313513192051,-2.739638749665197,-0.717419847768148,2.3332393938986122,0.9769038655798192,-1.4454986775637675,0.6651236226876199,1.0080219673725546,-2.7918741928077284,1.1187909475228572,1.963146302935801,-1.4024182955186117,0.008088726625056391,-0.013410446263171616,0.04927299982132056,0.05866055326871367,-0.08264453833563533,0.03576943612929746,0.14598666399895924,0.31332199297567886,-0.02924493673079484,1.1615931196715672,0.03988927924154303,-0.02083609700123507,-0.07219122718684386,0.996374994256983
-1.6340997633846475,-0.9982751829202541,1.8773336507366643,-2.7382157617253777,-0.7064670127716866,2.329636958768892,0.9668554665706918,-1.4489385940314916,0.6650014651245123,1.0111453646827362,-2.791471756775586,1.112404421166192,1.961453070283024,-1.398463653695762,0.008080673231438776,-0.013297561882610387,0.049486512885898754,0.058791272815591045,-0.08321708169930374,0.037663466392340625,0.1460429083416438,0.3132103367280696,-0.029359287269668282,1.1621311271521735,0.0401041147097128,-0.02180134926640756,-0.07217273006819923,0.9963470570980864
-1.6334591390690794,-0.999189122147304,1.875620394688028,-2.739577061219071,-0.7170131924289518,2.3360382578064947,0.9751002159171068,-1.4510939816359882,0.6648772372945005,1.012687534042221,-2.793989080115759,1.1227964260641967,1.9641418097713088,-1.4044895178975583,0.008090541790051597,-0.01414404932574509,0.04965433388700838,0.058903779779477805,-0.08358777163887482,0.03758249523997501,0.14962245574332717,0.31405804864355125,-0.029428241311468685,1.1626865469708976,0.04025273148075854,-0.021846471227887892,-0.07395353738721838,0.9962094777762076
-1.6318130328307325,-1.0012425994599452,1.8720473371219304,-2.739336328589981,-0.7152215476092865,2.33787984549581,0.972456761695976,-1.4564546013721118,0.664659698180192,1.0171974487525488,-2.7957765761977664,1.1255761656133212,1.9648797192371938,-1.4060058745860013,0.008097923465106405,-0.013112615684036988,0.04983397297317772,0.0591211171475865,-0.08436330652138256,0.040031851407686295,0.14431784452622085,0.31302783581358523,-0.029509309004724368,1.1631363361405271,0.0406076136652728,-0.022987378336244396,-0.07124938046156883,0.9963664626699761
-1.6304945147530292,-1.00261111778836,1.8695972960883334,-2.7389233193911156,-0.7066498087341124,2.3356077061399705,0.9650271438429103,-1.4595034737378798,0.6645089673982171,1.019128710535175,-2.795929469214988,1.12117343532862,1.9637695546412586,-1.4035976195904132,0.008106241148293392,-0.012885404923229593,0.05009255919497955,0.05922324965418646,-0.08460050362967987,0.04326451336651821,0.14150743496837054,0.31280184220391505,-0.029669619400008056,1.1637005299267926,0.040642377221767376,-0.02454896362777827,-0.06977594732162962,0.9964320662914933
-1.6293270880617046,-1.0040807757010395,1.8672851944005175,-2.738008545845755,-0.7018928733061984,2.335258088684558,0.9601009361504654,-1.4634710010695249,0.6643582449771503,1.0229152728379787,-2.796557627496243,1.1203437183964908,1.963523161471846,-1.4029833184468528,0.008106183456541429,-0.013902876543772258,0.05044656274504079,0.05914133177930947,-0.08544068117553073,0.044352930478742524,0.1461937119496534,0.3138205273149899,-0.029925642689946717,1.1644479738496625,0.04096301420906482,-0.025216507398901564,-0.07207612832985162,0.9962385211115298
-1.6282883129712895,-1.0053863657523554,1.8650241018231584,-2.737475808680091,-0.6962244292671768,2.334280715171512,0.9544923532035129,-1.466480464687696,0.6642538925012135,1.0254401156366713,-2.7967197326786515,1.1182139351388793,1.9628129720734608,-1.4015183430102514,0.00810221288975418,-0.014957290233873155,0.05070913168251742,0.059154869029790724,-0.08624895311678164,0.04419527085988924,0.1527922428505797,0.3148761508350181,-0.0300905269336963,1.1650991624023013,0.041288199802637156,-0.025303471053483496,-0.07535585466624098,0.9959801775523565
-1.6273746922236636,-1.0065339877387993,1.8631448892493088,-2.7368248616236537,-0.6924339906500601,2.3339026710354887,0.9504996526954135,-1.4696688296098093,0.6641369453664281,1.028464810595831,-2.7971330379710317,1.1174590655124828,1.9625546283115016,-1.4007127317251185,0.008102122057095738,-0.014679102319619108,0.050836097147791984,0.05914878926119149,-0.08694071958741444,0.044428661089895266,0.15094060703525858,0.31459916909008645,-0.030120103271639363,1.1657691677291482,0.041647214081797154,-0.025407194078497668,-0.07441973253369452,0.9960329750856123
-1.6263914929339018,-1.0078665345479307,1.860632179761067,-2.7373258688535023,-0.695725305441453,2.337377702019028,0.9518907678318441,-1.4723123319865348,0.6639949235952134,1.0307382791265596,-2.7986215367995335,1.1229968225926756,1.9637549445640745,-1.4032972969545185,0.00811935279056281,-0.016139150281932968,0.051031380999217266,0.05925046765704356,-0.0875933721317552,0.04419177426633224,0.1590283100494508,0.31606041956111774,-0.03021829356212869,1.166330614646671,0.041878579453782816,-0.02548308177420785,-0.07844394891956044,0.9957124805907213
-1.62556137318623,-1.008874771146693,1.8592052007202546,-2.7356590086211137,-0.6849987082441161,2.3332040240471827,0.9422137440228011,-1.4750139667909952,0.6639221921270856,1.0334692114067412,-2.7978523095981274,1.1164595090798788,1.9620554485394595,-1.3991263486902554,0.008109366914813475,-0.015005738098018528,0.05114381385208546,0.059308141224701405,-0.08835752430653007,0.046128568998538906,0.1523525609293494,0.31492820622531587,-0.030233928420456475,1.166935266147515,0.04226929730415074,-0.026336176243609486,-0.07506596875249553,0.9959341407249419
-1.6246587696945596,-1.010181624335349,1.8569332186649488,-2.7373106698278344,-0.6951388351055111,2.3404117079380895,0.9500903826976683,-1.4775126736745339,0.6637653590986303,1.035430756001199,-2.800400781696171,1.1272636351718437,1.964607657514464,-1.405500014872947,0.008135747445879457,-0.016986771357734465,0.0513611182441705,0.05945300528047004,-0.08845828457260953,0.04556894381906686,0.1619245867706237,0.31691043467253943,-0.03035473038439665,1.1674519269153758,0.04221582960970493,-0.026263671701608798,-0.07984315408507421,0.9955667300713005
-1.6228295967434752,-1.0121922541851656,1.8537851293804115,-2.7359236432119287,-0.6840627973366201,2.3375304866142854,0.9398598599610826,-1.4820462048193543,0.663615594898954,1.0397979738584608,-2.800283468976316,1.1224575175679112,1.9631944489319266,-1.4023752529635978,0.008135637239741941,-0.015088573829456331,0.051436133841587184,0.05964764679986967,-0.08942348415916979,0.048100932334134434,0.15165785484443872,0.31501342867116394,-0.030333539120064,1.1679180099747328,0.04273354168987353,-0.027343320953351905,-0.07466028417608728,0.9959176819299012
-1.6214971759791776,-1.0138627418628345,1.8511559490589553,-2.735253069213339,-0.6786787523744324,2.337041145626309,0.934381826977481,-1.4857230416182392,0.6634411730452421,1.0433007165267218,-2.8006659209616953,1.1213482644705666,1.9627645177414577,-1.401444231597624,0.008136095079154965,-0.016973321420003296,0.05171415136690496,0.05972722608252723,-0.08971145839843955,0.050213510485164745,0.1607150696672938,0.3168993641280087,-0.03051564535002799,1.1684983550259593,0.04266670911618781,-0.028599366421344686,-0.0791163766762168,0.9955411729884001
-1.6202969743646158,-1.0155187762683022,1.8483129327812755,-2.7355207680691342,-0.6806511481753008,2.3404419636616614,0.9347396111638249,-1.4891810207664467,0.6632782095134188,1.0465875782522878,-2.802153120479129,1.126623120880683,1.9637916829303184,-1.4038325928750361,0.008125383763251587,-0.017593338013198012,0.051910489819334646,0.05946894387067192,-0.09073596837179924,0.049834569507500176,0.16320238874546772,0.31752056492689623,-0.030616368073499437,1.169415761326826,0.0431566740063899,-0.028504997309205447,-0.0803486893867528,0.9954240577416941
