Debojit-D/Bi-Manual_Redundancy_Work/joint_angles.csv
Left_Arm_Joint_1,Left_Arm_Joint_2,Left_Arm_Joint_3,Left_Arm_Joint_4,Left_Arm_Joint_5,Left_Arm_Joint_6,Left_Arm_Joint_7,Right_Arm_Joint_1,Right_Arm_Joint_2,Right_Arm_Joint_3,Right_Arm_Joint_4,Right_Arm_Joint_5,Right_Arm_Joint_6,Right_Arm_Joint_7
-1.7636538262937194,-0.9527300423911366,2.2013624747526497,-2.702137669019123,-0.8598438956228349,2.243938938444362,1.2792296942295376,-1.0925635567368004,0.7212705878421717,0.7608176289621695,-2.6724675851297444,1.0962840194228654,2.0039620533202256,-1.440126362883187
-1.7636541096387215,-0.9527297455965863,2.2013626037752343,-2.7021376228083813,-0.8598442410690847,2.2439386695706913,1.279229933973891,-1.0925635338627242,0.7212705755415596,0.7608176139701349,-2.6724675837696426,1.0962840308094006,2.003962038439025,-1.44012636986664
-1.763653973570075,-0.9527298749736431,2.2013625410164517,-2.702137646963509,-0.8598440643192146,2.243938808686552,1.2792298112089888,-1.092563433069256,0.721270512763579,0.7608175650632946,-2.6724675592088,1.0962840823431133,2.0039619682070633,-1.4401264027484197
-1.7636540817907367,-0.9527297792254934,2.2013625869322238,-2.702137628529118,-0.8598442008238376,2.243938701719844,1.2792299057612242,-1.0925634600641652,0.7212705291361455,0.7608175561235159,-2.672467577146185,1.0962840734377908,2.0039619817308743,-1.440126396306381
-1.763654054790562,-0.9527298039456055,2.201362578083498,-2.7021376321420254,-0.8598441735988533,2.243938722848064,1.2792298868650767,-1.0925635716648046,0.7212705973180582,0.7608176407996552,-2.672467586275379,1.0962840098290239,2.0039620648040963,-1.4401263573018255
-1.7636541019284078,-0.9527297522945819,2.2013626016109424,-2.7021376237629897,-0.859844233873163,2.2439386751534496,1.2792299289791487,-1.0925636301885646,0.7212706336779273,0.7608176860380141,-2.672467591395568,1.096283976613583,2.0039621092224116,-1.4401263366357995
-1.7636540476310052,-0.9527298158428253,2.201362570345313,-2.702137634096439,-0.8598441570021527,2.2439387350870907,1.2792298756320233,-1.0925635708567194,0.7212705948304587,0.7608176373726684,-2.67246758555026,1.096284012987061,2.0039620617229064,-1.4401263589424356
-1.7636541912541075,-0.9527296624669437,2.2013626377518385,-2.702137610394796,-0.8598443361981392,2.243938595592031,1.2792299998962784,-1.0925634957291572,0.7212705508664715,0.7608175840410608,-2.6724675805568006,1.096284052899937,2.0039620086624734,-1.4401263835982667
-1.7636540264881417,-0.9527298313978672,2.201362567184515,-2.7021376360802662,-0.8598441417746936,2.2439387468373178,1.2792298650623435,-1.0925636822183091,0.7212706643471806,0.7608177239343678,-2.672467595301931,1.0962839480630096,2.0039621465170097,-1.440126319128633
-1.763654118647948,-0.9527297455679943,2.2013625904038707,-2.7021376236571997,-0.8598442381555262,2.2439386718587704,1.2792299319700884,-1.092563739440674,0.7212706952079017,0.7608177621052078,-2.6724675882313105,1.0962839190453544,2.0039621833906955,-1.4401263019080641
-1.7636539884164204,-0.9527298749045918,2.2013625462980193,-2.702137643097272,-0.8598440895437706,2.2439387875455847,1.2792298288122979,-1.0925633856076102,0.7212704853296179,0.7608175020113097,-2.6724675717892246,1.0962841149433922,2.003961928554476,-1.4401264214551266
-1.7636540876567461,-0.9527297700155415,2.2013625934931254,-2.702137626519479,-0.8598442135014877,2.2439386917859143,1.2792299146549262,-1.09256356101201,0.7212705920710227,0.7608176335521567,-2.672467585472696,1.0962840156552907,2.0039620581125024,-1.440126360690863
-1.7636540593873078,-0.9527297960494173,2.201362583027632,-2.7021376305213636,-0.8598441832982019,2.2439387145061853,1.2792298938799327,-1.092563603964687,0.7212706181995322,0.760817666909774,-2.6724675894192065,1.0962839910235633,2.003962090399159,-1.440126345472082
-1.763654076661378,-0.9527297853713623,2.201362583849708,-2.702137629529683,-0.8598441933398686,2.243938707554484,1.2792299005673975,-1.092563574181968,0.7212705968949864,0.7608176399245329,-2.6724675858490827,1.0962840103299176,2.00396206415879,-1.4401263576115073
-1.7636540090191062,-0.9527298520171888,2.2013625571523487,-2.702137639635143,-0.8598441176138312,2.2439387664342476,1.2792298480101256,-1.092563531155023,0.7212705728636741,0.7608176104709558,-2.6724675830586513,1.0962840326282963,2.003962035023439,-1.4401263712841468
-1.763654125470903,-0.9527297287194467,2.201362611465646,-2.7021376203516483,-0.8598442616981365,2.243938654271664,1.279229948004649,-1.0925635604539181,0.7212705915447607,0.760817633796416,-2.6724675856678854,1.0962840151597955,2.0039620578296224,-1.4401263605727115
-1.7636541279593712,-0.9527297346726886,2.2013626050101855,-2.702137621452148,-0.8598442514474105,2.2439386623460362,1.2792299410032493,-1.0925636450202092,0.721270639229406,0.7608176912108252,-2.6724675915699807,1.096283971940047,2.003962115281442,-1.4401263338601165
-1.763653993789697,-0.95272986863257,2.2013625493780693,-2.7021376420796854,-0.859844097127074,2.243938781636319,1.2792298340750936,-1.0925636649774517,0.7212706524721503,0.7608177089653453,-2.672467593497648,1.0962839592089917,2.003962131967072,-1.4401263259619346
-1.7636540298494823,-0.9527298276992571,2.2013625679991122,-2.702137635868662,-0.8598441455510787,2.2439387439202267,1.2792298675837814,-1.092563469532503,0.7212705362699579,0.7608175661567029,-2.672467578842397,1.096284066439659,2.0039619909695707,-1.44012639190045
-1.7636541523746219,-0.9527296906020103,2.2013626206629255,-2.702137618260204,-0.8598442791075043,2.2439386422922896,1.2792299600842523,-1.0925635231077728,0.7212705670811391,0.7608176314493859,-2.6724675658465347,1.0962840319740035,2.0039620338798496,-1.4401263719805235
-1.7636539850580066,-0.9527298795772813,2.20136254383833,-2.7021376440864557,-0.8598440844490552,2.24393879228204,1.279229824995307,-1.0925636844046518,0.7212706630904591,0.7608177219375551,-2.6724675944899947,1.0962839486407077,2.003962144733821,-1.440126319784601
-1.763392080846764,-0.9529840214015474,2.201111802165815,-2.702227949833891,-0.8595771015790403,2.2441084258018202,1.2789659251913446,-1.0930942345081143,0.7215538003104274,0.7613331753622216,-2.672546295927648,1.0960161882865183,2.0042647576081203,-1.4398915919188287
-1.7628941540390004,-0.9534672116726007,2.20063525256015,-2.7023995812647894,-0.8590694594738247,2.2444310203473137,1.2784642555970993,-1.0941026166044185,0.7220919591362456,0.7623127838633523,-2.672695854818663,1.095507257457025,2.004839963964944,-1.4394454949865232
-1.762537702226447,-0.9538131250366817,2.2002941178312487,-2.702522441595255,-0.8587060333302579,2.244661978907399,1.2781051229714882,-1.094824196252964,0.7224770392947705,0.763013817055581,-2.6728028906858823,1.0951430896502123,2.0052515339605548,-1.4391262570037295
-1.7620964508175012,-0.9542413114646161,2.199871776512563,-2.7026745496844296,-0.8582561867329142,2.244947833326064,1.27766054417194,-1.0957179182482484,0.7229540051113769,0.7638820435384907,-2.672935445754229,1.0946920287530584,2.0057613328709585,-1.438730881724736
-1.761706887786636,-0.9546195408561896,2.199498541621506,-2.702808908865428,-0.8578591044825212,2.245199993110278,1.2772679101837252,-1.0965111333968494,0.723381250568634,0.764650969321337,-2.6730531647621816,1.094289233454602,2.0062162240689156,-1.4383784067151313
-1.7612871562317216,-0.9550271282195163,2.1990962437049575,-2.7029537086387188,-0.857431313181726,2.245471581901735,1.2768448145641524,-1.0973676134089536,0.7238440598144555,0.7654805641970825,-2.673180289998867,1.093853368639965,2.006708336963592,-1.4379972386851785
-1.7608854901858315,-0.9554170952497716,2.198711547368943,-2.703092239038578,-0.8570218931423326,2.2457315748885485,1.276439969353601,-1.098185990735564,0.7242854433838336,0.7662736482929421,-2.6733017567060666,1.093437428284739,2.007178009934918,-1.437633337059515
-1.760473807837222,-0.9558173561585207,2.1983168831979256,-2.7032344490127804,-0.8566018381735799,2.245998003227268,1.2760243454207634,-1.0990276934199272,0.7247399925528288,0.767088951310142,-2.6734266989109874,1.0930092674110858,2.0076614908993795,-1.4372588658806134
-1.760069758670458,-0.956210862196081,2.197929605883391,-2.7033742843360393,-0.8561889905082445,2.246259504469825,1.2756156379066537,-1.0998559207081224,0.7251870339745061,0.7678912514425635,-2.673549491895127,1.0925881152253596,2.008137069109318,-1.436890530525798
-1.7596635844192996,-0.9566070632446622,2.197539459276035,-2.7035151028193387,-0.8557738857348389,2.2465219775192775,1.2752042435077144,-1.100696701107953,0.725647392119581,0.768702908380983,-2.673674259449575,1.0921564387208673,2.008623910826781,-1.4365139855819324
-1.7592587924563627,-0.9570015135743102,2.197151068509817,-2.70365529792262,-0.8553602936157313,2.246783748722137,1.2747945685226623,-1.1015299557177711,0.7260997548096794,0.7695089756273905,-2.6737977980880387,1.091731073767893,2.0091039983648975,-1.4361423583041073
-1.758855779920497,-0.9573961812082915,2.1967636650772198,-2.703795595902223,-0.8549471030605347,2.2470442141580973,1.2743845250962884,-1.1023686641411572,0.7265576212934278,0.7703189693022395,-2.6739219629202378,1.0913013334629384,2.0095888337968395,-1.4357674551094597
-1.758454832262204,-0.957789450446657,2.19637795469821,-2.703935435084739,-0.8545355943686403,2.2473032511097943,1.2739758786912039,-1.1032061055721356,0.7270156115168749,0.7711273732588163,-2.674045895492974,1.0908717285489928,2.010073410158785,-1.4353927880527428
-1.7580543733527703,-0.9581827986568608,2.195992498536441,-2.704075299493752,-0.8541242393617032,2.2475618763300838,1.2735670772289756,-1.1040465786007483,0.7274770230964757,0.77193778146379,-2.6741701134645113,1.0904394296536972,2.0105609185175943,-1.4350161979864502
-1.7576554047560138,-0.9585752512927532,2.1956082152573684,-2.704214888680402,-0.8537140480969945,2.247819415038343,1.273159133676715,-1.1048869420525542,0.7279395659379426,0.7727476176108584,-2.674294299536081,1.0900064337791178,2.0110490522775812,-1.4346389909663717
-1.7572572894497698,-0.9589674425015673,2.195224542073412,-2.7043543894354793,-0.8533043532157938,2.248076321494413,1.2727514063833172,-1.1057289606347849,0.7284045368978169,0.7735583415670776,-2.6744186377655654,1.0895716097528085,2.011539104099071,-1.4342604689721214
-1.7568599249327905,-0.9593588322697555,2.194841227496246,-2.704493615316609,-0.8528957897075455,2.248332443976422,1.272344510622038,-1.1065743699337598,0.7288770170959248,0.7743700045934919,-2.674543597302407,1.08913138462961,2.012034629628984,-1.4338778139247181
-1.756464352206153,-0.959749611166002,2.1944591482874305,-2.7046326690060116,-0.8524882409576968,2.248587326406678,1.2719382930236296,-1.1074208882845384,0.7293512098910899,0.7751821088388806,-2.674668615201558,1.0886898688683269,2.0125314673480936,-1.4334945318715127
-1.7560692798539959,-0.9601400856763045,2.194077598826209,-2.7047715866190147,-0.852081158696826,2.2488417677105796,1.2715323036072839,-1.1082685797027014,0.7298277093329796,0.7759946392372454,-2.6747937790125227,1.0882466662656844,2.013030048563096,-1.4331097943246898
-1.7556752067699015,-0.9605302896401189,2.193696755528394,-2.7049104494475347,-0.8516744562839592,2.2490956305848577,1.2711265477617415,-1.1091158984189156,0.7303030831462346,0.7768071147627313,-2.674918733773528,1.087804252897805,2.0135278310203266,-1.4327258736786461
-1.7552792621700342,-0.9609210414174019,2.1933150167649895,-2.70504948512834,-0.8512668585371593,2.2493507034736187,1.2707203556256625,-1.1099632617493995,0.7307788897672445,0.777619675683919,-2.675043254302589,1.0873614709544455,2.0140259557176234,-1.4323416499875736
-1.7548874534743057,-0.9613102597808448,2.1929355105805874,-2.7051880096511085,-0.8508616911207124,2.249602893565228,1.2703155388782668,-1.1108127156800784,0.7312580568823155,0.7784328881003232,-2.675168707668566,1.0869162821621643,2.01452660585585,-1.431955645418752
-1.7544934029382264,-0.9617001780701643,2.19255479195674,-2.7053267929590605,-0.8504553111047214,2.249860996419138,1.2699097631821235,-1.1116608449326237,0.7317351457239264,0.7792456913222524,-2.675293583550803,1.0864725877080343,2.0150256889137568,-1.431570399847445
-1.754102359153943,-0.9620890053054602,2.1921760778354638,-2.70546520672081,-0.8500505987458538,2.2501180139303725,1.2695049866242418,-1.112511633194215,0.732216831526816,0.7800594596756848,-2.675418913252214,1.086025523857475,2.0155290360334543,-1.4311830790742273
-1.7537107613935412,-0.9624780245197472,2.191797235417935,-2.705603707081509,-0.8496456369219277,2.2503773874987383,1.269099834577786,-1.1133611487349933,0.732695994528379,0.7808728113873445,-2.675544000122722,1.0855802644186183,2.016031694144034,-1.4307966893236315
-1.7533217512936596,-0.9628657884290148,2.191419641690361,-2.7057418004905496,-0.8492425876022046,2.250632809427212,1.2686961310478488,-1.1142146792702323,0.7331830571775434,0.7816873487870695,-2.6756698934532017,1.0851292396129535,2.0165461549155834,-1.4304064950328375
-1.7529310867282575,-0.9632543279121202,2.1910415770506755,-2.7058801720402466,-0.8488381904222648,2.2508919380271775,1.2682911239398391,-1.1150657901078291,0.733665331261469,0.7825012721864365,-2.675795345211769,1.0846816942626827,2.0170586327276663,-1.4300182321363226
-1.7525415541171978,-0.963642285768327,2.1906638178533933,-2.7060183406771627,-0.8484348630062964,2.2511518273278184,1.2678871373895968,-1.1159181909862979,0.7341503931071293,0.7833153288082095,-2.6759211124958,1.0842321640189156,2.0175733174646564,-1.429628842163247
-1.7521529551437178,-0.9640298033552502,2.1902877610629115,-2.706156417979232,-0.8480318897886947,2.251412286833709,1.2674828319197264,-1.1167718030691607,0.7346372183986557,0.7841301015276542,-2.6760471700774726,1.0837812448106223,2.0180940212020237,-1.4292378631426375
-1.7517638860587548,-0.9644176590423813,2.1899097418548688,-2.706294509666986,-0.8476288045484601,2.2516632126959193,1.2670794804201677,-1.1176245581326196,0.7351229234910156,0.7849443380823221,-2.676172905890687,1.0833312233322283,2.0186071300278656,-1.4288487064468272
-1.7513754812796898,-0.9648049923829689,2.189533401271266,-2.706432500117656,-0.8472262203607472,2.2519199470066384,1.2666758315273823,-1.1184794942054626,0.7356124889997316,0.785759446323412,-2.6762992603800155,1.0828782704274673,2.019131011767061,-1.4284564600794307
-1.750997773182608,-0.9651873501498159,2.189163240467702,-2.7065688704794937,-0.8468316148232603,2.252166912891592,1.2662776757605405,-1.1193456869391276,0.7361257460545237,0.7865774159786335,-2.6764270403837833,1.0824077971128054,2.019667754836287,-1.4280525439452343
-1.7506141060326645,-0.9655723643461579,2.1887896011158747,-2.7067061526929703,-0.8464327962460797,2.252409539796359,1.2658767746241777,-1.120206560942706,0.7366279000847585,0.7873939272990025,-2.676554887612028,1.0819455218251972,2.020199465816941,-1.4276541096300193
-1.7502456877363892,-0.9659513197449344,2.188427106674256,-2.706841600693256,-0.8460431947149352,2.252646842338359,1.265481673673905,-1.121075101221562,0.7371424146318446,0.7882131724131609,-2.676682628656711,1.0814738744697303,2.020738201442004,-1.427249713344824
-1.7498696904971587,-0.9663331851575869,2.1880591020138342,-2.706977903443751,-0.8456491876782621,2.2528861667272935,1.265083765349751,-1.121940400986595,0.7376527164572626,0.7890309852421203,-2.676810675775752,1.081005461097981,2.021275488301652,-1.4268471535502736
-1.7495000096817324,-0.9667123673765396,2.1876956594912587,-2.707113416778658,-0.8452591983574739,2.253122926307734,1.2646884080897824,-1.1228092978956161,0.7381689434114752,0.7898500659193708,-2.6769388086920323,1.0805325348016468,2.0218173069234564,-1.4264416527280752
-1.7491281897613167,-0.9670923411984234,2.1873306898661125,-2.707249144302858,-0.8448680237103395,2.25335998552802,1.2642923094738,-1.12367788746357,0.7386851565472109,0.7906689305969624,-2.6770671804808406,1.080059609421823,2.022360403413548,-1.4260359955934023
-1.7487593746308143,-0.9674709430637175,2.1869678797931096,-2.7073844735323793,-0.8444788853042865,2.253595555680237,1.2638974821753917,-1.1245482499666561,0.7392047544188026,0.7914882791892709,-2.677195669660297,1.0795841240046615,2.0229068156508445,-1.4256285944622993
-1.748390328971195,-0.9678494832004852,2.1866052727274456,-2.7075197668848605,-0.8440898112347299,2.2538310032087376,1.263502615230088,-1.1254189150109724,0.7397256678371389,0.7923075558987333,-2.677324017114496,1.079107627260077,2.0234506255310865,-1.4252205403980958
-1.748023215610604,-0.9682272202669411,2.1862436960818488,-2.7076548121767665,-0.8437019492840881,2.2540683383773854,1.263108330786786,-1.1262911648491292,0.7402492489032594,0.7931273481463725,-2.677452604348693,1.0786290889969914,2.023998632833123,-1.4248108848950758
-1.7476565550268157,-0.9686046249185808,2.185882746451018,-2.7077897572199467,-0.8433145420660496,2.254305542285666,1.2627143632727407,-1.127163842017512,0.7407745365908773,0.7939470008602736,-2.677581382511616,1.0781492829397787,2.0245480238477795,-1.4244003050544818
-1.7472912659654112,-0.9689814454192984,2.18552283560299,-2.7079245293345546,-0.842927946217003,2.254543595946108,1.26232068034249,-1.128037739344271,0.74130210290219,0.7947669614732927,-2.677710346824296,1.077667742440013,2.025102712682749,-1.423988315346476
-1.7469267494171279,-0.969357842376575,2.1851632522103888,-2.708059155258391,-0.8425421452038797,2.25478067614229,1.2619276471676202,-1.1289124652206244,0.7418317230788765,0.795587058549905,-2.677839352283201,1.0771846116723829,2.0256560645027766,-1.4235753089169987
-1.7465635456964959,-0.969733562486855,2.184804836942219,-2.708193604777197,-0.842157180631579,2.2550189740754316,1.2615348412397285,-1.129788356261715,0.742363574319535,0.796407466332233,-2.6779685676453204,1.0766997900607187,2.02621664969225,-1.4231609109874457
-1.7462011858276374,-0.9701088341736089,2.1844471710386797,-2.7083279161335296,-0.8417728800526734,2.255256093882003,1.261142580619248,-1.1306649291192699,0.7428973870052836,0.7972278431456002,-2.6780980585542338,1.0762134723737253,2.0267779252634353,-1.422745343834025
-1.7458399769185227,-0.9704835528955001,2.1840901329096556,-2.708462066212438,-0.8413894778936909,2.2554901127338387,1.2607508537950463,-1.1315426233069827,0.7434333934366132,0.7980485019934482,-2.6782278015577226,1.0757254610905937,2.027343708654633,-1.422328409226627
-1.7454796466664224,-0.9708579000010323,2.183733219339296,-2.7085960600279972,-0.8410067919037416,2.2557273422711646,1.260359567262478,-1.1324211210033759,0.7439714903843487,0.7988693275581168,-2.6783571971703144,1.0752358123282004,2.0279098619218954,-1.4219108326537049
-1.7451203277597596,-0.9712317334780846,2.183377393693238,-2.708729911826095,-0.8406247950214946,2.2559626122419933,1.2599686467101374,-1.1333005050787526,0.744511662145825,0.7996902111423917,-2.678487054619819,1.0747445910975466,2.0284793904721012,-1.4214917340391129
-1.7447621953949541,-0.9716047688881638,2.183022775095643,-2.7088635796220717,-0.840243718001253,2.2561979031214974,1.2595782890906106,-1.1341808579462829,0.7450540082590289,0.8005112553855889,-2.678617195177527,1.0742516768078887,2.0290520249645576,-1.4210712480488348
-1.7444034136201834,-0.9719782179993377,2.1826675304078105,-2.7089973463757424,-0.8398621548724937,2.2564336124524753,1.2591875581740049,-1.1350606433732116,0.7455950403906281,0.8013322284649211,-2.6787471258812854,1.0737597809861965,2.0296240922637185,-1.4206514928961873
-1.7440480982189428,-0.9723499464204237,2.182314894486606,-2.709130583443344,-0.8394831418505188,2.2566675654162625,1.2587984571496498,-1.1359437896713365,0.7461437646139046,0.8021536903778897,-2.6788777330302675,1.0732619248884472,2.0302026954485903,-1.4202273713943203
-1.7436923732536072,-0.9727218202151083,2.181961875612035,-2.709263878448303,-0.8391039047636928,2.25690206267749,1.2584091190526803,-1.1368262508314497,0.7466912096854156,0.8029749627162349,-2.679008174241035,1.072765067451319,2.03078081775335,-1.4198039132757458
-1.7433384554631557,-0.9730927887735691,2.181610369810919,-2.7093968758199414,-0.8387261270785272,2.2571374110530353,1.2580199986095442,-1.1377108218781544,0.7472429581259015,0.8037967437723152,-2.679139263579828,1.0722648540621746,2.031361277232016,-1.4193781981850735
-1.7429851918372412,-0.9734633385084649,2.181259230868453,-2.7095298063289497,-0.8383487244374442,2.2573689103935397,1.257632066128499,-1.1385951455328407,0.7477953006585134,0.804618140753882,-2.6792698761837253,1.0717642030162646,2.0319438860700663,-1.4189519772388268
-1.7426331861974578,-0.9738333230832011,2.1809086036714365,-2.7096625197936164,-0.8379723930266623,2.2576019119814092,1.2572442034008233,-1.1394809881274417,0.7483506991539244,0.8054399084135266,-2.6794008359103105,1.071261152171269,2.032527010316174,-1.4185241747056898
-1.7422819163776373,-0.974202913139676,2.1805588651199974,-2.709795110305632,-0.8375965504142814,2.2578351927885967,1.256857021317758,-1.1403673136318273,0.7489076970377274,0.8062614822995329,-2.6795320682889394,1.0707568566875303,2.0331151063254573,-1.418095318395724
-1.7419317353009613,-0.9745719344206935,2.1802096909611404,-2.7099275149122293,-0.8372216795272592,2.2580681305190864,1.256469533849445,-1.141254801602484,0.7494672215029807,0.8070835302341693,-2.679663101785375,1.0702506004926815,2.033700163342332,-1.4176649620810844
-1.7415823587675159,-0.9749406484895115,2.1798611556080623,-2.710059810435683,-0.8368472397777149,2.258301552982724,1.2560833699759872,-1.1421429413380109,0.7500286202508535,0.8079052384667764,-2.6797947445909376,1.0697428418192572,2.034292509584591,-1.4172336162236223
-1.74123408583109,-0.9753087177525672,2.1795133333824954,-2.710191918258694,-0.8364737896224821,2.258534070364977,1.255697092305839,-1.143031907881284,0.750592224831717,0.808727145123104,-2.679926243409116,1.0692333786976465,2.0348835859862313,-1.4168008862688388
-1.7408869592477991,-0.9756762249886499,2.179165817187465,-2.7103238651290193,-0.8361011531091517,2.25876204025286,1.2553116788523413,-1.1439218452869782,0.7511579828468941,0.8095490601341866,-2.680057846235463,1.0687221865857863,2.0354771897334345,-1.4163670676610816
-1.7405404938275317,-0.976043383245369,2.1788196769679518,-2.7104556641594932,-0.8357291060707515,2.258999451946451,1.2549261634133546,-1.144812503170534,0.7517259301939555,0.8103710194074101,-2.6801897461045847,1.0682093034224982,2.036070522539146,-1.41593181827127
-1.7401951703734366,-0.9764099903160613,2.178473257797404,-2.71058730134788,-0.8353580399513626,2.2592265249157295,1.2545416949036055,-1.1457038614605914,0.7522958407384346,0.8111929147289454,-2.6803216617952934,1.0676948583421768,2.0366670750750058,-1.4154956165614336
-1.7398508560591595,-0.9767759272354183,2.178128650121653,-2.7107187644636856,-0.8349876440977765,2.259463246948087,1.2541570931887258,-1.1465963156641699,0.7528681508113041,0.8120150137259988,-2.680453925853668,1.0671785164044645,2.0372643359154927,-1.4150577518556475
-1.7395075927371797,-0.9771413724087025,2.177784035816546,-2.7108500713425667,-0.8346181789201638,2.259690601710092,1.2537736350492201,-1.1474892750342236,0.7534423261258956,0.8128367998524887,-2.6805866516040897,1.0666607290286227,2.037866366587567,-1.4146186813122452
-1.7391652052184254,-0.9775063803468447,2.1774402839846174,-2.7109812172127503,-0.8342493725305212,2.2599246583870967,1.253389436158189,-1.1483833236771541,0.7540189049686719,0.8136590737502783,-2.680718639714688,1.0661409969236242,2.0384662504526627,-1.4141779323060166
-1.7388238611067623,-0.9778709754672781,2.1770965388683226,-2.711112228176803,-0.8338812516459064,2.260147841100534,1.2530067798904003,-1.1492778556145822,0.7545972342768204,0.8144807060216146,-2.680851681128071,1.0656190567129558,2.0390701021504856,-1.4137311202628933
-1.7384833084300642,-0.9782349721819619,2.1767543623306818,-2.7112430512528873,-0.8335139635687943,2.2603819301389385,1.2526234831607679,-1.1501733381279187,0.7551780009337379,0.8153027197366481,-2.6809847020822932,1.0650941723110066,2.0396759259925825,-1.4132817538207305
-1.738143909944251,-0.978598489103455,2.176411561894853,-2.7113737053542835,-0.8331475380663164,2.2606083114298787,1.252241490660246,-1.151069456649282,0.755760788571625,0.8161244348544798,-2.681117675869525,1.0645633552818057,2.040281145141851,-1.412829482748214
-1.7378052064772258,-0.9789615560067904,2.1760706047136176,-2.71150424511155,-0.8327816532287103,2.260837706677831,1.2518592815590197,-1.151966486013452,0.7563457894993086,0.8169464894740979,-2.681250916306959,1.0640405908871589,2.040892303243807,-1.4123889538180865
-1.737466305215754,-0.97932475327235,2.175729020241722,-2.7116347911939647,-0.8324155401391914,2.2610713143196635,1.2514776526757598,-1.1528631500723223,0.7569292266872097,0.8177678006988089,-2.681384259284309,1.0635123179173511,2.0414919524957575,-1.411942868106994
-1.7371303895933277,-0.9796862406893232,2.1753896807845945,-2.7117648693779497,-0.8320521680906806,2.261293382998941,1.2510971979803112,-1.1537621011226327,0.7575205642511053,0.8185897100883489,-2.6815179825938023,1.0629826445946309,2.042109532160658,-1.4114947632968615
-1.7367940813973342,-0.9800480979967622,2.1750502248399943,-2.7118950233527594,-0.8316881021361612,2.2615204716217985,1.2507165141299645,-1.1546606182512325,0.7581105517448207,0.8194105759460985,-2.681651482421388,1.0624511033791617,2.042713750923882,-1.4110476642025118
-1.7364593001594022,-0.9804090564779667,2.174711848753805,-2.7120248949357646,-0.8313256133189787,2.261742701467597,1.2503366382921002,-1.1555606950870998,0.7587047733210698,0.8202323185868234,-2.6817856327352243,1.0619179139339352,2.0433358639774086,-1.4105965368706281
-1.7361253084822874,-0.9807693852690547,2.174373949255961,-2.712154654493799,-0.8309636041583511,2.261968022357162,1.2499572526124287,-1.1564609210334862,0.7592997850262754,0.8210416102550877,-2.6819231449888896,1.061383120722213,2.0439456916014733,-1.4101462717338045
-1.7357923640672932,-0.9811294777014956,2.174036937097819,-2.712284248768396,-0.8306024054627591,2.262189675155946,1.249578245352517,-1.1573620706316259,0.7598977429620944,0.8218696518563319,-2.68205507521717,1.0608464218519034,2.0445615587903228,-1.4096943791273173
-1.7354601887374745,-0.9814889554671857,2.1737006628100337,-2.712413685013169,-0.8302419055052964,2.2624164287308854,1.2491994882149513,-1.1582638379877142,0.7604974380329608,0.8226863125016193,-2.68219053791519,1.0603080335019854,2.045175533402617,-1.4092411767292812
-1.735128917891853,-0.9818478842497953,2.173364699338911,-2.7125429714152305,-0.8298823496347083,2.262633521301077,1.2488219411055757,-1.1591664684309775,0.761099369939458,0.8234995318660286,-2.682328386282007,1.0597680110391012,2.04579956212935,-1.408786047844456
-1.7347990297698344,-0.9822063059054021,2.173029772135083,-2.7126720494054197,-0.8295235436198981,2.2628596164793584,1.2484441221030869,-1.160069872195969,0.7617034690568298,0.8243244872844993,-2.682461090747935,1.0592261708697488,2.04641971131469,-1.4083298500118833
-1.734469538415529,-0.9825642336654907,2.1726951020518492,-2.7128010542335406,-0.829165350564921,2.263076811278538,1.2480676742296337,-1.1609737678757208,0.7623096630501918,0.8251316566394987,-2.6826011219718247,1.0586826864145906,2.047045166438476,-1.407872570107878
-1.7341413996075818,-0.9829215583560926,2.1723610476332684,-2.7129298485683617,-0.8288080901131515,2.2632973013760282,1.2476914583567862,-1.1618781863858942,0.7629178024466777,0.8259472771247992,-2.682736969196763,1.0581375599396325,2.0476680260258306,-1.4074145106931
-1.733813810202962,-0.9832786835622493,2.1720280190447085,-2.713058494678658,-0.8284513812683455,2.2635192121639047,1.247314782194412,-1.162783376522448,0.7635282400574556,0.8267609091870863,-2.682874677034958,1.0575905581914091,2.048293439723879,-1.4069540281239599
-1.7334873579171544,-0.9836349875990271,2.1716953398791126,-2.7131869781784337,-0.8280956724715087,2.2637383269848854,1.2469393515691076,-1.1636890023268387,0.7641408065049742,0.8275763980645751,-2.6830115441649323,1.0570418842637894,2.048920035513177,-1.4064930593259468
-1.7331617003338038,-0.9839909111661067,2.171363429733383,-2.7133153081215373,-0.8277406472748124,2.263958190501563,1.2465640703022278,-1.1645952373655168,0.7647554549289975,0.8283901095268577,-2.6831491569925627,1.0564915560533568,2.049546438960996,-1.4060304529257184
-1.7328373782511146,-0.984346251267939,2.171032123681119,-2.7134435134288344,-0.8273863595608187,2.264168910612432,1.246190248570544,-1.1655021715624159,0.7653720895937354,0.8291970674280876,-2.6832874457679607,1.0559396525826323,2.050172548706828,-1.4055679730857116
-1.732513541341998,-0.9847010584262371,2.1707019833465924,-2.7135715121376265,-0.8270328994368839,2.2643890298428824,1.245816036873805,-1.1664095341886336,0.7659909973230146,0.8300118708881856,-2.6834248011615043,1.0553858282721496,2.050802202839752,-1.4051027875571243
-1.7321907386729063,-0.985055606524679,2.1703720175618715,-2.7136993956125983,-0.8266800314295035,2.2646047801637708,1.2454427244674542,-1.1673176395885807,0.7666094958299178,0.83083198165655,-2.683560535030263,1.0548302322317396,2.051427758701067,-1.4046368429904044
-1.731868876402817,-0.9854093543047339,2.17004288257481,-2.713827083342239,-0.8263281036844586,2.2648200360132082,1.2450699072401783,-1.1682263186055128,0.767234183211623,0.8316377792658367,-2.6837000654378986,1.0542729667505244,2.0520588945164535,-1.404169835878554
-1.7315478225126937,-0.9857628882298355,2.1697144823385,-2.7139546475562466,-0.8259767718636434,2.2650346264101735,1.2446968635661344,-1.1691355298429118,0.7678585976824199,0.8324515067764529,-2.6838372718053143,1.053713910499309,2.0526875292035207,-1.4036960962945613
-1.7312275794412297,-0.9861159360023268,2.169386197280514,-2.714082041029807,-0.8256261974125826,2.2652516165427596,1.2443247173541507,-1.1700457852233892,0.768482368639633,0.8332708258731185,-2.683974351674439,1.053153052983188,2.0533186684876346,-1.403222402477396
-1.7309085984402195,-0.9864682356784773,2.1690588072059453,-2.714209239802763,-0.825276708893181,2.265466679399819,1.243952828426118,-1.170956906922858,0.7691092507556467,0.8340862683777537,-2.6841118402261586,1.0525905366797477,2.0539498072607856,-1.40274607150128
-1.730588450821949,-0.9868210550619086,2.168730722946321,-2.7143365626352685,-0.8249264218791448,2.2656829592348666,1.2435805697170026,-1.1718682786719974,0.7697336046647325,0.8349040625329279,-2.684249144688991,1.0520289746825648,2.054580586343172,-1.4022707369856924
-1.7302642034738893,-0.9871724525800201,2.1684040455173372,-2.7144634350373416,-0.824600435719248,2.265928858170677,1.243212510440725,-1.1727918886907447,0.770360996544415,0.835706899060018,-2.6843887673336484,1.0514616367574396,2.0553035841595135,-1.4017991943971277
-1.7299517252803223,-0.9875236023835516,2.1680790704638664,-2.71459026801292,-0.8242394310511062,2.266120248511575,1.2428406008791453,-1.1736995309594827,0.7709971872406778,0.8365240404078107,-2.6845274654036833,1.050894736781801,2.055887656515962,-1.4013182587909352
-1.7296336447697376,-0.9878740501604784,2.167754244541239,-2.714716866293288,-0.8239007173691847,2.266342070011156,1.2424719186750735,-1.1746186374176197,0.7716313842416566,0.8373323115019448,-2.6846670506594212,1.0503249283640497,2.056557979468912,-1.4008409911497708
-1.7293198097778817,-0.9882245850882646,2.1674300566748372,-2.714843492787733,-0.8235491963306169,2.2665455382589292,1.2421013549081241,-1.1755315236780182,0.7722661772602131,0.8381456592317513,-2.684806036663306,1.049756655548547,2.0571755064185018,-1.4003606077503459
-1.7290052051591125,-0.9885739434935791,2.16710673862869,-2.7149697286855807,-0.82320713045725,2.266758815718455,1.2417329580214838,-1.1764499217748627,0.772906406570453,0.8389544731985511,-2.6849460722370324,1.0491820527021263,2.057828123574355,-1.3998774932861169
-1.7286905903518992,-0.988922860956372,2.166783282856981,-2.715095911725522,-0.8228608386658051,2.266966543869661,1.2413645199933083,-1.1773677198895969,0.7735433243429305,0.8397720189941988,-2.6850844401536857,1.0486083717350159,2.0584591250270576,-1.3993920453299566
-1.728376870378121,-0.9892714264592772,2.1664607442862605,-2.715221899621153,-0.8225180981166912,2.267176425258595,1.240996831083842,-1.1782873446131459,0.774185077359631,0.8405837847738714,-2.6852241393740366,1.0480312736655104,2.0591049225842455,-1.3989058240241854
-1.728064501434792,-0.9896194270165755,2.166138217504218,-2.7153477769529353,-0.8221744289407263,2.2673795942959027,1.2406293259075625,-1.1792065158791365,0.7748299791322446,0.8413925410970553,-2.6853648514752866,1.0474534750296796,2.0597460321047607,-1.3984198326994461
-1.72775160484697,-0.9899669711089227,2.1658168388912045,-2.715473468761897,-0.8218325181231111,2.26758627595725,1.2402624139028149,-1.1801273643454981,0.7754739088224907,0.8422016678983938,-2.68550540810942,1.046869869854114,2.060390566239632,-1.3979292411522266
-1.727430904568106,-0.9903139615703719,2.1654959752519893,-2.715598982510004,-0.8215212617629268,2.2678273059723657,1.2398987630950513,-1.1810589910270175,0.7761114625689585,0.8430025974445806,-2.685646080021048,1.0462904302108706,2.0611258411019633,-1.3974479193420215
-1.7271247076644454,-0.9906606598053914,2.165175669206505,-2.715724436122589,-0.8211621204540062,2.2680082050486403,1.2395309709169084,-1.1819750535295674,0.7767650769612199,0.8438148169771189,-2.685787345164253,1.0456992204117315,2.061716678520025,-1.3969485532932573
-1.726811428085726,-0.9910069447099209,2.1648558060894696,-2.7158497841047313,-0.820832557279889,2.268223796266758,1.2391661398893579,-1.1829010102767938,0.777410315697646,0.8446199249453312,-2.6859281616508395,1.045115980561752,2.0623942221845804,-1.3964612030355177
-1.7265056690574636,-0.9913522435038065,2.1645371968964917,-2.7159748083966613,-0.8204870255414393,2.2684180123203697,1.2388005520726426,-1.1838221054744933,0.7780656393012731,0.8454267593311802,-2.6860698802100016,1.044520396397192,2.063021460278624,-1.3959610178097484
-1.7261962273888025,-0.9916974060467779,2.164218847211445,-2.7160997892262335,-0.8201521989328614,2.2686235573508537,1.2384361486988351,-1.184747229122001,0.7787176175545913,0.8462317433637851,-2.68621139106814,1.043928426265042,2.063680822583117,-1.3954656987700973
-1.7258896111427584,-0.9920419594425077,2.1639009204839237,-2.7162245660517335,-0.8198120993874297,2.268819367278568,1.2380719659102877,-1.1856720020579998,0.7793728250991784,0.8470374594816829,-2.68635339193389,1.0433228498739107,2.064323089986557,-1.394959899211949
-1.7255826341675644,-0.9923859456807803,2.163584214692756,-2.716349193392417,-0.8194764651339589,2.269021161088174,1.2377083839164194,-1.1865974531508536,0.7800302088842394,0.8478413716653731,-2.686495404908885,1.0427285670010813,2.064976803680645,-1.3944620460169952
-1.725276663752417,-0.9927296371050662,2.163267748971479,-2.716473685912791,-0.8191391645417708,2.2692181764546024,1.2373451097544907,-1.1875238538080601,0.7806890974142541,0.8486455806397022,-2.6866377646636717,1.0421233123711402,2.0656258109669463,-1.393956415512987
-1.7249709692561241,-0.9930727049646417,2.162952207544971,-2.7165980097994464,-0.8188040652756006,2.2694165958830452,1.236982462716576,-1.188450748891928,0.7813496112610071,0.8494484853863307,-2.6867802381725925,1.041519926740145,2.0662785929556207,-1.393452278473821
-1.7246630435595114,-0.9934161524177055,2.1626358577527514,-2.7167224322964576,-0.8184676783712609,2.269612081167467,1.2366195297462834,-1.1893787308555017,0.78200877929078,0.8502530727821447,-2.686922697456162,1.0409147081326644,2.066929185247763,-1.3929464519962975
-1.7243576340587152,-0.9937585506980857,2.1623209262467937,-2.7168465451165167,-0.8181333043498997,2.2698082954010403,1.2362576104104825,-1.190307085880478,0.7826716423803469,0.8510557074684202,-2.6870654865344936,1.0403074644858084,2.0675836143295685,-1.3924393405721414
-1.7240527778865251,-0.9941001732678295,2.16200704624332,-2.7169703810078203,-0.817799911798333,2.270001864708377,1.2358964829245118,-1.1912368522561803,0.78333833041406,0.8518578374720104,-2.687208768922602,1.0396945238395086,2.068239844515914,-1.3919277851439675
-1.7237499937500078,-0.9944416026675336,2.1616938329741804,-2.7170941568057247,-0.8174669155928899,2.2701970083504293,1.2355355762080582,-1.1921666774282844,0.7840049663788281,0.8526584443429215,-2.68735206544142,1.0390797211075937,2.068895434445752,-1.3914155680327536
-1.7234466456400477,-0.9947822521484208,2.161380768296031,-2.7172177086024902,-0.8171350787462021,2.2703876474913827,1.2351755619899039,-1.1930979907558645,0.7846725019284111,0.8534594173493129,-2.6874957001194093,1.0384551713642556,2.069553985614485,-1.3908962546910024
-1.7231445724428287,-0.9951226058913348,2.161068589980946,-2.7173411511663565,-0.8168037114675792,2.270579597508199,1.2348157832341173,-1.1940296840845832,0.7853422519568409,0.8542592599937906,-2.6876394874503444,1.0378320289488323,2.070212584096079,-1.390378032979921
-1.722842953149198,-0.9954623775488747,2.1607573198229537,-2.7174644140274813,-0.8164731616135725,2.2707713581135,1.2344563922879987,-1.1949614885495954,0.7860148176372409,0.8550581088874564,-2.687783485612323,1.0372111999054157,2.070871409657792,-1.3898609901205419
-1.7225404614050444,-0.9958015859924702,2.160446223694182,-2.717587527522134,-0.816143426503774,2.2709600771849914,1.2340986061715842,-1.1958959827400064,0.7866866297234176,0.8558565716494017,-2.68792739354391,1.0365808849009,2.0715279307777426,-1.3893398635819194
-1.7222399517266773,-0.9961403910593565,2.1601361459644854,-2.7177105000339172,-0.8158143192452004,2.2711491726371404,1.2337402967575302,-1.1968301060948212,0.7873621871690745,0.8566539697977007,-2.688071698526472,1.0359520075601907,2.0721887183640213,-1.3888177460076527
-1.7219343233265059,-0.9964789044586336,2.159824948177424,-2.717833329695648,-0.8154858041195483,2.2713217645759767,1.2333846563735176,-1.1977555367706294,0.7880539448418029,0.8574611770051862,-2.688213190537646,1.035349152362844,2.072822977566557,-1.3883178759749095
-1.7216351412297286,-0.9968167108768798,2.1595172870203543,-2.717954616944204,-0.8151606060989387,2.271503405082658,1.2330226713664831,-1.1986756037668953,0.7887354232534064,0.8582444699547278,-2.6883597520444655,1.0347279815061567,2.0734751989579294,-1.3878027548971104
-1.7213325119789207,-0.9971543248461201,2.1592073765896815,-2.7180779800593196,-0.8148319855893084,2.271678591945277,1.2326697955095596,-1.1996097388597027,0.7894262862262149,0.8590578092215567,-2.6885011698342303,1.034114911261055,2.0741185028168445,-1.3872946771322134
-1.7210326686419364,-0.9974909964407312,2.158900815014694,-2.7181990962938425,-0.8145073965081902,2.2718566101129856,1.2323080420338328,-1.2005254110843793,0.7901131647947032,0.8598339171525122,-2.688648437113673,1.033494361436713,2.0747690302488793,-1.3867804026506132
-1.7207310592140117,-0.9978281614984535,2.1585922820788173,-2.7183214368146316,-0.8141803447189055,2.2720328483612806,1.231951263967007,-1.2014526186243837,0.790801632015781,0.860631710120039,-2.6887921786136113,1.032878269191981,2.075415255675351,-1.386267230761955
-1.720434498900844,-0.9981643847501578,2.1582837900351195,-2.718443569950453,-0.8138627459452155,2.2722088734992436,1.2315986725765289,-1.202387286412999,0.7914975896310785,0.8614245867921546,-2.688938876284379,1.0322541190287304,2.07606891194472,-1.3857519035311046
-1.7201353525722076,-0.9985000197847955,2.157976471567213,-2.7185654827782244,-0.8135390711820709,2.272383402490382,1.2312445499995357,-1.203311504354911,0.7921981289537626,0.8622168673392361,-2.6890840681293318,1.0316318591002196,2.0767401458415504,-1.3852353741727266
-1.7198396499154152,-0.998835508986885,2.157668346558037,-2.718687260324663,-0.8132245669192119,2.2725578294915985,1.2308858774824063,-1.2042333210499114,0.7929015617769006,0.8630198575144143,-2.6892259936636527,1.0310054637882864,2.0773813725085963,-1.3847177771715784
-1.7195439268697332,-0.9991704260623666,2.1573628229862227,-2.7188045377624834,-0.8129241357063249,2.2727314600826767,1.2305260674767724,-1.2051568217566755,0.7936064895041414,0.86381569934086,-2.689369495397492,1.0303787065295906,2.0780424744535133,-1.3841982261672696
-1.7192493881769884,-0.9995048154840775,2.1570568763033156,-2.7189216324145327,-0.8126169755309282,2.272904503152958,1.2301622510130903,-1.2060794360795588,0.7943136150036259,0.8646146457374435,-2.689512374470367,1.029749411083077,2.0786934293385535,-1.383677711112347
-1.7189412244723226,-0.9998389257237673,2.156750694089258,-2.7190405575091225,-0.8123327842324388,2.2730770307171184,1.2298187705508334,-1.2070030686945414,0.7950229221567905,0.8654092372094818,-2.6896597250555714,1.0291189521803894,2.079352473246118,-1.38315585513861
-1.7186461790071392,-1.0001729241684738,2.1564428795165957,-2.7191632024036902,-0.812004565473868,2.27324881820101,1.2294547297598615,-1.2079261075715086,0.7957340522217244,0.8662057163072975,-2.68980395368881,1.0284862794076541,2.080008489126147,-1.3826328154070224
-1.7183443180413007,-1.0005070008702437,2.1561371625470054,-2.719283685905209,-0.811689047230361,2.2734211615118824,1.2290972950999979,-1.2088495564519919,0.7964440923493632,0.867000947921968,-2.689949739047867,1.0278548890407615,2.0806663626891777,-1.3821107522859164
-1.7180488658718251,-1.000839462741417,2.1558322921215733,-2.719404980302978,-0.8113670455412774,2.2735911927581594,1.2287372414284687,-1.2097730423912576,0.7971610495740894,0.8677944391301504,-2.690095196031261,1.027217129305647,2.0813267099621364,-1.3815838999669023
-1.7177498332563512,-1.0011719150979148,2.1555276388999713,-2.7195255019281896,-0.811053303777035,2.2737614442171066,1.228379478011883,-1.21069663214331,0.797877008214379,0.868587849087567,-2.6902409380983148,1.026580370824139,2.081987352607608,-1.3810574726794567
-1.71745348110182,-1.0015038971676473,2.155223799836323,-2.7196462920343305,-0.8107338604740973,2.27393082718635,1.2280199426431682,-1.2116203293146128,0.7985967197722422,0.8693801014803283,-2.69038680358998,1.0259401782061979,2.082649630744103,-1.3805286563294201
-1.717155326277005,-1.0018356779138389,2.154919935940841,-2.719766778934949,-0.8104218569519455,2.2741000551409503,1.2276629875409184,-1.2125442309488974,0.7993144172308964,0.8701732368361751,-2.6905324380259668,1.0253018127078655,2.0833111467635437,-1.3800010503389268
-1.716858888057314,-1.0021666635071353,2.154617103519399,-2.719887091014788,-0.8101081742158355,2.2742681825993687,1.227305591437884,-1.2134217968771495,0.8000034226947615,0.8709235847817284,-2.6906715143526325,1.0246888870112696,2.0839433528784923,-1.3794948718602864
-1.7165625195726173,-1.002497211925202,2.154314798076215,-2.7200072520293856,-0.8097946582733079,2.274435889445484,1.2269486297676238,-1.2143458462824077,0.8007270349149807,0.8717143290545772,-2.69081765505046,1.0240451697860042,2.084608142436804,-1.3789631877993849
-1.71626596204993,-1.0028274495740968,2.1540127661646955,-2.7201272679292727,-0.8094856796947094,2.2746030154364267,1.2265927900281843,-1.215269754639236,0.8014544558096491,0.872503330954288,-2.6909641875242674,1.023398023791083,2.085274908167941,-1.3784288520755261
-1.7159687499658776,-1.003157899959138,2.1537105780730377,-2.7202473773132607,-0.8091744146891541,2.2747705253647825,1.2262360640276986,-1.2161938774363705,0.8021796857168925,0.8732935279779355,-2.6911103494947626,1.0227528423453953,2.0859405952367287,-1.3778960007546976
-1.715673448822979,-1.0034867337991085,2.153410135436794,-2.7203669244324424,-0.8088687893447034,2.2749358796068706,1.225881768601347,-1.217117890661608,0.8029123032213723,0.8740803044798955,-2.691257298865448,1.0221009537394055,2.0866102727064675,-1.3773579367078292
-1.7153773534084626,-1.003815809435135,2.1531094676850984,-2.7204865646549266,-0.8085621905651847,2.275101587698498,1.225526829403408,-1.218042068362964,0.8036435934767527,0.8748678642330716,-2.6914040032906787,1.0214502469051052,2.0872792985028337,-1.3768207630556664
-1.7150855895342791,-1.004143999144798,2.1528103657586763,-2.7206058875110037,-0.8082618477085369,2.275266198788969,1.2251748340010549,-1.2189663076163582,0.8043786541713055,0.8756535855172588,-2.691551762492438,1.0207961702422772,2.0879503226302236,-1.3762807168146338
-1.714794228387987,-1.0044721985019198,2.152509789261764,-2.720725210808204,-0.8079618181237128,2.2754305753301853,1.2248234052013103,-1.2198903260861316,0.8051143707192011,0.8764391581728697,-2.691697716998939,1.0201413529084242,2.0886216855184694,-1.3757406199464217
-1.7144969880998078,-1.0047995646225734,2.1522117571638986,-2.720844252124372,-0.8076581362860827,2.2755941599566976,1.224469228264924,-1.2208144356614592,0.805852857430693,0.8772234021091904,-2.6918455766512515,1.0194840674760988,2.089294641545801,-1.3751980694610664
-1.7142095314084047,-1.005126735122619,2.1519139028193237,-2.720963285097567,-0.8073465261417517,2.2757573699369207,1.2241137924894865,-1.2217384970464005,0.8065927037824121,0.8780063277483161,-2.6919937401923937,1.0188256262336632,2.0899681416578226,-1.3746548505016307
-1.7139180810070735,-1.0054534787850509,2.1516155558506314,-2.7210820935846414,-0.8070507152791568,2.2759199105978407,1.2237649068020995,-1.2226626036309187,0.807334752017029,0.8787891222092362,-2.6921408147662356,1.0181649887234814,2.0906430121396675,-1.3741101829341704
-1.7136296102125912,-1.0057795841344033,2.151318422282705,-2.7212007663582423,-0.8067490841718268,2.2760818028813983,1.2234143467035064,-1.223586516074793,0.8080783920463962,0.8795705428856924,-2.6922887194239773,1.017502949499241,2.0913185858430645,-1.3735641762199076
-1.7133398008857343,-1.0061053833590836,2.15102158163889,-2.7213192933444463,-0.8064507691796361,2.2762432078713557,1.2230642258144624,-1.2245105490696295,0.8088241277738427,0.880351414810136,-2.6924362768712955,1.0168388954311416,2.0919954085252437,-1.3730167244309979
-1.7130526233875243,-1.0064306330235,2.1507260787703486,-2.7214376083025504,-0.8061556189821897,2.2764040996707497,1.2227130422962238,-1.2254343349151802,0.8095715776149052,0.8811190169203987,-2.6925894117332168,1.0161731186192116,2.0926730643813807,-1.372467635829843
-1.712761145811396,-1.0067553857826403,2.1504323832396532,-2.7215558775969164,-0.805844913939905,2.276564435016933,1.2223624751340525,-1.2263582156555446,0.8103207978492356,0.8819048567432325,-2.692736233289182,1.01550596047319,2.0933657219146684,-1.3719163044371943
-1.712477244921286,-1.0070799062386289,2.150137387988134,-2.721673999970766,-0.8055420457806906,2.276724261703571,1.2220131133521848,-1.2272818670515664,0.8110719203632097,0.8826780092032296,-2.692886803662509,1.0148367526811835,2.09405882638543,-1.3713657158907209
-1.712189501751218,-1.00740369057557,2.149843851078383,-2.721791950082202,-0.8052378986871284,2.2768833301902545,1.2216620358911126,-1.2282052754640702,0.8118246156721768,0.8834572728759782,-2.6930354414518365,1.01416622205758,2.09476635279937,-1.3708116357695044
-1.7118978841486536,-1.0077271341813014,2.149551593188879,-2.721909740363507,-0.8049324820921874,2.2770420284072297,1.221312101068861,-1.2291282667387124,0.8125791463435534,0.8842309403810582,-2.693186736333781,1.0134938394357942,2.0954589157168737,-1.3702575084633792
-1.7116114272374932,-1.008050120100723,2.1492594712431212,-2.7220274147718673,-0.8046288567025872,2.277200088211576,1.2209651573583096,-1.23005127414785,0.8133354363818378,0.8850063177196099,-2.69333616489264,1.0128198033218256,2.0961702451113897,-1.3697019228048126
-1.7113286657208255,-1.0083725559303867,2.1489678825126823,-2.7221448834742636,-0.8043253694782218,2.277357540483569,1.2206120088653079,-1.2309741525414353,0.8140935365222856,0.8857691572862618,-2.693490788978652,1.0121440552836365,2.0968859978536756,-1.3691449805618414
-1.7110366422938583,-1.0086946932617502,2.1486770362938503,-2.7222622405267916,-0.8040228567828195,2.2775145095180562,1.220264261278119,-1.2318964647319133,0.8148532238325086,0.8865475596242562,-2.6936396496023156,1.0114667243917588,2.0975949181653015,-1.36858629899316
-1.7107579305269174,-1.009016319199774,2.14838530658352,-2.7223794111243333,-0.8037266285148287,2.277670810623107,1.219919369799891,-1.232822377620284,0.8156148859119499,0.8873150182176704,-2.6937919066819274,1.0107874440359816,2.0983204926250663,-1.3680276519082013
-1.7104688389541838,-1.0093372427905656,2.1480970137924325,-2.7224964264698492,-0.8034221616370256,2.27782654805032,1.2195712399422578,-1.233742323106157,0.8163779267064734,0.8880872204956571,-2.6939425201473712,1.0101069090840287,2.0990327240059257,-1.3674666069168104
-1.7101919721461056,-1.009658054004757,2.147806115337215,-2.7226132985680502,-0.803125083055539,2.2779817563391407,1.2192202214031267,-1.2346653583201808,0.817142941407369,0.8888423585758999,-2.694097748866568,1.0094244540231951,2.0997500012417825,-1.3669056961530877
-1.7099073210907567,-1.009978159134363,2.1475174066132174,-2.7227300190755135,-0.8028268142244311,2.2781362871286497,1.2188793337564832,-1.2355932157954448,0.8179093043307919,0.8896186175048612,-2.6942479713404777,1.0087403582757386,2.100473761790946,-1.3663421797818236
-1.7096254648356612,-1.0102980008581641,2.1472291707017246,-2.7228465990557367,-0.8025273290438142,2.2782904133495046,1.218527378115751,-1.2365108930908644,0.8186779581787247,0.8903803468593111,-2.694400764388012,1.0080544825679922,2.101194170578002,-1.3657773420429442
-1.7093412041146825,-1.0106171860992532,2.146942158277996,-2.722963056304905,-0.8022291996171025,2.2784439193091726,1.2181882782552966,-1.2374374223305855,0.8194476838562941,0.8911486422650405,-2.6945526968520896,1.0073671325875413,2.101929819403011,-1.365211899991459
-1.709064552628277,-1.010935959045201,2.1466542100538515,-2.7230792520023734,-0.8019373324397103,2.2785967819358177,1.2178378151253755,-1.2383559817646328,0.8202195296974288,0.8918942841194539,-2.6947086113377208,1.0066780679833174,2.1026549489027384,-1.3646456676935592
-1.7087683798110664,-1.0112503860873872,2.1463685073699077,-2.723193304162602,-0.8016811817436501,2.2787492276901182,1.217513417075658,-1.2392776407444661,0.8209928128267722,0.8926563522516763,-2.6948620693273595,1.0059874442660324,2.1033894895781513,-1.3640771854717515
-1.7084963039188816,-1.0115706808143385,2.1460816522678368,-2.7233105163902,-0.8013605246577934,2.278900987637376,1.2171541416397735,-1.2401987545204314,0.8217642277418387,0.893418269972037,-2.695014946790731,1.0052950939715712,2.104125806053717,-1.363506914318988
-1.7082100416788328,-1.011886705770217,2.145796633964094,-2.72342558792676,-0.8010797025281723,2.279052245292369,1.2168157250188745,-1.2411171971113957,0.8225427232678593,0.8941787530494444,-2.695167355836341,1.0046012853588557,2.104869359227781,-1.3629349882928605
-1.7079404349820926,-1.0122045972697125,2.1455108681986,-2.723541641547116,-0.8007853582472085,2.2792029437906556,1.2164704383480374,-1.2420488159241054,0.8233192963561109,0.8949294208867726,-2.6953255172705894,1.003905604590355,2.1056254000887034,-1.3623626838511615
-1.707658084279584,-1.0125203179854678,2.1452283725708474,-2.723655375934032,-0.8005006148511911,2.2793530296437208,1.2161277815011367,-1.2429641013027013,0.82409975133549,0.8956812078193271,-2.695479856604479,1.00320855095992,2.106371211794003,-1.3617884636938982
-1.7073850086964053,-1.0128366994276605,2.1449448244790568,-2.7237694162093096,-0.8002128220568713,2.2795026192016015,1.215783023178183,-1.2438884714281526,0.8248803206887784,0.8964305130477548,-2.695636312968328,1.0025099447554158,2.1071245140053554,-1.3612131963465526
-1.7071125906777895,-1.0131519548589805,2.144661960618702,-2.7238821630952117,-0.7999329313403991,2.2796514983254355,1.2154410741090937,-1.2448153812857077,0.8256632952562672,0.8971760487175642,-2.695792342194023,1.0018097106296515,2.1078745249734387,-1.3606368942877443
-1.7068394907830888,-1.0134642010039894,2.144377293386528,-2.72399862500553,-0.7996471768653464,2.279799973174323,1.2150982454644412,-1.2457443111828481,0.8264471293779454,0.8979247609158373,-2.6959502677408556,1.0011079416403792,2.1086414738105996,-1.3600596095236837
-1.7065655984336912,-1.0137809208479909,2.144092936746187,-2.7241126127380606,-0.7993727116976784,2.2799476829001697,1.2147620468914935,-1.246673436581156,0.8272331541082145,0.8986804831575815,-2.696103677113124,1.0004044343750085,2.10938549845829,-1.359480082599733
-1.7062781981012045,-1.0140891471910072,2.1438118368445713,-2.7242252668818887,-0.7991342702102057,2.2800950217121296,1.2144366384625456,-1.2475979425834307,0.8280201812773886,0.8994305357764005,-2.696260427236377,0.9996993499902436,2.1101304087315906,-1.358901564169387
-1.7060149074768016,-1.014406881662088,2.1435270243972036,-2.7243410457653443,-0.798836904411504,2.28024173459069,1.214091236535588,-1.2485302807384224,0.8288076538724135,0.9001813026797257,-2.696415069005161,0.9989927337586675,2.110894245121235,-1.3583182057205763
-1.7057243534839042,-1.0147178459129425,2.14324869420473,-2.7244455252427,-0.7986165127065684,2.2803879544749157,1.2137722055129703,-1.2494423475769072,0.8295987103551157,0.9009187689303023,-2.696572780516675,0.9982845843332993,2.111643550194282,-1.3577384604429508
-1.705467014203675,-1.0150321286269197,2.142966428005298,-2.7245626540602768,-0.7983140814190498,2.280533685540605,1.213422874316089,-1.2503827748962848,0.8303859902573415,0.9016729307289357,-2.696727278163547,0.9975748894035013,2.1124120304408853,-1.3571511977273771
-1.7051916904811109,-1.015343703558398,2.14268745493461,-2.7246712634304506,-0.7980631604659827,2.280678829035477,1.2130915732802725,-1.2513055570608143,0.831177300840122,0.9024095617435431,-2.6968857209311374,0.9968633792167368,2.1131732814105084,-1.3565663685759553
-1.7049285550712978,-1.0156562486147915,2.142407266330904,-2.7247842439607157,-0.7977837188914465,2.280823453569344,1.2127490771967362,-1.2522389998455725,0.8319675197454125,0.9031537426571039,-2.697042160470462,0.9961506306256042,2.1139415489907147,-1.3559785333315972
-1.7046583151959918,-1.0159676954808088,2.14212882986556,-2.724892878483713,-0.7975150670358563,2.280967565514771,1.2124044479754925,-1.253162702320103,0.8327606905791116,0.9038891406513637,-2.6972000161016223,0.9954363527887731,2.114712564156122,-1.3553902172306704
-1.7043940068524814,-1.0162788067319286,2.1418501757699038,-2.7250033565107343,-0.7972422808374918,2.281110894429833,1.2120607733328486,-1.2540923445104293,0.8335530294872817,0.9046268803479676,-2.6973573314620367,0.9947205953429198,2.1154841959895214,-1.3548001167639776
-1.7041275263155728,-1.0165894560723914,2.1415724091949713,-2.725112045598363,-0.7969738655089682,2.2812538764971055,1.2117160307575043,-1.2550188136755238,0.8343470027461306,0.9053605683931,-2.6975153048046345,0.9940031825832953,2.11625808384199,-1.354208918789522
-1.703868458471888,-1.0168997504990192,2.1412948308110633,-2.7252194478536733,-0.7967078032178779,2.281396296106644,1.2113680365506216,-1.2559471930657298,0.8351459028456377,0.9060835959620895,-2.6976731543895864,0.9932842151830462,2.1170327026631184,-1.3536165858914317
-1.7036055314411376,-1.0172102515089723,2.141017145953663,-2.7253270944381307,-0.7964413726653409,2.2815390342602404,1.2110208883833673,-1.2568755767548774,0.8359405010050066,0.9068119752372249,-2.697831080166352,0.9925663065684383,2.1178080017629437,-1.3530248750877687
-1.7033468215154781,-1.0175195921747233,2.14074051957537,-2.725433880132602,-0.7961774138847972,2.2816804108270983,1.2106736783825334,-1.2578044535126942,0.8367407670076206,0.9075372181840017,-2.697989602531216,0.9918431005194757,2.1185885811556893,-1.3524288671946771
-1.7030823934348258,-1.0178285740869897,2.1404646450734472,-2.7255422669366958,-0.7959109298865679,2.2818212501233903,1.2103305754778166,-1.2587325143039334,0.8375340990273888,0.9082677849722699,-2.698148145824871,0.9911203616715241,2.1193669258124843,-1.35183309140516
-1.702822875163183,-1.0181369717823745,2.1401891007089775,-2.7256490166503404,-0.7956479965426916,2.2819614833171245,1.2099848703249159,-1.2596613274390749,0.8383325114811618,0.908992403661544,-2.698306997196982,0.9903950087523498,2.120148433692122,-1.351235175917395
-1.7025618662381097,-1.0184451076129204,2.1399140998227626,-2.7257560633288596,-0.7953845589597219,2.282101330002838,1.2096402059555862,-1.2605897423350843,0.8391286971228281,0.9097178029665761,-2.6984659534395554,0.9896689263767985,2.1209300851719983,-1.3506365719447784
-1.7023091901437575,-1.0187526521824093,2.1396391004612463,-2.7258613505927127,-0.7951287352788026,2.282242354256065,1.2092937681000755,-1.261522840900322,0.8399315458691917,0.910436999479377,-2.698625118565751,0.9889408933862186,2.1217156759369793,-1.35003664537669
-1.702039458573146,-1.0190581584769773,2.139364875170765,-2.7259644706220425,-0.7949274335181956,2.2823904964590667,1.208986555094543,-1.2624459127131513,0.840742210721796,0.9111547904625847,-2.69878423392445,0.9882129044781931,2.122559901478717,-1.3494402422373664
-1.7017910884308827,-1.019366041319882,2.1390899259451386,-2.7260753941841744,-0.7946421098437813,2.282550864764088,1.2086265210500988,-1.263379723186201,0.841536937304119,0.911873720992871,-2.698943924729668,0.9874814267119201,2.123353086497659,-1.3488352827860526
-1.7015308282880384,-1.019671702137268,2.138816790569832,-2.726180277215863,-0.7944032262968381,2.282709612253999,1.208291375343663,-1.2643011029915632,0.8423405495685444,0.9125875259064028,-2.6991035465416915,0.9867497399552606,2.124181536485878,-1.348233806202381
-1.7012807424380734,-1.0199781605389642,2.1385425948195667,-2.7262893822485363,-0.7941478700278257,2.28286476156072,1.2079511602315811,-1.2652376259721991,0.8431398600631248,0.9133034842674047,-2.699263513314486,0.9860159989347497,2.124982122793439,-1.3476287237076412
-1.701025333966844,-1.0202833726142109,2.1382697831661797,-2.7263952485168548,-0.7939035764052548,2.283022804780325,1.20761263615791,-1.2661650182096496,0.84394315431439,0.9140156969430844,-2.699423598328565,0.9852810152605993,2.125800730103362,-1.347023534018659
-1.7007746267704138,-1.0205886562715978,2.137996842013398,-2.7265025680622847,-0.7936552871936307,2.2831794069862674,1.2072736953093173,-1.267098097853663,0.8447444743655702,0.9147273605619678,-2.6995839130491914,0.9845446560298297,2.12660797180541,-1.3464165457528765
-1.700521994017565,-1.0208934678336268,2.1377242330923885,-2.7266086087237777,-0.7934112402480378,2.2833375512581124,1.206935104226852,-1.2680280230323258,0.8455474735663377,0.9154367801076605,-2.6997444078869726,0.9838069900542853,2.127421530230476,-1.3458087298686878
-1.7002591711520816,-1.021192215690606,2.1374533116071484,-2.7267104868679475,-0.793229483028528,2.283468917112148,1.2066296339036782,-1.2689578362329432,0.8463553522316956,0.9161472336207651,-2.699904942648147,0.9830779756377721,2.1282449936131056,-1.3452040876787028
-1.70001801585948,-1.0214993997757893,2.1371812876057525,-2.7268186532590746,-0.7929518107695603,2.2836417456317437,1.2062729462143726,-1.2698906337487614,0.8471553594691862,0.916852178214859,-2.7000658926440075,0.9823312956792772,2.12904788882032,-1.344590906207919
-1.6997631706334515,-1.021800787484824,2.136911481332851,-2.7269215090290073,-0.7927221370059644,2.2837983877911086,1.2059354479160707,-1.2708137753244384,0.8479622207382046,0.9175564670751057,-2.700226882155708,0.9815930377673993,2.1298710162517036,-1.3439802642186796
-1.6995180839539952,-1.022105054968663,2.136641009631448,-2.7270269196052745,-0.7924664368448116,2.283964173739903,1.205586820254756,-1.2717430757763089,0.8487656590762954,0.9182585015454436,-2.7003881401910106,0.9808475420146979,2.1306817391747948,-1.343366162752252
-1.6992688120462396,-1.0224068549644902,2.136371517243649,-2.7271305565703123,-0.7922326304685015,2.2841213039107098,1.205249112316089,-1.2726687545393953,0.8495691508976356,0.9189583897231739,-2.700549518505587,0.9801042324732121,2.1314964197156336,-1.3427523942144215
-1.6990231465236034,-1.0227096985898763,2.1361022264401592,-2.7272344441516707,-0.7919837364306841,2.2842866161048714,1.2049012791208926,-1.2735972803496955,0.8503761022552352,0.9196578900985991,-2.7007111428053996,0.9793572600573248,2.1323109873799626,-1.3421362344226322
-1.698776775169313,-1.0230112769245503,2.135833494299598,-2.727337609561066,-0.7917462718568787,2.284446497134655,1.204559869093333,-1.2745241562847318,0.8511814595688098,0.9203548515056389,-2.700872862628574,0.9786104893223625,2.1331249083815393,-1.3415197110340906
-1.698527605484198,-1.0233128533735474,2.1355651216808633,-2.7274416100270713,-0.7914975651150863,2.284612078008003,1.2042143259980054,-1.2754524634868207,0.8519809080815067,0.9210564668210385,-2.7010374843053753,0.9778701304246714,2.133933847228661,-1.3409021416494478
-1.6982802760862195,-1.023613869563411,2.1352972607973673,-2.7275449318209213,-0.7912556934861723,2.28477393955599,1.2038714686750858,-1.2763817851625445,0.8527831003154933,0.9217552566433391,-2.701203014511412,0.9771277416009635,2.1347485553993626,-1.3402839206588497
-1.69803281855768,-1.0239146659782954,2.1350297393609385,-2.7276482123035,-0.7910115437300713,2.284937845617263,1.203527568164365,-1.277311378435175,0.8535839006257826,0.9224543097692001,-2.701369365395483,0.9763875688375699,2.1355622401942838,-1.3396637150924873
-1.6977865827630263,-1.0242147470694354,2.134762725968989,-2.7277511844031173,-0.7907709419830043,2.2851002294767127,1.2031852338556805,-1.278241573414167,0.854385707315057,0.9231519480696174,-2.701536732621569,0.9756472509335432,2.1363799809031887,-1.3390442490162602
-1.6975459469676777,-1.0245146554281657,2.1344960686886925,-2.7278527441903457,-0.7905384545908749,2.285261375794353,1.2028429291084743,-1.2791682764384138,0.8551958861414911,0.9238389159281499,-2.7016986422558493,0.9748976465334235,2.1371978977121926,-1.3384223033850764
-1.6973034250102008,-1.0248141194751614,2.1342298017339476,-2.7279546046672696,-0.7903032339488303,2.28542241313011,1.2025009251074081,-1.2800982599809574,0.8560015877201776,0.924530836485697,-2.701864974291578,0.9741547297621492,2.138019456097691,-1.3378004518994426
-1.6970631873861521,-1.0251133707979199,2.13396390162113,-2.728055888489455,-0.7900714356095683,2.2855832305724846,1.2021593956976764,-1.2810273486241448,0.8568105331510733,0.9252184932784705,-2.7020297393073434,0.9734086844885649,2.1388426386290775,-1.3371780528418091
-1.6968242129470918,-1.025412095768099,2.1336991281261817,-2.7281542531865335,-0.7898377481340935,2.2857416570836016,1.2018081177491462,-1.281900344744936,0.8575731416798097,0.9258701345590997,-2.7021852008858165,0.97271456761285,2.1396252380414693,-1.3365885669371436
-1.6965857705261926,-1.0257105152287707,2.133434365945095,-2.728253930080203,-0.7896072755003605,2.2859013979333405,1.2014635241026468,-1.2828262618684205,0.8583800478814746,0.9265553261868087,-2.702350704560147,0.9719740768535476,2.140452491115105,-1.3359648077219317
-1.6963477361263952,-1.0260085459501704,2.1331702376146042,-2.7283523281978144,-0.7893758273730973,2.286060312650222,1.2011143256638381,-1.2837486797536006,0.8591852340945534,0.9272395137772332,-2.702516048239054,0.9712396203050504,2.141281099665131,-1.3353411101987525
-1.6961023810892553,-1.0263062223332733,2.132905574530383,-2.7284562152337646,-0.7891391935492901,2.2862242602244653,1.2007802836070338,-1.2846867127680557,0.8599868046840651,0.9279356223224432,-2.7026897478719483,0.9704964228645503,2.1421060264086362,-1.3347146872559406
-1.6958621610847935,-1.0266035258592936,2.1326418803248464,-2.728556289268486,-0.7889067135870621,2.2863813193856872,1.200436134466348,-1.28561509163888,0.8607909556625984,0.9286219386229899,-2.702858848456853,0.9697594492953169,2.1429363751976838,-1.3340894395272425
-1.6956201278029757,-1.0269004734785363,2.1323782617034808,-2.728658702216421,-0.7886743159332934,2.286546535673694,1.2001025248505635,-1.2865498288886752,0.8615937918624489,0.9293115422236917,-2.703031650862324,0.9690161205742804,2.143764126951664,-1.3334618502134428
-1.6953800300291595,-1.027196986189823,2.13211525960543,-2.728759152742723,-0.7884436131764186,2.2867050382040026,1.1997629047771392,-1.2874807942470314,0.8623970211813267,0.9299964242871699,-2.703202694724766,0.9682746832260799,2.1445936581185574,-1.332834176253824
-1.6951267874010185,-1.027493165399776,2.1318526304866827,-2.728853889533317,-0.7882850970420902,2.2868476099669883,1.1994556691413067,-1.2884101336393619,0.8632031715353594,0.9306814094583562,-2.703377447692818,0.9675840635689955,2.145465026005806,-1.3322595861624298
-1.6948953577902626,-1.0277890079656984,2.1315902441522567,-2.7289582863341226,-0.7880130793012883,2.2870176362859103,1.1991020619522925,-1.2893444221042365,0.8640050046093266,0.9313636773506312,-2.703549100258881,0.9668103332583035,2.146271930581353,-1.3316003018396132
-1.6946509488502184,-1.0280848364547563,2.131327761907838,-2.7290564380589024,-0.787809153221493,2.2871666395845334,1.1987746491674363,-1.2902769217714656,0.8648081493058739,0.932047555968459,-2.7037235362543477,0.9660915278142989,2.1471215975389946,-1.3309985966777675
-1.6944154075186564,-1.0283798887722335,2.1310662085219763,-2.7291583008223195,-0.787566783363897,2.287330744067924,1.1984351942097804,-1.2912087889072204,0.8656120263178075,0.9327251415050168,-2.703898259162434,0.9653392618091696,2.1479484898608923,-1.3303733626618173
-1.6941748390189646,-1.0286753583359989,2.130804436130223,-2.729257817294908,-0.7873481872570731,2.2874849746628514,1.1981035235483228,-1.292142527592119,0.866414320146968,0.9334064393592125,-2.704073946475243,0.9646115951067613,2.1487920351412426,-1.3297694993398272
-1.6939390951546678,-1.0289692332915,2.1305441056814893,-2.7293581950666668,-0.7871179302163073,2.2876428030847658,1.1977688700344948,-1.2930732245844672,0.8672190630212305,0.9340801109964642,-2.704250748159699,0.9638702876569436,2.1496285280612315,-1.329156984455596
-1.6937011179624522,-1.0292635101507732,2.130283554578004,-2.729457878947953,-0.7868958552168598,2.287797613909825,1.1974371144650031,-1.2940053014954371,0.8680224039413137,0.9347556095436339,-2.7044283529651514,0.9631400454902385,2.150471958717544,-1.3285553785552981
-1.6934650766820658,-1.0295570200160822,2.1300237582535457,-2.7295577629324588,-0.7866700670543403,2.28795287339956,1.197104657723245,-1.2949363034158943,0.868826624619673,0.9354272698505824,-2.7046069774422743,0.9624058745029218,2.1513140444040464,-1.3279527972424734
-1.6932157684354159,-1.0298502396061429,2.129764477344842,-2.729649559701627,-0.7865219761740946,2.288085609728057,1.1967919039066974,-1.2958627342857816,0.869633527119535,0.9360982918748431,-2.70479097934417,0.9617291046265656,2.1522205362946956,-1.3274519130459261
-1.6929879920766278,-1.0301431548972788,2.129505181886046,-2.7297534428534944,-0.7862553841173358,2.288251022609498,1.1964498978215796,-1.2967958322496405,0.8704361532170833,0.9367670376808218,-2.7049697229673684,0.9609684184513873,2.1530312192669685,-1.326796392861562
-1.692747808891639,-1.0304357891990232,2.1292465123870796,-2.7298499748699445,-0.786060999840857,2.2883953727652417,1.1961264737456183,-1.2977242878835458,0.8712416259461571,0.9374344517536447,-2.7051528479953677,0.9602606714163733,2.1539016656106367,-1.3262388754780947
-1.692516644904239,-1.0307278376450553,2.1289881367489167,-2.7299503756940116,-0.7858252165642923,2.2885506036421046,1.1957928401740656,-1.298654172598828,0.8720448300522092,0.9380997423021464,-2.705334340584189,0.9595233868282627,2.154738590568213,-1.325626139487619
-1.6922800898953954,-1.0310196822436761,2.1287302034584084,-2.730048402482299,-0.7856151128333025,2.2886980887996136,1.1954663599676263,-1.299582942532926,0.8728500490350516,0.9387635528107913,-2.705518312156674,0.9588073096742813,2.1555982428622893,-1.3250536190750213
-1.6920472866404714,-1.031311291287624,2.1284725387995853,-2.7301476349137244,-0.7853905915895082,2.288848530948561,1.1951363054574198,-1.300511576372196,0.8736542761409202,0.9394254644396031,-2.705702148083293,0.9580799651320759,2.1564481641553455,-1.3244623431665985
-1.6918125781070148,-1.031602760069931,2.1282151565963994,-2.730246049157045,-0.7851752469239268,2.288995513921885,1.1948093295659392,-1.3014412992796753,0.874458421428346,0.9400885442076934,-2.7058868379083885,0.9573628719130983,2.1573086662629053,-1.323885174904859
-1.6915800924479705,-1.0318932858320036,2.1279584924643764,-2.730344455610226,-0.7849562995058601,2.2891421546560835,1.1944816930982494,-1.3023672957249754,0.8752636390092928,0.9407452612769173,-2.7060723904198762,0.9566401813969402,2.158164857044753,-1.323302883186124
-1.691347390667974,-1.0321838455580128,2.127702032404819,-2.7304424809143875,-0.7847408535584428,2.289286156773756,1.1941554855820449,-1.3032946941907093,0.8760681021720141,0.9414030620447105,-2.706258549831021,0.9559221261836524,2.159026152049456,-1.322727186347639
-1.6911150037621168,-1.032473651556001,2.127446100173519,-2.7305405840498302,-0.7845243852111183,2.289431196147018,1.1938293083971252,-1.3042204051300146,0.8768736586428479,0.9420573846043374,-2.706445658565754,0.9552036230646034,2.1598874081194293,-1.3221543525489907
-1.6908822064745597,-1.0327640159030336,2.127189824892607,-2.73063883139063,-0.7843088115711447,2.28957548871971,1.1935040195862032,-1.3051482598329607,0.8776773909989267,0.9427137325853155,-2.706633267511904,0.9544879246042457,2.160751674867173,-1.3215856395804497
-1.690650330221179,-1.033053818555003,2.126933960228394,-2.730736359808954,-0.7840938078136027,2.289717397211275,1.1931782650224236,-1.3060735417381362,0.8784819543578332,0.9433660119014811,-2.7068215174807424,0.9537712870542621,2.1616165281809914,-1.3210196032744679
-1.6904187483326334,-1.0333428021939055,2.1266790561117968,-2.7308338718089034,-0.7838803555929821,2.28985867634894,1.1928537571425817,-1.306997279479104,0.8792877416869092,0.9440150921284103,-2.707010846774744,0.9530551636933717,2.1624846561336706,-1.32046179569692
-1.6901881470931432,-1.0336315334059663,2.1264245355189613,-2.730930968505664,-0.7836676865269518,2.2899980630512795,1.1925294687644665,-1.3079208402424274,0.8800929669379027,0.9446631694364284,-2.7072005871801608,0.9523395914073927,2.1633538796785095,-1.3199060809141647
-1.6899574847608168,-1.033919768608732,2.1261703946487396,-2.731028147883073,-0.78345540234004,2.2901375756362925,1.1922055674804661,-1.3088435384834831,0.8808988552942134,0.9453089449796254,-2.7073917871768938,0.9516245867227663,2.164227093518117,-1.3193527783065966
-1.6897271415494186,-1.0342076941639216,2.125916655325829,-2.731124978993674,-0.7832440738484407,2.2902725814525455,1.1918829316112103,-1.309764823545825,0.8817042925852606,0.9459531757675784,-2.707582123029089,0.9509078930021082,2.1650958947164365,-1.3188001758487362
-1.6894967847931879,-1.0344953050500016,2.1256632654758056,-2.731221827929183,-0.7830325417679371,2.2904084597364003,1.1915599609282446,-1.3106860339389435,0.8825107519439181,0.9465955843012006,-2.707774601400042,0.9501928298279448,2.1659720035306442,-1.3182496325367532
-1.689266579380342,-1.0347827493756654,2.1254101820751177,-2.7313185405741627,-0.7828220050418114,2.290541561762423,1.1912366399569325,-1.3116059238034004,0.8833170624254599,0.9472361867687941,-2.7079665402910997,0.9494763557399482,2.1668452259501514,-1.317698366447743
-1.689036919121439,-1.0350695714238685,2.1251575412655384,-2.7314148858199356,-0.782612003615072,2.290673061894418,1.1909145671427712,-1.3125255225546835,0.8841238501579972,0.947874947715291,-2.7081597180685173,0.9487606248040585,2.167721974401858,-1.3171499735915826
-1.68880715777162,-1.0353561933208284,2.124905221323435,-2.731511448413109,-0.7824024351700822,2.290802723898802,1.1905930957713624,-1.3134435467399963,0.8849305606793478,0.9485119362467301,-2.7083530410073746,0.9480448413868746,2.1685983684779075,-1.3166023361822525
-1.6885778651155228,-1.0356423282697205,2.12465333095716,-2.731607896222571,-0.7821937647153824,2.2909312351464224,1.1902733481809715,-1.3143615133322368,0.885737574577361,0.9491470141719569,-2.7085472192416904,0.9473285114018491,2.1694766705202255,-1.316053936881262
-1.6883484998171132,-1.0359282921108395,2.124401736578695,-2.7317038743175046,-0.7819854698643045,2.2910566489427775,1.1899526248770977,-1.3152772873809666,0.886544421053519,0.9497803303363782,-2.708741400175926,0.946612828166621,2.17035438805575,-1.3155102243515462
-1.6881193216594084,-1.03621386893963,2.124150545522677,-2.731800004306609,-0.7817775455541364,2.2911816426945415,1.1896334224398086,-1.316192676255777,0.8873516618933918,0.9504117774384688,-2.708936281718979,0.9458965001336457,2.171233658414126,-1.3149644982972193
-1.6878906127137197,-1.0364991992939805,2.1238995605888475,-2.7318983025124575,-0.7815644261589433,2.291325905723376,1.1893141032231587,-1.3171095122230947,0.8881567470948101,0.9510416296438112,-2.709123460911329,0.9452740352060895,2.172006705495249,-1.3143996268656002
-1.6876617399997376,-1.0367841030070013,2.1236492183520594,-2.7319925710085755,-0.7813610834565599,2.2914343999559916,1.1889958923566464,-1.318021585247112,0.8889660845552404,0.9516695586284877,-2.7093242748640183,0.9445025629012308,2.1729547910844635,-1.31387097870221
-1.6874338002519695,-1.0370685268320918,2.1233989459876845,-2.7320914151622273,-0.7811473960392632,2.2915837830340724,1.1886779829890246,-1.31893721451306,0.8897699795725349,0.9522955933768462,-2.7095092013241953,0.943914597961734,2.173688773224447,-1.3132989012551524
-1.6872052195211364,-1.0373528374451906,2.1231494835147764,-2.7321848958714137,-0.7809463024006743,2.291684782927346,1.1883610329780638,-1.3198470762920917,0.89058057541289,0.9529200784770577,-2.7097129806609033,0.943123012911749,2.1746649074087636,-1.3127785409073929
-1.6869776159389758,-1.0376367396301571,2.1228998043567975,-2.732283887287222,-0.780732556601975,2.2918342723138556,1.1880440003149326,-1.320761008496281,0.8913843092084531,0.9535424842457126,-2.7098976317815935,0.9425484807996037,2.175387202152185,-1.3122049534296576
-1.6867494403368868,-1.0379202982551192,2.122651340412028,-2.7323766328651415,-0.7805336439704068,2.291929192603948,1.187728656418929,-1.3216683817470694,0.8921948201742046,0.9541632405907416,-2.7101029788140565,0.9417491722040354,2.1763718022523793,-1.3116906422337757
-1.686522057701519,-1.038203948001137,2.1224019935355924,-2.7324758089374583,-0.7803199872995858,2.2920791404876835,1.1874120528624834,-1.3225831210184262,0.8929986086302956,0.954785144836893,-2.7102878543775746,0.9411821732261834,2.1770942312114143,-1.3111179102741914
-1.686293977183165,-1.0384871862023082,2.1221534096764247,-2.732571080794456,-0.7801154757899783,2.292193874920055,1.1870967145478095,-1.3234914387404326,0.8938063006862583,0.9554032348352042,-2.7104856796741985,0.9404761623883522,2.1779748845710816,-1.3105817679999485
-1.686067375685832,-1.0387696966137068,2.121905498699397,-2.732668304197249,-0.7799073319282153,2.292327241774691,1.1867819190666058,-1.3244002538592938,0.8946126984417544,0.9560180303209161,-2.7106765915570024,0.9398541796381799,2.1787616176522744,-1.310024913853128
-1.6858402075132182,-1.039052092631967,2.121657773289449,-2.7327641970845478,-0.7797022402220836,2.292447311849931,1.1864677807039123,-1.3253073502578443,0.8954202545025783,0.956632034275017,-2.710872357362413,0.9391823317146168,2.179606672920205,-1.3094820303154926
-1.6856137420108805,-1.0393341352598324,2.1214104842880923,-2.7328606337440573,-0.7794962512523747,2.2925738304298506,1.1861538521436976,-1.3262140902761839,0.8962272923785175,0.957243666373003,-2.7110658876309004,0.9385417913839036,2.18041896302525,-1.3089326641803998
-1.6853872154860445,-1.0396158449156903,2.121163523831994,-2.732956554141898,-0.7792916378561733,2.292694635652981,1.1858405540697907,-1.3271195704820982,0.8970349014002783,0.9578539145178415,-2.7112614047473746,0.9378834680637897,2.1812529500992923,-1.3083889071766481
-1.6851611655855752,-1.0398972206994594,2.120916936770533,-2.733052556574836,-0.7790871954943831,2.2928172988909648,1.1855276730888928,-1.328024177634178,0.8978421188105178,0.9584620442894721,-2.7114563785349257,0.9372373435700293,2.182075801581496,-1.3078439007075668
-1.684935034084847,-1.0401785021176893,2.120670660989231,-2.733148350057254,-0.7788832739444684,2.292937421473008,1.18521514342037,-1.3289278651638585,0.8986497988714682,0.9590686408571379,-2.7116523450679435,0.9365851502199455,2.1829074211179047,-1.3073016129322732
-1.6847099605414977,-1.0404590209901134,2.120424863924793,-2.733244226101194,-0.778680569953958,2.2930574314608774,1.1849044083026057,-1.329830695032439,0.8994568288880253,0.959673247050963,-2.711848546753,0.93593680099193,2.1837363195437134,-1.3067594087683072
-1.6844836415706033,-1.040739950288929,2.1201789441164602,-2.733339788273221,-0.7784770639733862,2.2931764063944606,1.184591973415488,-1.330732252906481,0.9002645797975011,0.9602762026494077,-2.712045146134923,0.9352890024488915,2.1845680598757227,-1.3062197925771264
-1.6842592547202049,-1.041019820555146,2.1199340284421235,-2.7334352493366074,-0.7782754157072751,2.2932947567797837,1.1842815368660458,-1.3316330588553014,0.9010718884000363,0.9608772275180542,-2.7122421241274237,0.9346419262654417,2.1854012877524696,-1.3056804011895715
-1.684034106417462,-1.041299709932739,2.1196891100143826,-2.73353048888506,-0.7780739202422041,2.293411325426307,1.183970834548646,-1.3325328558383682,0.901879569094747,0.961476527421796,-2.7124395112810844,0.9339965631445359,2.1862340281137715,-1.3051434584287094
-1.6838093489151456,-1.0415791524298545,2.1194446616562423,-2.7336266662660935,-0.777873406955073,2.2935243191867696,1.183663551527143,-1.3334317669841633,0.9026860690096579,0.9620739691126825,-2.712638048801149,0.93334895103954,2.1870703192467453,-1.3046078949992375
-1.6835717533896133,-1.0418578037170259,2.119202829148335,-2.7337108686670297,-0.777756263112754,2.293626771697229,1.1833793896509848,-1.334324304678574,0.9034972212122877,0.9626695395233141,-2.712837158091943,0.9327832944690435,2.1880049572203175,-1.3042455453549184
-1.6833563498490844,-1.04213682680413,2.118957813815354,-2.733812401244042,-0.7775074123800784,2.293749036687465,1.18305620659433,-1.3352242744145586,0.9043018315950148,0.963263354873875,-2.7130353421918176,0.9320931372808149,2.1887824979078876,-1.3036098889901102
-1.6831279759699598,-1.042415145021559,2.118715276737614,-2.733902973658312,-0.7773382693596802,2.2938571371608565,1.1827562888017666,-1.3361181771673638,0.9051110184541666,0.9638553862392384,-2.713234468631129,0.9314796367620494,2.189655879007247,-1.303145830157482
-1.6829078536404112,-1.0426934902156524,2.1184718025542892,-2.733999857635892,-0.7771222164420656,2.293972530178737,1.1824429653652615,-1.3370138173046928,0.9059169193394887,0.964445398321769,-2.7134335857082896,0.9308222407932547,2.190473630510603,-1.30258292652493
-1.6826833537688615,-1.0429713191134677,2.1182294778614454,-2.734092624836626,-0.77693528441674,2.294081855596551,1.1821383859252208,-1.3379070628652354,0.9067249507933054,0.9650338144725251,-2.7136333249742233,0.9301923149156602,2.191326828091448,-1.3020837084008956
-1.682462190898566,-1.0432488114400684,2.1179870784079697,-2.734187497541057,-0.776731967919969,2.29419320692369,1.1818292307507283,-1.3388002835744852,0.9075315861020731,0.9656202726309739,-2.713833297913331,0.929547582556949,2.1921607885655368,-1.301550761692526
-1.6822390723256382,-1.0435259333793383,2.117745330569584,-2.734281306545392,-0.7765403119063898,2.2943010981014567,1.1815246845678087,-1.3396915832272775,0.908338862145238,0.9662050469217331,-2.7140337009945243,0.9289127410514372,2.1930093332010503,-1.3010424499285467
-1.6820178586708452,-1.0438030495669322,2.1175037250328375,-2.7343752181096197,-0.7763413787399598,2.294410443759248,1.1812167523358776,-1.3405828326166151,0.9091458430084697,0.9667879339412528,-2.7142344163173076,0.9282738311871935,2.193850143522614,-1.3005240227318695
-1.6817956210794645,-1.0440796511946075,2.117262734693784,-2.7344697025144566,-0.7761480334316958,2.294514391154,1.1809142621537492,-1.3414725418519746,0.9099521082997303,0.9673690701809583,-2.714436172550387,0.9276360458863886,2.1946983434352685,-1.3000156136960432
-1.681575102057184,-1.0443559033537075,2.1170219112730395,-2.734562544975176,-0.775952400376022,2.2946228746996793,1.1806066328567733,-1.3423612997795045,0.9107592946197747,0.9679482539180604,-2.7146371189342844,0.9270020241914687,2.1955430402003127,-1.2995067497441095
-1.6813533719005898,-1.04463199039047,2.116781556215701,-2.734656532034621,-0.7757595661737989,2.2947272293775334,1.1803033948711443,-1.3432480880489186,0.911565308139989,0.9685256456265205,-2.7148390143300594,0.9263672271071043,2.1963933327326934,-1.2990024270974418
-1.68113335466469,-1.0449077423988684,2.1165415569965087,-2.7347491070569325,-0.7755655866579617,2.294832514675744,1.1799976360891795,-1.34413488339238,0.9123721719972187,0.9691011857570088,-2.7150408224894647,0.9257345522800089,2.1972404143464264,-1.2985006584253174
-1.6809128746066926,-1.0451829708774063,2.1163020511608357,-2.7348422470536176,-0.7753737542885556,2.294935463829441,1.1796945178032,-1.3450197374830288,0.9131784446329847,0.9696749701222166,-2.7152431115943556,0.9251019561283964,2.198091338053248,-1.2980017036491838
-1.6806931228406004,-1.0454581503474993,2.116062945901392,-2.7349346681104882,-0.7751816924751542,2.2950382292697684,1.1793906032896984,-1.3459035005363607,0.9139845754277638,0.9702467654993681,-2.7154455432227556,0.9244710572131136,2.1989415105100476,-1.2975056321842757
-1.6804735778789062,-1.0457326046515039,2.115824424156209,-2.7350270355540935,-0.7749911884804135,2.295138967055328,1.179088317613908,-1.3467859167264624,0.9147905752635549,0.9708168705160172,-2.715648414280121,0.9238406100282498,2.1997941141734376,-1.297012307381817
-1.680254639773692,-1.0460071295152567,2.1155859597584286,-2.7351194231792024,-0.7747999897513033,2.2952404612404345,1.1787844227552882,-1.3476671881500912,0.9155962530898002,0.9713850495298862,-2.715851360592959,0.9232111290848164,2.200649570687848,-1.2965179080505702
-1.6800355115399068,-1.0462810430339273,2.1153480709497274,-2.735211571733088,-0.7746108166751459,2.2953409224154715,1.178483556002459,-1.348547252395516,0.9164019007231361,0.9719514177497227,-2.716054819317373,0.922582499744823,2.2015019122474153,-1.2960323302682815
-1.6798167435634745,-1.046555006222745,2.115110312722316,-2.7353038189134855,-0.7744211150656128,2.295441610665327,1.1781814474180425,-1.3494261627662179,0.9172073044258973,0.9725159736169522,-2.716258428032453,0.9219545262348724,2.202357655434068,-1.295545543952206
-1.6795981288899842,-1.0468283783800068,2.1148729941004225,-2.7353959287987335,-0.7742326555933513,2.295541568369633,1.1778808339034181,-1.3503037259960864,0.9180124356060503,0.973078630224233,-2.7164623756061927,0.9213274701615608,2.20321263213063,-1.295063757109652
-1.679379780971212,-1.0471015893124302,2.1146359225347875,-2.7354880488845255,-0.7740444093777872,2.2956414079018876,1.1775801489229814,-1.3511801149687366,0.9188173986527093,0.9736394792902148,-2.716666558812852,0.9207010130526414,2.2040693902789004,-1.294583126633925
-1.6791616169966335,-1.0473743933928983,2.114399208925857,-2.735580093982098,-0.773856991684048,2.2957407652749873,1.177280358793103,-1.3520552584537255,0.919622181944398,0.9741984879813989,-2.7168710613592792,0.9200752513205154,2.2049264490516998,-1.2941059013442502
-1.6789445264572749,-1.0476469511631126,2.1141628154860945,-2.7356722388056194,-0.7736695093165463,2.2958398876251405,1.17698053484416,-1.3529296019024541,0.9204266768066427,0.9747557743109021,-2.717076046804088,0.9194491936823086,2.205789086083705,-1.2936248688300194
-1.6787259627317919,-1.0479190576656283,2.113926739999875,-2.735764331378607,-0.7734831104654696,2.295938524967885,1.17668202826633,-1.3538017904359063,0.9212309432327395,0.9753110352812435,-2.7172810027387326,0.9188255838903918,2.206645373276481,-1.293157373355658
-1.6785087875529547,-1.0481911159462223,2.113690932221871,-2.7358562125519694,-0.7732966189264006,2.2960370529360663,1.176383243708422,-1.354673802662979,0.9220349676964354,0.9758645445116823,-2.717486559439524,0.9182013865728355,2.207505999718791,-1.292685952681286
-1.6782908462581256,-1.0484627709616783,2.113455438202209,-2.7359483199829837,-0.7731110247391504,2.2961351527128073,1.1760856202920376,-1.3555440808723676,0.9228387462767264,0.9764161893857408,-2.7176922710808222,0.9175782843670152,2.208365232749964,-1.2922211295305432
-1.6780754173667705,-1.0487340917257755,2.1132202986227098,-2.7360400920089143,-0.7729271922957325,2.296232916603009,1.1757887169136256,-1.356412747559423,0.9236416173751616,0.9769659673928178,-2.7178981871576813,0.9169551844041414,2.209230411356067,-1.2917484143805864
-1.67785674291654,-1.0490052690464085,2.112985473768842,-2.7361331148858947,-0.7727423798497757,2.2963304451103874,1.1754943001261626,-1.3572807941298288,0.924445117157057,0.9775139624046384,-2.7181048097880733,0.9163326786235989,2.210088650932117,-1.2912946208639318
-1.6776403598654326,-1.0492760834353811,2.1127509387160694,-2.736225242553917,-0.7725595777315901,2.2964276248936013,1.1751992960208204,-1.3581472346540375,0.9252479656020152,0.9780601574620741,-2.7183113312961376,0.9157108208278099,2.2109523840757186,-1.290832696802026
-1.6774238464849027,-1.0495465254111707,2.1125168641760377,-2.736318189283208,-0.7723757951623634,2.2965244108697576,1.1749058185809387,-1.3590123159643337,0.9260504856628198,0.9786044599011844,-2.7185184710465182,0.915089181968773,2.211814082339537,-1.2903811628411037
-1.6772138570151343,-1.0498167701164023,2.1122828009614976,-2.7364097631107724,-0.7721967167974353,2.2966209921739758,1.1746040586425057,-1.359879701432012,0.9268689393936623,0.9791469559066298,-2.7187218519909444,0.9144619026714709,2.2127004252658535,-1.2899031527286096
-1.6769943631550583,-1.050086716511815,2.112049451511467,-2.736502884473902,-0.772012809882501,2.296717215940605,1.1743164895270084,-1.3607396939572836,0.927660805284346,0.9796874866691443,-2.7189316261643866,0.9138458049531506,2.2135506715659425,-1.2894694389482884
-1.6767811286152667,-1.050356432078791,2.111816124215256,-2.7365946940090073,-0.771832418338652,2.296813186822713,1.1740204434942283,-1.3616022862381738,0.9284681323206296,0.9802262530075405,-2.71913795631879,0.913224040195993,2.2144234147756405,-1.289012996893112
-1.676564662863328,-1.0506257397280134,2.111583287249398,-2.736687169527612,-0.7716507747542117,2.2969087432226725,1.1737303666218886,-1.3624613579550977,0.9292657460224366,0.9807630866878699,-2.7193467067676345,0.9126067223365959,2.2152834251429407,-1.2885740627749764
-1.676349494735663,-1.0508947864048388,2.1113505387840665,-2.7367783896515423,-0.7714710679147432,2.297004023778811,1.173435287932602,-1.3633192996005559,0.9300687927443524,0.9812981005372208,-2.71955358935313,0.9119894807414888,2.2161542983862983,-1.2881256381233857
-1.676134634776246,-1.0511636615972064,2.1111184219707626,-2.7368711592063377,-0.7712906663238258,2.2970990992122835,1.1731462669463777,-1.3641761596664363,0.9308678256699947,0.9818313517898468,-2.719762644603132,0.9113718301312448,2.2170179240865893,-1.2876905184498384
-1.6759201332947988,-1.0514319527788423,2.110886476949654,-2.7369629480084026,-0.77111210340896,2.2971936362767513,1.1728547444362298,-1.3650312507665663,0.9316687363740791,0.9823627234278158,-2.7199705709066975,0.9107555332668531,2.2178866197740894,-1.2872512048263238
-1.675705730872786,-1.051700332088161,2.1106548945980066,-2.7370552533527706,-0.7709330827799378,2.2972881675177086,1.1725653558655322,-1.3658851520725663,0.9324679314921561,0.9828922698190062,-2.7201794865116873,0.9101394538547986,2.2187531256784316,-1.2868180110998038
-1.6754924136258698,-1.0519680249114458,2.110423543798354,-2.7371470485137976,-0.770754901801004,2.2973820404384555,1.1722748645468892,-1.3667375258549976,0.933267132377017,0.9834199140113277,-2.720388093385716,0.9095241209978396,2.21962350378129,-1.286380622799518
-1.6752781025587997,-1.0522357999162297,2.1101926304487537,-2.737239161670057,-0.7705773026432458,2.2974759727829053,1.1719864720315536,-1.3675882686912466,0.9340659978396232,0.9839457403718055,-2.720597172954634,0.908909743754757,2.220490408609846,-1.2859544865859975
-1.6750649114492715,-1.0525029560279469,2.1099619718856593,-2.7373309638248795,-0.7704003622129262,2.29756930244422,1.1716977139060583,-1.3684377807479302,0.934864538257296,0.9844697504137702,-2.720806264811724,0.9082956521227921,2.221360225540734,-1.2855252964849528
-1.674851961516021,-1.0527700416183494,2.109731516497011,-2.7374224105660154,-0.7702226521064489,2.297662483437063,1.1714080644446478,-1.3692863596827274,0.9356624796980734,0.9849918921446649,-2.721015637763255,0.907682057510853,2.2222286966862037,-1.2851018356368686
-1.674638993289491,-1.0530366404191878,2.1095015572521083,-2.7375144524263018,-0.7700476926612716,2.2977552589089902,1.1711221210301872,-1.370133011969439,0.9364603353948661,0.9855122337977399,-2.7212252555744323,0.9070688691196868,2.2230986194681974,-1.28467845114319
-1.6744262954125522,-1.053303117984726,2.1092718029398476,-2.737605994154089,-0.7698717237871148,2.2978478436428125,1.1708343340797422,-1.3709781371771264,0.9372574815363643,0.9860306775452404,-2.7214348634149537,0.9064567471737752,2.2239683303489817,-1.2842590117935133
-1.6742136505040341,-1.0535693920494313,2.1090423955240625,-2.737697754807375,-0.7696969117735258,2.297940215151388,1.1705482180490698,-1.3718218241425602,0.9380544531718814,0.9865473417962662,-2.7216447228976537,0.9058448452455022,2.224838709414985,-1.2838406888235105
-1.674020460516114,-1.053835170918057,2.1088123325627857,-2.7377829796770845,-0.7695428613131835,2.298032111343207,1.170249205036388,-1.3726711758585186,0.9388797858978818,0.9870622800535894,-2.7218443847652405,0.9052243878167305,2.2257306886898425,-1.2833841594881017
-1.6738160967393887,-1.0541008553323674,2.1085831234557304,-2.7378720707718336,-0.7693772478575566,2.2981238757131135,1.1699587439507517,-1.3735148574298746,0.9396877941460492,0.9875753580255848,-2.722050457565358,0.9046091144705379,2.2266120091059887,-1.2829541036115524
-1.6736065831962375,-1.0543642757276692,2.108355037579766,-2.7379466360523237,-0.7693051577672942,2.2982153855101153,1.169688659941374,-1.374355279687586,0.9405073501562669,0.9880865950682044,-2.72225415425947,0.9040786010936139,2.2276146728237523,-1.2826946406422526
-1.6734163839007457,-1.054630513557419,2.1081256839671676,-2.738039648930048,-0.7690969507656832,2.298306525436909,1.169387111816582,-1.3751999935367367,0.9413153559002009,0.9885958964121666,-2.7224586257786965,0.9034086171339661,2.2284248276531837,-1.282157376174924
-1.6732138038849347,-1.0548946913280908,2.1078974145885168,-2.7381223831944776,-0.7689699971718553,2.298397450228577,1.1691056024931354,-1.3760398233389235,0.9421298612338632,0.9891034115998069,-2.722663112633751,0.902823213819666,2.229348324308081,-1.2817958082603214
-1.6730189911304603,-1.0551595689922937,2.1076689695660358,-2.738211271702125,-0.7687951490820354,2.298487979942765,1.1688129452183542,-1.3768801629849527,0.9429397703913883,0.9896090413597837,-2.722867884581895,0.9021880579734091,2.2302045073398946,-1.2813313604995844
-1.6728206052705676,-1.0554236591279662,2.1074411335162027,-2.7382963975845804,-0.7686504203433012,2.298578341906172,1.1685284997590835,-1.3777177025705198,0.9437518678337039,0.9901129238911929,-2.7230728300117457,0.9015815265948399,2.2311045052393905,-1.280928913504238
-1.672623576061753,-1.0556879504055585,2.1072131497239335,-2.7383839421593046,-0.7684873687673189,2.2986684904727346,1.168238944068834,-1.3785569026623579,0.9445625266669085,0.9906177114717393,-2.7232776621490347,0.900960745045671,2.2319770395370795,-1.2804954285840764
-1.67242599287264,-1.0559516577100359,2.1069857106338197,-2.738470091138804,-0.7683360418070944,2.29875829191716,1.1679532885001713,-1.3793924275517258,0.9453733355137524,0.991119026001977,-2.723482717574551,0.900349005644035,2.232866544296078,-1.2800834689446312
-1.6722179811787758,-1.0562088256182027,2.1067488427004752,-2.7385736960638893,-0.7681754394665216,2.2988475196321674,1.1676885774421601,-1.3802411609687812,0.9461646373843244,0.9916166662002126,-2.7236981461744443,0.8997180721018043,2.2337245908408776,-1.2796615216537983
-1.6720164457450135,-1.056469403580892,2.1065180468230498,-2.7386666702000606,-0.7680217151734146,2.298936714932591,1.1674116565029216,-1.3810794754365856,0.9469673327725071,0.99211354018392,-2.7239071621398465,0.8991012478754741,2.2345987899521997,-1.2792498051630115
-1.6718113315337957,-1.0567275459518204,2.106284052719401,-2.7387658640084767,-0.7678644615006102,2.2990254351226285,1.1671425747450335,-1.3819215059418641,0.9477626099824901,0.9926080210473593,-2.724120150138879,0.8984765826919865,2.2354634207910355,-1.2788346957543886
-1.6716087630703074,-1.0569866306144995,2.106052373107005,-2.7388611597733616,-0.7677101375362475,2.29911394318931,1.166869342576771,-1.3827583719693757,0.9485615050722543,0.99310096288152,-2.7243309373300235,0.8978570784399723,2.2363356997330563,-1.2784251984202548
-1.6713920346854683,-1.0572371848663393,2.1058285912572523,-2.738942634822148,-0.7676104670301563,2.2992024391246924,1.1665981540211618,-1.3835902356252405,0.9493611728108566,0.9935919164451598,-2.724543971196741,0.8973270871208756,2.2373214038904035,-1.2781943648130931
-1.671203583986377,-1.0575063419280564,2.105603671001273,-2.7390248959802426,-0.7674237596761645,2.2992904694391285,1.16629103317114,-1.3843916454290803,0.9501556637445445,0.9940806698331407,-2.724746305334259,0.8966951670108418,2.2381562487410256,-1.2777082370738577
-1.6709989976650959,-1.0577637634105155,2.1053798465657834,-2.7391065292175787,-0.7672908882107228,2.2993781980182986,1.166007025213209,-1.3852092026042933,0.9509519551463961,0.9945678498563865,-2.724955526381295,0.896126054140506,2.2390793380937324,-1.2773780740827627
-1.670789081258695,-1.0580275989418828,2.1051549140177235,-2.7392026433422925,-0.7671078850614417,2.2994658462270006,1.1657349390688683,-1.386025035644953,0.9517344191161224,0.9950532638472677,-2.7251693087695195,0.895497733780429,2.239926546043486,-1.276961145954738
-1.670578564194717,-1.0582870788079635,2.1049306071960565,-2.739292230898931,-0.7669510340695402,2.299553020748815,1.1654555579932215,-1.3868392083068664,0.9525253086260809,0.9955369526656543,-2.7253797744872323,0.8949069418786805,2.2408138958119155,-1.2766050190393639
-1.6703678426582678,-1.058548841096037,2.1047059391935043,-2.7393864631018614,-0.7667784360945887,2.2996400074770427,1.1651813524128782,-1.38765178760712,0.9533100297856625,0.9960187289410024,-2.725592321911552,0.8942946454679058,2.2416758350321415,-1.276215019641398
-1.6701559615440271,-1.0588091344805106,2.1044810991431686,-2.739478939488065,-0.7666150438033129,2.2997268131486353,1.1649045477004984,-1.3884627339152555,0.9540974993664698,0.9964987639723293,-2.725803714543297,0.8936959082566223,2.242552986325002,-1.2758481515104214
-1.6699441081540511,-1.0590697914227214,2.1042564805100255,-2.7395728805415223,-0.7664467564702718,2.2998132413490504,1.1646299711147343,-1.38927153219642,0.9548821237783162,0.9969769634308354,-2.7260161132477707,0.8930892709237765,2.2434257566324045,-1.2754708970354223
-1.669717760895808,-1.059330123757729,2.104033453591904,-2.7396530817981337,-0.766351503470542,2.299899578055323,1.1643603980151056,-1.3900740933418296,0.9556709946990691,0.9974532377944547,-2.7262283533546596,0.8925840048058935,2.2444185012845805,-1.2752833811025277
-1.6695443886161583,-1.059590300339086,2.1038098681456927,-2.7397379851503816,-0.7661742796663963,2.2999856767620956,1.1640687429842747,-1.3908908835223663,0.9564817615160204,0.9979280681578024,-2.7264306192279473,0.8919132760284934,2.245238017195876,-1.2747762712386894
-1.6693095428386864,-1.0598507235484207,2.103580031591738,-2.739840309969139,-0.7660164731194105,2.3000712141051496,1.1638041920587707,-1.3916906778299565,0.9572506197865759,0.9984035505493933,-2.726648196980809,0.8913529612869671,2.246144057729465,-1.2744964925532873
-1.6691117890889169,-1.0601109544750862,2.1033541322873757,-2.739932134176406,-0.7658474739158552,2.3001569498423846,1.1635236450253195,-1.3925009652624902,0.958044528078028,0.9988785369557043,-2.726856684283849,0.8907275314678068,2.2469996562290713,-1.2740826773515046
-1.668891638518068,-1.0603713041318263,2.103125968868315,-2.74003019734647,-0.7656853123732102,2.3002425480012882,1.163252795058567,-1.3933023519051333,0.9588225484094429,0.9993510133578601,-2.727070740871734,0.8901417232165261,2.2478857000592036,-1.2737520164724765
-1.6687171811720978,-1.0606296735742962,2.102907232122377,-2.740103927158544,-0.7655532529364008,2.3003272655591216,1.1629657427294122,-1.3941103626621858,0.9596364231315722,0.9998166609797069,-2.7272723377066383,0.8895202838546745,2.2487710328100587,-1.2733410338773614
-1.6684845655526677,-1.0608895280843467,2.1026761933565283,-2.740212284462103,-0.7653717402979552,2.300411895886152,1.1627005659809682,-1.3949018082859717,0.9603978701176218,1.000283292129429,-2.72749052069093,0.8889345885316328,2.2496360379617593,-1.2730156181402237
-1.6683174063968869,-1.0611476208426487,2.102459496330898,-2.7402831945846122,-0.765252260926488,2.3004964044056613,1.162416641860164,-1.3957088118106402,0.9612170617203171,1.0007467037553617,-2.727690037925998,0.8883137097050596,2.2505343476316746,-1.272605291679641
-1.6681110114089184,-1.0614061971755235,2.102235122480445,-2.7403734926691596,-0.7650958608278051,2.300580582848849,1.162138989817829,-1.3965040069474404,0.9620022518738819,1.0012091351427725,-2.727900317131341,0.8877184877621592,2.2514100688590535,-1.2722539708688785
-1.6679283230690385,-1.061664139571424,2.102015766927493,-2.7404521336509937,-0.7649623085963482,2.3006645846035205,1.1618582075475512,-1.3973035106961853,0.9628067253540514,1.0016693265054646,-2.7281042102150828,0.8871088368368744,2.2522995513099313,-1.271870675948182
-1.6677019479935222,-1.0619225934502812,2.101786644510101,-2.740556951735366,-0.764785092012754,2.3007479371060704,1.1615914439746033,-1.3980888527354942,0.963569176196911,1.0021278094815895,-2.7283211745314184,0.8865199744543051,2.253162834820666,-1.271541524787084
-1.667501728504764,-1.0621809439528223,2.1015635540340556,-2.74064604655741,-0.7646338662694051,2.300831724049564,1.1613161116544821,-1.3988829210056049,0.9643570293567216,1.0025872686333446,-2.728530338299412,0.8859193760595668,2.2540432248032967,-1.2711827271591687
-1.667286555684123,-1.062438444548367,2.1013374865216834,-2.740744318726106,-0.764468704522934,2.3009144494203464,1.161047165185778,-1.399666622382843,0.9651272917550274,1.003040616336986,-2.7287444259698916,0.8853261026757241,2.2549138846194143,-1.2708450681107604
-1.6671023822962545,-1.062695577220708,2.1011222463643993,-2.740816829631407,-0.7643393253934704,2.3009977121033076,1.1607548882388743,-1.400442851277856,0.96591749882106,1.0034945578377215,-2.728948188028295,0.8847497841724298,2.255820057799996,-1.2704922769500016
-1.6668779368553188,-1.0629532565039679,2.100892184213399,-2.740924783102134,-0.7641622714888225,2.301080112937724,1.1604967204144827,-1.4012308639588433,0.9666836314638013,1.0039455071251482,-2.7291652297672546,0.8841454639962846,2.2566733382499797,-1.2701589093394126
-1.666678066939104,-1.0632102635790466,2.1006714388879613,-2.7410113318721456,-0.7640144605236705,2.30116264741867,1.1602186839686817,-1.402009275755549,0.9674631053348992,1.004395487988555,-2.7293743784799673,0.8835586703947259,2.257557849741642,-1.2698164101272706
-1.6664939665440974,-1.063466501338882,2.1004527732585903,-2.741091426222499,-0.7638836482943542,2.3012448795128657,1.1599447941071583,-1.4027988301836483,0.9682607911978794,1.0048433874513554,-2.7295794983950237,0.8829483572383049,2.2584443622997967,-1.2694489856358322
